%
(1001)
(T1 D=2 CR=0 - ZMIN=-2.7 - flat end mill)
N10 G90 G94
N20 G17
N30 G21
N40 M9
N50 G0 Z10
N60 X0 Y0

(2D ??1)
N70 T1 M6
N80 S8000 M3
N90 G54
N110 G0 X82.998 Y97.558
N120 G43 Z10
N130 Z5
N140 G1 Z2.5 F80
N150 Z-1.5
N160 G3 X67.003 Y97.166 I-7.998 J-0.196 F500
N170 X83 Y97.362 I7.998 J0.196
N180 X82.998 Y97.558 I-8 J0
N190 G1 Z-2.7 F80
N200 G3 X67.003 Y97.166 I-7.998 J-0.196 F500
N210 X83 Y97.362 I7.998 J0.196
N220 X82.998 Y97.558 I-8 J0
N230 G0 Z5
N240 X83.363 Y157.017
N250 G1 Z2.5 F80
N260 Z-1.5
N270 Y167.007 F500
N280 G2 X83 Y167.812 I0.736 J0.817
N290 G3 X67 Y167.724 I-8 J-0.088
N300 G2 X66.975 Y167.502 I-1 J0
N310 G1 Y162.034
N320 G2 X63.975 Y159.034 I-3 J0
N330 G1 X53.336
N340 Y148.261
N350 X83.363
N360 Y157.017
N370 Z-2.7 F80
N380 Y167.007 F500
N390 G2 X83 Y167.812 I0.736 J0.817
N400 G3 X67 Y167.724 I-8 J-0.088
N410 G2 X66.975 Y167.502 I-1 J0
N420 G1 Y162.034
N430 G2 X63.975 Y159.034 I-3 J0
N440 G1 X53.336
N450 Y148.261
N460 X83.363
N470 Y157.017
N480 G0 Z5
N490 X109.518 Y174.685
N500 G1 Z2.5 F80
N510 Z-1.5
N520 Y179.991 F500
N530 X89
N540 Y169.379
N550 X109.518
N560 Y174.685
N570 Z-2.7 F80
N580 Y179.991 F500
N590 X89
N600 Y169.379
N610 X109.518
N620 Y174.685
N630 G0 Z5
N640 X103 Y186.749
N650 G1 Z2.5 F80
N660 Z-1.5
N670 G3 X101 Y186.699 I-1 J-0.025 F500
N680 X103 Y186.724 I1 J0.025
N690 Y186.749 I-1 J0
N700 G1 Z-2.7 F80
N710 G3 X101 Y186.699 I-1 J-0.025 F500
N720 X103 Y186.724 I1 J0.025
N730 Y186.749 I-1 J0
N740 G0 Z5
N750 X89 Y186.724
N760 G1 Z2.5 F80
N770 Z-1.5
N780 G3 X87 I-1 J0 F500
N790 X89 I1 J0
N800 G1 Z-2.7 F80
N810 G3 X87 I-1 J0 F500
N820 X89 I1 J0
N830 G0 Z5
N840 X63
N850 G1 Z2.5 F80
N860 Z-1.5
N870 G3 X61 I-1 J0 F500
N880 X63 I1 J0
N890 G1 Z-2.7 F80
N900 G3 X61 I-1 J0 F500
N910 X63 I1 J0
N920 G0 Z5
N930 X49 Y186.749
N940 G1 Z2.5 F80
N950 Z-1.5
N960 G3 X47 Y186.699 I-1 J-0.025 F500
N970 X49 Y186.724 I1 J0.025
N980 Y186.749 I-1 J0
N990 G1 Z-2.7 F80
N1000 G3 X47 Y186.699 I-1 J-0.025 F500
N1010 X49 Y186.724 I1 J0.025
N1020 Y186.749 I-1 J0
N1030 G0 Z5
N1040 X52.589 Y33.568
N1050 G1 Z2.5 F80
N1060 Z-1.5
N1070 G2 X52.542 Y33.871 I0.953 J0.303 F500
N1080 G1 Y37.147
N1090 X39.373
N1100 Y26.873
N1110 X54.739
N1120 G2 X55.739 Y25.873 I0 J-1
N1130 G1 Y25.203
N1140 X103
N1150 Y32.871
N1160 X53.542
N1170 G2 X52.589 Y33.568 I0 J1
N1180 G1 Z-2.7 F80
N1190 G2 X52.542 Y33.871 I0.953 J0.303 F500
N1200 G1 Y37.147
N1210 X39.373
N1220 Y26.873
N1230 X54.739
N1240 G2 X55.739 Y25.873 I0 J-1
N1250 G1 Y25.203
N1260 X103
N1270 Y32.871
N1280 X53.542
N1290 G2 X52.589 Y33.568 I0 J1
N1300 G0 Z5
N1310 X49 Y8.025
N1320 G1 Z2.5 F80
N1330 Z-1.5
N1340 G3 X47 Y7.975 I-1 J-0.025 F500
N1350 X49 Y8.025 I1 J0.025
N1360 G1 Z-2.7 F80
N1370 G3 X47 Y7.975 I-1 J-0.025 F500
N1380 X49 Y8.025 I1 J0.025
N1390 G0 Z5
N1400 X63
N1410 G1 Z2.5 F80
N1420 Z-1.5
N1430 G3 X61 Y7.975 I-1 J-0.025 F500
N1440 X63 Y8.025 I1 J0.025
N1450 G1 Z-2.7 F80
N1460 G3 X61 Y7.975 I-1 J-0.025 F500
N1470 X63 Y8.025 I1 J0.025
N1480 G0 Z5
N1490 X89 Y8
N1500 G1 Z2.5 F80
N1510 Z-1.5
N1520 G3 X87 I-1 J0 F500
N1530 X89 I1 J0
N1540 G1 Z-2.7 F80
N1550 G3 X87 I-1 J0 F500
N1560 X89 I1 J0
N1570 G0 Z5
N1580 X103
N1590 G1 Z2.5 F80
N1600 Z-1.5
N1610 G3 X101 I-1 J0 F500
N1620 X103 I1 J0
N1630 G1 Z-2.7 F80
N1640 G3 X101 I-1 J0 F500
N1650 X103 I1 J0
N1660 G0 Z10

(2D ??2)
N1680 X75 Y195.724
N1690 Z10
N1700 Z5
N1710 G1 Z2.5 F80
N1720 Z-1.5
N1730 X150 F500
N1740 G2 X151 Y194.724 I0 J-1
N1750 G1 Y0
N1760 G2 X150 Y-1 I-1 J0
N1770 G1 X0
N1780 G2 X-1 Y0 I0 J1
N1790 G1 Y194.724
N1800 G2 X0 Y195.724 I1 J0
N1810 G1 X75
N1820 Z-2.7 F80
N1830 X150 F500
N1840 G2 X151 Y194.724 I0 J-1
N1850 G1 Y0
N1860 G2 X150 Y-1 I-1 J0
N1870 G1 X0
N1880 G2 X-1 Y0 I0 J1
N1890 G1 Y194.724
N1900 G2 X0 Y195.724 I1 J0
N1910 G1 X75
N1920 G0 Z10
N1940 Z10
N1950 X0 Y0
N1960 M30
%
