%
( File Created by VCarve Pro )
T1 M6
G21 G90
G17
G0 Z 20.000
G0 X 0.000 Y 0.000
G0 X 11.810 Y 9.999 Z 6.000
G1   Z -1.450 F15000.0
G3 X 10.660 Y 11.149 I-1.150 J0.000 F39000.0
G3 X 9.510 Y 9.999 I0.000 J-1.150
G3 X 10.660 Y 8.849 I1.150 J0.000
G3 X 11.810 Y 9.999 I0.000 J1.150
G1   Z -2.900 F15000.0
G3 X 10.660 Y 11.149 I-1.150 J0.000 F39000.0
G3 X 9.510 Y 9.999 I0.000 J-1.150
G3 X 10.660 Y 8.849 I1.150 J0.000
G3 X 11.810 Y 9.999 I0.000 J1.150
G1   Z -4.350 F15000.0
G3 X 10.660 Y 11.149 I-1.150 J0.000 F39000.0
G3 X 9.510 Y 9.999 I0.000 J-1.150
G3 X 10.660 Y 8.849 I1.150 J0.000
G3 X 11.810 Y 9.999 I0.000 J1.150
G1   Z -5.800 F15000.0
G3 X 10.660 Y 11.149 I-1.150 J0.000 F39000.0
G3 X 9.510 Y 9.999 I0.000 J-1.150
G3 X 10.660 Y 8.849 I1.150 J0.000
G3 X 11.810 Y 9.999 I0.000 J1.150
G0   Z 6.000
G0 X 20.228 Y 4.999 
G1   Z -1.450 F15000.0
G3 X 19.078 Y 6.149 I-1.150 J0.000 F39000.0
G3 X 17.928 Y 4.999 I0.000 J-1.150
G3 X 19.078 Y 3.849 I1.150 J0.000
G3 X 20.228 Y 4.999 I0.000 J1.150
G1   Z -2.900 F15000.0
G3 X 19.078 Y 6.149 I-1.150 J0.000 F39000.0
G3 X 17.928 Y 4.999 I0.000 J-1.150
G3 X 19.078 Y 3.849 I1.150 J0.000
G3 X 20.228 Y 4.999 I0.000 J1.150
G1   Z -4.350 F15000.0
G3 X 19.078 Y 6.149 I-1.150 J0.000 F39000.0
G3 X 17.928 Y 4.999 I0.000 J-1.150
G3 X 19.078 Y 3.849 I1.150 J0.000
G3 X 20.228 Y 4.999 I0.000 J1.150
G1   Z -5.800 F15000.0
G3 X 19.078 Y 6.149 I-1.150 J0.000 F39000.0
G3 X 17.928 Y 4.999 I0.000 J-1.150
G3 X 19.078 Y 3.849 I1.150 J0.000
G3 X 20.228 Y 4.999 I0.000 J1.150
G0   Z 6.000
G0 X 6.965 Y 23.999 
G1   Z -1.450 F15000.0
G3 X 5.815 Y 25.149 I-1.150 J0.000 F39000.0
G3 X 4.665 Y 23.999 I0.000 J-1.150
G3 X 5.815 Y 22.849 I1.150 J0.000
G3 X 6.965 Y 23.999 I0.000 J1.150
G1   Z -2.900 F15000.0
G3 X 5.815 Y 25.149 I-1.150 J0.000 F39000.0
G3 X 4.665 Y 23.999 I0.000 J-1.150
G3 X 5.815 Y 22.849 I1.150 J0.000
G3 X 6.965 Y 23.999 I0.000 J1.150
G1   Z -4.350 F15000.0
G3 X 5.815 Y 25.149 I-1.150 J0.000 F39000.0
G3 X 4.665 Y 23.999 I0.000 J-1.150
G3 X 5.815 Y 22.849 I1.150 J0.000
G3 X 6.965 Y 23.999 I0.000 J1.150
G1   Z -5.800 F15000.0
G3 X 5.815 Y 25.149 I-1.150 J0.000 F39000.0
G3 X 4.665 Y 23.999 I0.000 J-1.150
G3 X 5.815 Y 22.849 I1.150 J0.000
G3 X 6.965 Y 23.999 I0.000 J1.150
G0   Z 6.000
G0  Y 37.999 
G1   Z -1.450 F15000.0
G3 X 5.815 Y 39.149 I-1.150 J0.000 F39000.0
G3 X 4.665 Y 37.999 I0.000 J-1.150
G3 X 5.815 Y 36.849 I1.150 J0.000
G3 X 6.965 Y 37.999 I0.000 J1.150
G1   Z -2.900 F15000.0
G3 X 5.815 Y 39.149 I-1.150 J0.000 F39000.0
G3 X 4.665 Y 37.999 I0.000 J-1.150
G3 X 5.815 Y 36.849 I1.150 J0.000
G3 X 6.965 Y 37.999 I0.000 J1.150
G1   Z -4.350 F15000.0
G3 X 5.815 Y 39.149 I-1.150 J0.000 F39000.0
G3 X 4.665 Y 37.999 I0.000 J-1.150
G3 X 5.815 Y 36.849 I1.150 J0.000
G3 X 6.965 Y 37.999 I0.000 J1.150
G1   Z -5.800 F15000.0
G3 X 5.815 Y 39.149 I-1.150 J0.000 F39000.0
G3 X 4.665 Y 37.999 I0.000 J-1.150
G3 X 5.815 Y 36.849 I1.150 J0.000
G3 X 6.965 Y 37.999 I0.000 J1.150
G0   Z 6.000
G0 X 20.443 Y 37.006 
G1   Z -1.450 F15000.0
G3 X 19.293 Y 38.156 I-1.150 J0.000 F39000.0
G3 X 18.143 Y 37.006 I0.000 J-1.150
G3 X 19.293 Y 35.856 I1.150 J0.000
G3 X 20.443 Y 37.006 I0.000 J1.150
G1   Z -2.900 F15000.0
G3 X 19.293 Y 38.156 I-1.150 J0.000 F39000.0
G3 X 18.143 Y 37.006 I0.000 J-1.150
G3 X 19.293 Y 35.856 I1.150 J0.000
G3 X 20.443 Y 37.006 I0.000 J1.150
G1   Z -4.350 F15000.0
G3 X 19.293 Y 38.156 I-1.150 J0.000 F39000.0
G3 X 18.143 Y 37.006 I0.000 J-1.150
G3 X 19.293 Y 35.856 I1.150 J0.000
G3 X 20.443 Y 37.006 I0.000 J1.150
G1   Z -5.800 F15000.0
G3 X 19.293 Y 38.156 I-1.150 J0.000 F39000.0
G3 X 18.143 Y 37.006 I0.000 J-1.150
G3 X 19.293 Y 35.856 I1.150 J0.000
G3 X 20.443 Y 37.006 I0.000 J1.150
G0   Z 6.000
G0 X 51.327 Y 38.499 
G1   Z -1.450 F15000.0
G3 X 50.177 Y 39.649 I-1.150 J0.000 F39000.0
G3 X 49.027 Y 38.499 I0.000 J-1.150
G3 X 50.177 Y 37.349 I1.150 J0.000
G3 X 51.327 Y 38.499 I0.000 J1.150
G1   Z -2.900 F15000.0
G3 X 50.177 Y 39.649 I-1.150 J0.000 F39000.0
G3 X 49.027 Y 38.499 I0.000 J-1.150
G3 X 50.177 Y 37.349 I1.150 J0.000
G3 X 51.327 Y 38.499 I0.000 J1.150
G1   Z -4.350 F15000.0
G3 X 50.177 Y 39.649 I-1.150 J0.000 F39000.0
G3 X 49.027 Y 38.499 I0.000 J-1.150
G3 X 50.177 Y 37.349 I1.150 J0.000
G3 X 51.327 Y 38.499 I0.000 J1.150
G1   Z -5.800 F15000.0
G3 X 50.177 Y 39.649 I-1.150 J0.000 F39000.0
G3 X 49.027 Y 38.499 I0.000 J-1.150
G3 X 50.177 Y 37.349 I1.150 J0.000
G3 X 51.327 Y 38.499 I0.000 J1.150
G0   Z 6.000
G0 X 81.327  
G1   Z -1.450 F15000.0
G3 X 80.177 Y 39.649 I-1.150 J0.000 F39000.0
G3 X 79.027 Y 38.499 I0.000 J-1.150
G3 X 80.177 Y 37.349 I1.150 J0.000
G3 X 81.327 Y 38.499 I0.000 J1.150
G1   Z -2.900 F15000.0
G3 X 80.177 Y 39.649 I-1.150 J0.000 F39000.0
G3 X 79.027 Y 38.499 I0.000 J-1.150
G3 X 80.177 Y 37.349 I1.150 J0.000
G3 X 81.327 Y 38.499 I0.000 J1.150
G1   Z -4.350 F15000.0
G3 X 80.177 Y 39.649 I-1.150 J0.000 F39000.0
G3 X 79.027 Y 38.499 I0.000 J-1.150
G3 X 80.177 Y 37.349 I1.150 J0.000
G3 X 81.327 Y 38.499 I0.000 J1.150
G1   Z -5.800 F15000.0
G3 X 80.177 Y 39.649 I-1.150 J0.000 F39000.0
G3 X 79.027 Y 38.499 I0.000 J-1.150
G3 X 80.177 Y 37.349 I1.150 J0.000
G3 X 81.327 Y 38.499 I0.000 J1.150
G0   Z 6.000
G0 X 101.827 Y 40.649 
G1   Z -1.450 F15000.0
G3 X 100.677 Y 41.799 I-1.150 J0.000 F39000.0
G3 X 99.527 Y 40.649 I0.000 J-1.150
G3 X 100.677 Y 39.499 I1.150 J0.000
G3 X 101.827 Y 40.649 I0.000 J1.150
G1   Z -2.900 F15000.0
G3 X 100.677 Y 41.799 I-1.150 J0.000 F39000.0
G3 X 99.527 Y 40.649 I0.000 J-1.150
G3 X 100.677 Y 39.499 I1.150 J0.000
G3 X 101.827 Y 40.649 I0.000 J1.150
G1   Z -4.350 F15000.0
G3 X 100.677 Y 41.799 I-1.150 J0.000 F39000.0
G3 X 99.527 Y 40.649 I0.000 J-1.150
G3 X 100.677 Y 39.499 I1.150 J0.000
G3 X 101.827 Y 40.649 I0.000 J1.150
G1   Z -5.800 F15000.0
G3 X 100.677 Y 41.799 I-1.150 J0.000 F39000.0
G3 X 99.527 Y 40.649 I0.000 J-1.150
G3 X 100.677 Y 39.499 I1.150 J0.000
G3 X 101.827 Y 40.649 I0.000 J1.150
G0   Z 6.000
G0 X 172.427 Y 4.999 
G1   Z -1.450 F15000.0
G3 X 171.277 Y 6.149 I-1.150 J0.000 F39000.0
G3 X 170.127 Y 4.999 I0.000 J-1.150
G3 X 171.277 Y 3.849 I1.150 J0.000
G3 X 172.427 Y 4.999 I0.000 J1.150
G1   Z -2.900 F15000.0
G3 X 171.277 Y 6.149 I-1.150 J0.000 F39000.0
G3 X 170.127 Y 4.999 I0.000 J-1.150
G3 X 171.277 Y 3.849 I1.150 J0.000
G3 X 172.427 Y 4.999 I0.000 J1.150
G1   Z -4.350 F15000.0
G3 X 171.277 Y 6.149 I-1.150 J0.000 F39000.0
G3 X 170.127 Y 4.999 I0.000 J-1.150
G3 X 171.277 Y 3.849 I1.150 J0.000
G3 X 172.427 Y 4.999 I0.000 J1.150
G1   Z -5.800 F15000.0
G3 X 171.277 Y 6.149 I-1.150 J0.000 F39000.0
G3 X 170.127 Y 4.999 I0.000 J-1.150
G3 X 171.277 Y 3.849 I1.150 J0.000
G3 X 172.427 Y 4.999 I0.000 J1.150
G0   Z 6.000
G0 X 180.845 Y 9.999 
G1   Z -1.450 F15000.0
G3 X 179.695 Y 11.149 I-1.150 J0.000 F39000.0
G3 X 178.545 Y 9.999 I0.000 J-1.150
G3 X 179.695 Y 8.849 I1.150 J0.000
G3 X 180.845 Y 9.999 I0.000 J1.150
G1   Z -2.900 F15000.0
G3 X 179.695 Y 11.149 I-1.150 J0.000 F39000.0
G3 X 178.545 Y 9.999 I0.000 J-1.150
G3 X 179.695 Y 8.849 I1.150 J0.000
G3 X 180.845 Y 9.999 I0.000 J1.150
G1   Z -4.350 F15000.0
G3 X 179.695 Y 11.149 I-1.150 J0.000 F39000.0
G3 X 178.545 Y 9.999 I0.000 J-1.150
G3 X 179.695 Y 8.849 I1.150 J0.000
G3 X 180.845 Y 9.999 I0.000 J1.150
G1   Z -5.800 F15000.0
G3 X 179.695 Y 11.149 I-1.150 J0.000 F39000.0
G3 X 178.545 Y 9.999 I0.000 J-1.150
G3 X 179.695 Y 8.849 I1.150 J0.000
G3 X 180.845 Y 9.999 I0.000 J1.150
G0   Z 6.000
G0 X 185.689 Y 23.999 
G1   Z -1.450 F15000.0
G3 X 184.539 Y 25.149 I-1.150 J0.000 F39000.0
G3 X 183.389 Y 23.999 I0.000 J-1.150
G3 X 184.539 Y 22.849 I1.150 J0.000
G3 X 185.689 Y 23.999 I0.000 J1.150
G1   Z -2.900 F15000.0
G3 X 184.539 Y 25.149 I-1.150 J0.000 F39000.0
G3 X 183.389 Y 23.999 I0.000 J-1.150
G3 X 184.539 Y 22.849 I1.150 J0.000
G3 X 185.689 Y 23.999 I0.000 J1.150
G1   Z -4.350 F15000.0
G3 X 184.539 Y 25.149 I-1.150 J0.000 F39000.0
G3 X 183.389 Y 23.999 I0.000 J-1.150
G3 X 184.539 Y 22.849 I1.150 J0.000
G3 X 185.689 Y 23.999 I0.000 J1.150
G1   Z -5.800 F15000.0
G3 X 184.539 Y 25.149 I-1.150 J0.000 F39000.0
G3 X 183.389 Y 23.999 I0.000 J-1.150
G3 X 184.539 Y 22.849 I1.150 J0.000
G3 X 185.689 Y 23.999 I0.000 J1.150
G0   Z 6.000
G0  Y 37.999 
G1   Z -1.450 F15000.0
G3 X 184.539 Y 39.149 I-1.150 J0.000 F39000.0
G3 X 183.389 Y 37.999 I0.000 J-1.150
G3 X 184.539 Y 36.849 I1.150 J0.000
G3 X 185.689 Y 37.999 I0.000 J1.150
G1   Z -2.900 F15000.0
G3 X 184.539 Y 39.149 I-1.150 J0.000 F39000.0
G3 X 183.389 Y 37.999 I0.000 J-1.150
G3 X 184.539 Y 36.849 I1.150 J0.000
G3 X 185.689 Y 37.999 I0.000 J1.150
G1   Z -4.350 F15000.0
G3 X 184.539 Y 39.149 I-1.150 J0.000 F39000.0
G3 X 183.389 Y 37.999 I0.000 J-1.150
G3 X 184.539 Y 36.849 I1.150 J0.000
G3 X 185.689 Y 37.999 I0.000 J1.150
G1   Z -5.800 F15000.0
G3 X 184.539 Y 39.149 I-1.150 J0.000 F39000.0
G3 X 183.389 Y 37.999 I0.000 J-1.150
G3 X 184.539 Y 36.849 I1.150 J0.000
G3 X 185.689 Y 37.999 I0.000 J1.150
G0   Z 6.000
G0 X 39.177 Y 19.999 Z 6.000
G1   Z -1.450 F15000.0
G3 X 35.177 Y 23.999 I-4.000 J0.000 F39000.0
G3 X 31.177 Y 19.999 I0.000 J-4.000
G3 X 35.177 Y 15.999 I4.000 J0.000
G3 X 39.177 Y 19.999 I0.000 J4.000
G1   Z -2.900 F15000.0
G3 X 35.177 Y 23.999 I-4.000 J0.000 F39000.0
G3 X 31.177 Y 19.999 I0.000 J-4.000
G3 X 35.177 Y 15.999 I4.000 J0.000
G3 X 39.177 Y 19.999 I0.000 J4.000
G1   Z -4.350 F15000.0
G3 X 35.177 Y 23.999 I-4.000 J0.000 F39000.0
G3 X 31.177 Y 19.999 I0.000 J-4.000
G3 X 35.177 Y 15.999 I4.000 J0.000
G3 X 39.177 Y 19.999 I0.000 J4.000
G1   Z -5.800 F15000.0
G3 X 35.177 Y 23.999 I-4.000 J0.000 F39000.0
G3 X 31.177 Y 19.999 I0.000 J-4.000
G3 X 35.177 Y 15.999 I4.000 J0.000
G3 X 39.177 Y 19.999 I0.000 J4.000
G0   Z 6.000
G0 X 73.677  
G1   Z -1.450 F15000.0
G3 X 65.177 Y 28.499 I-8.500 J0.000 F39000.0
G3 X 56.677 Y 19.999 I0.000 J-8.500
G3 X 65.177 Y 11.499 I8.500 J0.000
G3 X 73.677 Y 19.999 I0.000 J8.500
G1   Z -2.900 F15000.0
G3 X 65.177 Y 28.499 I-8.500 J0.000 F39000.0
G3 X 56.677 Y 19.999 I0.000 J-8.500
G3 X 65.177 Y 11.499 I8.500 J0.000
G3 X 73.677 Y 19.999 I0.000 J8.500
G1   Z -4.350 F15000.0
G3 X 65.177 Y 28.499 I-8.500 J0.000 F39000.0
G3 X 56.677 Y 19.999 I0.000 J-8.500
G3 X 65.177 Y 11.499 I8.500 J0.000
G3 X 73.677 Y 19.999 I0.000 J8.500
G1   Z -5.800 F15000.0
G3 X 65.177 Y 28.499 I-8.500 J0.000 F39000.0
G3 X 56.677 Y 19.999 I0.000 J-8.500
G3 X 65.177 Y 11.499 I8.500 J0.000
G3 X 73.677 Y 19.999 I0.000 J8.500
G0   Z 6.000
G0 X 103.677  
G1   Z -1.450 F15000.0
G3 X 95.177 Y 28.499 I-8.500 J0.000 F39000.0
G3 X 86.677 Y 19.999 I0.000 J-8.500
G3 X 95.177 Y 11.499 I8.500 J0.000
G3 X 103.677 Y 19.999 I0.000 J8.500
G1   Z -2.900 F15000.0
G3 X 95.177 Y 28.499 I-8.500 J0.000 F39000.0
G3 X 86.677 Y 19.999 I0.000 J-8.500
G3 X 95.177 Y 11.499 I8.500 J0.000
G3 X 103.677 Y 19.999 I0.000 J8.500
G1   Z -4.350 F15000.0
G3 X 95.177 Y 28.499 I-8.500 J0.000 F39000.0
G3 X 86.677 Y 19.999 I0.000 J-8.500
G3 X 95.177 Y 11.499 I8.500 J0.000
G3 X 103.677 Y 19.999 I0.000 J8.500
G1   Z -5.800 F15000.0
G3 X 95.177 Y 28.499 I-8.500 J0.000 F39000.0
G3 X 86.677 Y 19.999 I0.000 J-8.500
G3 X 95.177 Y 11.499 I8.500 J0.000
G3 X 103.677 Y 19.999 I0.000 J8.500
G0   Z 6.000
G0 X 159.177  
G1   Z -1.450 F15000.0
G3 X 155.177 Y 23.999 I-4.000 J0.000 F39000.0
G3 X 151.177 Y 19.999 I0.000 J-4.000
G3 X 155.177 Y 15.999 I4.000 J0.000
G3 X 159.177 Y 19.999 I0.000 J4.000
G1   Z -2.900 F15000.0
G3 X 155.177 Y 23.999 I-4.000 J0.000 F39000.0
G3 X 151.177 Y 19.999 I0.000 J-4.000
G3 X 155.177 Y 15.999 I4.000 J0.000
G3 X 159.177 Y 19.999 I0.000 J4.000
G1   Z -4.350 F15000.0
G3 X 155.177 Y 23.999 I-4.000 J0.000 F39000.0
G3 X 151.177 Y 19.999 I0.000 J-4.000
G3 X 155.177 Y 15.999 I4.000 J0.000
G3 X 159.177 Y 19.999 I0.000 J4.000
G1   Z -5.800 F15000.0
G3 X 155.177 Y 23.999 I-4.000 J0.000 F39000.0
G3 X 151.177 Y 19.999 I0.000 J-4.000
G3 X 155.177 Y 15.999 I4.000 J0.000
G3 X 159.177 Y 19.999 I0.000 J4.000
G0   Z 6.000
G0 X 35.177 Y 18.999 Z 6.000
G1   Z -1.000 F15000.0
G3 X 36.177 Y 19.999 I0.000 J1.000 F39000.0
G3 X 35.177 Y 20.999 I-1.000 J0.000
G3 X 34.177 Y 19.999 I0.000 J-1.000
G3 X 35.177 Y 18.999 I1.000 J0.000
G1  Y 17.999  
G3 X 37.177 Y 19.999 I0.000 J2.000 
G3 X 35.177 Y 21.999 I-2.000 J0.000
G3 X 33.177 Y 19.999 I0.000 J-2.000
G3 X 35.177 Y 17.999 I2.000 J0.000
G1  Y 16.999  
G3 X 38.177 Y 19.999 I0.000 J3.000 
G3 X 35.177 Y 22.999 I-3.000 J0.000
G3 X 32.177 Y 19.999 I0.000 J-3.000
G3 X 35.177 Y 16.999 I3.000 J0.000
G1  Y 15.999  
G3 X 39.177 Y 19.999 I0.000 J4.000 
G3 X 35.177 Y 23.999 I-4.000 J0.000
G3 X 31.177 Y 19.999 I0.000 J-4.000
G3 X 35.177 Y 15.999 I4.000 J0.000
G1  Y 14.999  
G3 X 40.177 Y 19.999 I0.000 J5.000 
G3 X 35.177 Y 24.999 I-5.000 J0.000
G3 X 30.177 Y 19.999 I0.000 J-5.000
G3 X 35.177 Y 14.999 I5.000 J0.000
G1  Y 13.999  
G3 X 41.177 Y 19.999 I0.000 J6.000 
G3 X 35.177 Y 25.999 I-6.000 J0.000
G3 X 29.177 Y 19.999 I0.000 J-6.000
G3 X 35.177 Y 13.999 I6.000 J0.000
G1  Y 12.999  
G3 X 42.177 Y 19.999 I0.000 J7.000 
G3 X 35.177 Y 26.999 I-7.000 J0.000
G3 X 28.177 Y 19.999 I0.000 J-7.000
G3 X 35.177 Y 12.999 I7.000 J0.000
G1  Y 11.999  
G3 X 43.177 Y 19.999 I0.000 J8.000 
G3 X 35.177 Y 27.999 I-8.000 J0.000
G3 X 27.177 Y 19.999 I0.000 J-8.000
G3 X 35.177 Y 11.999 I8.000 J0.000
G1  Y 10.999  
G3 X 44.177 Y 19.999 I0.000 J9.000 
G3 X 35.177 Y 28.999 I-9.000 J0.000
G3 X 26.177 Y 19.999 I0.000 J-9.000
G3 X 35.177 Y 10.999 I9.000 J0.000
G1  Y 9.999  
G3 X 45.177 Y 19.999 I0.000 J10.000 
G3 X 35.177 Y 29.999 I-10.000 J0.000
G3 X 25.177 Y 19.999 I0.000 J-10.000
G3 X 35.177 Y 9.999 I10.000 J0.000
G1  Y 8.999  
G3 X 46.177 Y 19.999 I0.000 J11.000 
G3 X 35.177 Y 30.999 I-11.000 J0.000
G3 X 24.177 Y 19.999 I0.000 J-11.000
G3 X 35.177 Y 8.999 I11.000 J0.000
G1  Y 7.999  
G3 X 47.177 Y 19.999 I0.000 J12.000 
G3 X 35.177 Y 31.999 I-12.000 J0.000
G3 X 23.177 Y 19.999 I0.000 J-12.000
G3 X 35.177 Y 7.999 I12.000 J0.000
G1  Y 6.999  
G3 X 48.177 Y 19.999 I0.000 J13.000 
G3 X 35.177 Y 32.999 I-13.000 J0.000
G3 X 22.177 Y 19.999 I0.000 J-13.000
G3 X 35.177 Y 6.999 I13.000 J0.000
G1  Y 5.999  
G3 X 49.177 Y 19.999 I0.000 J14.000 
G3 X 35.177 Y 33.999 I-14.000 J0.000
G3 X 21.177 Y 19.999 I0.000 J-14.000
G3 X 35.177 Y 5.999 I14.000 J0.000
G1  Y 4.999  
G3 X 50.177 Y 19.999 I0.000 J15.000 
G3 X 35.177 Y 34.999 I-15.000 J0.000
G3 X 20.177 Y 19.999 I0.000 J-15.000
G3 X 35.177 Y 4.999 I15.000 J0.000
G1  Y 3.999  
G3 X 51.177 Y 19.999 I0.000 J16.000 
G3 X 35.177 Y 35.999 I-16.000 J0.000
G3 X 19.177 Y 19.999 I0.000 J-16.000
G3 X 35.177 Y 3.999 I16.000 J0.000
G1  Y 2.999  
G3 X 52.177 Y 19.999 I0.000 J17.000 
G3 X 35.177 Y 36.999 I-17.000 J0.000
G3 X 18.177 Y 19.999 I0.000 J-17.000
G3 X 35.177 Y 2.999 I17.000 J0.000
G0   Z 6.000
G0 X 155.177 Y 18.999 
G1   Z -1.000 F15000.0
G3 X 156.177 Y 19.999 I0.000 J1.000 F39000.0
G3 X 155.177 Y 20.999 I-1.000 J0.000
G3 X 154.177 Y 19.999 I0.000 J-1.000
G3 X 155.177 Y 18.999 I1.000 J0.000
G1  Y 17.999  
G3 X 157.177 Y 19.999 I0.000 J2.000 
G3 X 155.177 Y 21.999 I-2.000 J0.000
G3 X 153.177 Y 19.999 I0.000 J-2.000
G3 X 155.177 Y 17.999 I2.000 J0.000
G1  Y 16.999  
G3 X 158.177 Y 19.999 I0.000 J3.000 
G3 X 155.177 Y 22.999 I-3.000 J0.000
G3 X 152.177 Y 19.999 I0.000 J-3.000
G3 X 155.177 Y 16.999 I3.000 J0.000
G1  Y 15.999  
G3 X 159.177 Y 19.999 I0.000 J4.000 
G3 X 155.177 Y 23.999 I-4.000 J0.000
G3 X 151.177 Y 19.999 I0.000 J-4.000
G3 X 155.177 Y 15.999 I4.000 J0.000
G1  Y 14.999  
G3 X 160.177 Y 19.999 I0.000 J5.000 
G3 X 155.177 Y 24.999 I-5.000 J0.000
G3 X 150.177 Y 19.999 I0.000 J-5.000
G3 X 155.177 Y 14.999 I5.000 J0.000
G1  Y 13.999  
G3 X 161.177 Y 19.999 I0.000 J6.000 
G3 X 155.177 Y 25.999 I-6.000 J0.000
G3 X 149.177 Y 19.999 I0.000 J-6.000
G3 X 155.177 Y 13.999 I6.000 J0.000
G1  Y 12.999  
G3 X 162.177 Y 19.999 I0.000 J7.000 
G3 X 155.177 Y 26.999 I-7.000 J0.000
G3 X 148.177 Y 19.999 I0.000 J-7.000
G3 X 155.177 Y 12.999 I7.000 J0.000
G1  Y 11.999  
G3 X 163.177 Y 19.999 I0.000 J8.000 
G3 X 155.177 Y 27.999 I-8.000 J0.000
G3 X 147.177 Y 19.999 I0.000 J-8.000
G3 X 155.177 Y 11.999 I8.000 J0.000
G1  Y 10.999  
G3 X 164.177 Y 19.999 I0.000 J9.000 
G3 X 155.177 Y 28.999 I-9.000 J0.000
G3 X 146.177 Y 19.999 I0.000 J-9.000
G3 X 155.177 Y 10.999 I9.000 J0.000
G1  Y 9.999  
G3 X 165.177 Y 19.999 I0.000 J10.000 
G3 X 155.177 Y 29.999 I-10.000 J0.000
G3 X 145.177 Y 19.999 I0.000 J-10.000
G3 X 155.177 Y 9.999 I10.000 J0.000
G1  Y 8.999  
G3 X 166.177 Y 19.999 I0.000 J11.000 
G3 X 155.177 Y 30.999 I-11.000 J0.000
G3 X 144.177 Y 19.999 I0.000 J-11.000
G3 X 155.177 Y 8.999 I11.000 J0.000
G1  Y 7.999  
G3 X 167.177 Y 19.999 I0.000 J12.000 
G3 X 155.177 Y 31.999 I-12.000 J0.000
G3 X 143.177 Y 19.999 I0.000 J-12.000
G3 X 155.177 Y 7.999 I12.000 J0.000
G1  Y 6.999  
G3 X 168.177 Y 19.999 I0.000 J13.000 
G3 X 155.177 Y 32.999 I-13.000 J0.000
G3 X 142.177 Y 19.999 I0.000 J-13.000
G3 X 155.177 Y 6.999 I13.000 J0.000
G1  Y 5.999  
G3 X 169.177 Y 19.999 I0.000 J14.000 
G3 X 155.177 Y 33.999 I-14.000 J0.000
G3 X 141.177 Y 19.999 I0.000 J-14.000
G3 X 155.177 Y 5.999 I14.000 J0.000
G1  Y 4.999  
G3 X 170.177 Y 19.999 I0.000 J15.000 
G3 X 155.177 Y 34.999 I-15.000 J0.000
G3 X 140.177 Y 19.999 I0.000 J-15.000
G3 X 155.177 Y 4.999 I15.000 J0.000
G1  Y 3.999  
G3 X 171.177 Y 19.999 I0.000 J16.000 
G3 X 155.177 Y 35.999 I-16.000 J0.000
G3 X 139.177 Y 19.999 I0.000 J-16.000
G3 X 155.177 Y 3.999 I16.000 J0.000
G1  Y 2.999  
G3 X 172.177 Y 19.999 I0.000 J17.000 
G3 X 155.177 Y 36.999 I-17.000 J0.000
G3 X 138.177 Y 19.999 I0.000 J-17.000
G3 X 155.177 Y 2.999 I17.000 J0.000
G0   Z 6.000
G0 X 65.177 Y 18.999 Z 6.000
G1   Z -0.500 F15000.0
G3 X 66.177 Y 19.999 I0.000 J1.000 F39000.0
G3 X 65.177 Y 20.999 I-1.000 J0.000
G3 X 64.177 Y 19.999 I0.000 J-1.000
G3 X 65.177 Y 18.999 I1.000 J0.000
G1  Y 17.999  
G3 X 67.177 Y 19.999 I0.000 J2.000 
G3 X 65.177 Y 21.999 I-2.000 J0.000
G3 X 63.177 Y 19.999 I0.000 J-2.000
G3 X 65.177 Y 17.999 I2.000 J0.000
G1  Y 16.999  
G3 X 68.177 Y 19.999 I0.000 J3.000 
G3 X 65.177 Y 22.999 I-3.000 J0.000
G3 X 62.177 Y 19.999 I0.000 J-3.000
G3 X 65.177 Y 16.999 I3.000 J0.000
G1  Y 15.999  
G3 X 69.177 Y 19.999 I0.000 J4.000 
G3 X 65.177 Y 23.999 I-4.000 J0.000
G3 X 61.177 Y 19.999 I0.000 J-4.000
G3 X 65.177 Y 15.999 I4.000 J0.000
G1  Y 14.999  
G3 X 70.177 Y 19.999 I0.000 J5.000 
G3 X 65.177 Y 24.999 I-5.000 J0.000
G3 X 60.177 Y 19.999 I0.000 J-5.000
G3 X 65.177 Y 14.999 I5.000 J0.000
G1  Y 13.999  
G3 X 71.177 Y 19.999 I0.000 J6.000 
G3 X 65.177 Y 25.999 I-6.000 J0.000
G3 X 59.177 Y 19.999 I0.000 J-6.000
G3 X 65.177 Y 13.999 I6.000 J0.000
G1  Y 12.999  
G3 X 72.177 Y 19.999 I0.000 J7.000 
G3 X 65.177 Y 26.999 I-7.000 J0.000
G3 X 58.177 Y 19.999 I0.000 J-7.000
G3 X 65.177 Y 12.999 I7.000 J0.000
G1  Y 11.999  
G3 X 73.177 Y 19.999 I0.000 J8.000 
G3 X 65.177 Y 27.999 I-8.000 J0.000
G3 X 57.177 Y 19.999 I0.000 J-8.000
G3 X 65.177 Y 11.999 I8.000 J0.000
G1  Y 10.999  
G3 X 74.177 Y 19.999 I0.000 J9.000 
G3 X 65.177 Y 28.999 I-9.000 J0.000
G3 X 56.177 Y 19.999 I0.000 J-9.000
G3 X 65.177 Y 10.999 I9.000 J0.000
G1  Y 9.999  
G3 X 75.177 Y 19.999 I0.000 J10.000 
G3 X 65.177 Y 29.999 I-10.000 J0.000
G3 X 55.177 Y 19.999 I0.000 J-10.000
G3 X 65.177 Y 9.999 I10.000 J0.000
G1  Y 8.999  
G3 X 76.177 Y 19.999 I0.000 J11.000 
G3 X 65.177 Y 30.999 I-11.000 J0.000
G3 X 54.177 Y 19.999 I0.000 J-11.000
G3 X 65.177 Y 8.999 I11.000 J0.000
G1  Y 7.999  
G3 X 77.177 Y 19.999 I0.000 J12.000 
G3 X 65.177 Y 31.999 I-12.000 J0.000
G3 X 53.177 Y 19.999 I0.000 J-12.000
G3 X 65.177 Y 7.999 I12.000 J0.000
G1  Y 6.999  
G3 X 78.177 Y 19.999 I0.000 J13.000 
G3 X 65.177 Y 32.999 I-13.000 J0.000
G3 X 52.177 Y 19.999 I0.000 J-13.000
G3 X 65.177 Y 6.999 I13.000 J0.000
G1  Y 5.999  
G3 X 79.177 Y 19.999 I0.000 J14.000 
G3 X 65.177 Y 33.999 I-14.000 J0.000
G3 X 51.177 Y 19.999 I0.000 J-14.000
G3 X 65.177 Y 5.999 I14.000 J0.000
G1  Y 4.999  
G3 X 80.177 Y 19.999 I0.000 J15.000 
G3 X 65.177 Y 34.999 I-15.000 J0.000
G3 X 50.177 Y 19.999 I0.000 J-15.000
G3 X 65.177 Y 4.999 I15.000 J0.000
G1  Y 3.999  
G3 X 81.177 Y 19.999 I0.000 J16.000 
G3 X 65.177 Y 35.999 I-16.000 J0.000
G3 X 49.177 Y 19.999 I0.000 J-16.000
G3 X 65.177 Y 3.999 I16.000 J0.000
G1  Y 2.999  
G3 X 82.177 Y 19.999 I0.000 J17.000 
G3 X 65.177 Y 36.999 I-17.000 J0.000
G3 X 48.177 Y 19.999 I0.000 J-17.000
G3 X 65.177 Y 2.999 I17.000 J0.000
G0   Z 6.000
G0 X 95.177 Y 18.999 Z 6.000
G1   Z -0.500 F15000.0
G3 X 96.177 Y 19.999 I0.000 J1.000 F39000.0
G3 X 95.177 Y 20.999 I-1.000 J0.000
G3 X 94.177 Y 19.999 I0.000 J-1.000
G3 X 95.177 Y 18.999 I1.000 J0.000
G1  Y 17.999  
G3 X 97.177 Y 19.999 I0.000 J2.000 
G3 X 95.177 Y 21.999 I-2.000 J0.000
G3 X 93.177 Y 19.999 I0.000 J-2.000
G3 X 95.177 Y 17.999 I2.000 J0.000
G1  Y 16.999  
G3 X 98.177 Y 19.999 I0.000 J3.000 
G3 X 95.177 Y 22.999 I-3.000 J0.000
G3 X 92.177 Y 19.999 I0.000 J-3.000
G3 X 95.177 Y 16.999 I3.000 J0.000
G1  Y 15.999  
G3 X 99.177 Y 19.999 I0.000 J4.000 
G3 X 95.177 Y 23.999 I-4.000 J0.000
G3 X 91.177 Y 19.999 I0.000 J-4.000
G3 X 95.177 Y 15.999 I4.000 J0.000
G1  Y 14.999  
G3 X 100.177 Y 19.999 I0.000 J5.000 
G3 X 95.177 Y 24.999 I-5.000 J0.000
G3 X 90.177 Y 19.999 I0.000 J-5.000
G3 X 95.177 Y 14.999 I5.000 J0.000
G1  Y 13.999  
G3 X 101.177 Y 19.999 I0.000 J6.000 
G3 X 95.177 Y 25.999 I-6.000 J0.000
G3 X 89.177 Y 19.999 I0.000 J-6.000
G3 X 95.177 Y 13.999 I6.000 J0.000
G1  Y 12.999  
G3 X 102.177 Y 19.999 I0.000 J7.000 
G3 X 95.177 Y 26.999 I-7.000 J0.000
G3 X 88.177 Y 19.999 I0.000 J-7.000
G3 X 95.177 Y 12.999 I7.000 J0.000
G1  Y 11.999  
G3 X 103.177 Y 19.999 I0.000 J8.000 
G3 X 95.177 Y 27.999 I-8.000 J0.000
G3 X 87.177 Y 19.999 I0.000 J-8.000
G3 X 95.177 Y 11.999 I8.000 J0.000
G1  Y 10.999  
G3 X 104.177 Y 19.999 I0.000 J9.000 
G3 X 95.177 Y 28.999 I-9.000 J0.000
G3 X 86.177 Y 19.999 I0.000 J-9.000
G3 X 95.177 Y 10.999 I9.000 J0.000
G1  Y 9.999  
G3 X 105.177 Y 19.999 I0.000 J10.000 
G3 X 95.177 Y 29.999 I-10.000 J0.000
G3 X 85.177 Y 19.999 I0.000 J-10.000
G3 X 95.177 Y 9.999 I10.000 J0.000
G1  Y 8.999  
G3 X 106.177 Y 19.999 I0.000 J11.000 
G3 X 95.177 Y 30.999 I-11.000 J0.000
G3 X 84.177 Y 19.999 I0.000 J-11.000
G3 X 95.177 Y 8.999 I11.000 J0.000
G1  Y 7.999  
G3 X 107.177 Y 19.999 I0.000 J12.000 
G3 X 95.177 Y 31.999 I-12.000 J0.000
G3 X 83.177 Y 19.999 I0.000 J-12.000
G3 X 95.177 Y 7.999 I12.000 J0.000
G1  Y 6.999  
G3 X 108.177 Y 19.999 I0.000 J13.000 
G3 X 95.177 Y 32.999 I-13.000 J0.000
G3 X 82.177 Y 19.999 I0.000 J-13.000
G3 X 95.177 Y 6.999 I13.000 J0.000
G1  Y 5.999  
G3 X 109.177 Y 19.999 I0.000 J14.000 
G3 X 95.177 Y 33.999 I-14.000 J0.000
G3 X 81.177 Y 19.999 I0.000 J-14.000
G3 X 95.177 Y 5.999 I14.000 J0.000
G1  Y 4.999  
G3 X 110.177 Y 19.999 I0.000 J15.000 
G3 X 95.177 Y 34.999 I-15.000 J0.000
G3 X 80.177 Y 19.999 I0.000 J-15.000
G3 X 95.177 Y 4.999 I15.000 J0.000
G1  Y 3.999  
G3 X 111.177 Y 19.999 I0.000 J16.000 
G3 X 95.177 Y 35.999 I-16.000 J0.000
G3 X 79.177 Y 19.999 I0.000 J-16.000
G3 X 95.177 Y 3.999 I16.000 J0.000
G1  Y 2.999  
G3 X 112.177 Y 19.999 I0.000 J17.000 
G3 X 95.177 Y 36.999 I-17.000 J0.000
G3 X 78.177 Y 19.999 I0.000 J-17.000
G3 X 95.177 Y 2.999 I17.000 J0.000
G0   Z 6.000
G0 X 191.355 Y 44.999 Z 6.000
G1   Z -1.450 F15000.0
G1  Y 14.999  F39000.0
G2 X 190.971 Y 14.212 I-1.000 J0.000 
G1 X 185.694 Y 10.087  
G2 X 177.257 Y 4.517 I-5.999 J-0.087 
G2 X 171.799 Y -0.978 I-5.980 J0.483
G2 X 165.360 Y 3.999 I-0.522 J5.977
G1 X 24.994   
G2 X 18.556 Y -0.978 I-5.916 J1.000 
G2 X 13.097 Y 4.517 I0.522 J5.978
G2 X 4.661 Y 10.087 I-2.437 J5.483
G1 X -0.616 Y 14.212  
G2 X -1.000 Y 14.999 I0.616 J0.788 
G1 X -1.000 Y 44.999  
G2 X 0.000 Y 45.999 I1.000 J0.000 
G1 X 190.355   
G2 X 191.355 Y 44.999 I0.000 J-1.000 
G1   Z -2.900 F15000.0
G1  Y 14.999  F39000.0
G2 X 190.971 Y 14.212 I-1.000 J0.000 
G1 X 185.694 Y 10.087  
G2 X 177.257 Y 4.517 I-5.999 J-0.087 
G2 X 171.799 Y -0.978 I-5.980 J0.483
G2 X 165.360 Y 3.999 I-0.522 J5.977
G1 X 24.994   
G2 X 18.556 Y -0.978 I-5.916 J1.000 
G2 X 13.097 Y 4.517 I0.522 J5.978
G2 X 4.661 Y 10.087 I-2.437 J5.483
G1 X -0.616 Y 14.212  
G2 X -1.000 Y 14.999 I0.616 J0.788 
G1 X -1.000 Y 44.999  
G2 X 0.000 Y 45.999 I1.000 J0.000 
G1 X 190.355   
G2 X 191.355 Y 44.999 I0.000 J-1.000 
G1   Z -4.350 F15000.0
G1  Y 14.999  F39000.0
G2 X 190.971 Y 14.212 I-1.000 J0.000 
G1 X 185.694 Y 10.087  
G2 X 177.257 Y 4.517 I-5.999 J-0.087 
G2 X 171.799 Y -0.978 I-5.980 J0.483
G2 X 165.360 Y 3.999 I-0.522 J5.977
G1 X 24.994   
G2 X 18.556 Y -0.978 I-5.916 J1.000 
G2 X 13.097 Y 4.517 I0.522 J5.978
G2 X 4.661 Y 10.087 I-2.437 J5.483
G1 X -0.616 Y 14.212  
G2 X -1.000 Y 14.999 I0.616 J0.788 
G1 X -1.000 Y 44.999  
G2 X 0.000 Y 45.999 I1.000 J0.000 
G1 X 190.355   
G2 X 191.355 Y 44.999 I0.000 J-1.000 
G1   Z -5.800 F15000.0
G1  Y 14.999  F39000.0
G2 X 190.971 Y 14.212 I-1.000 J0.000 
G1 X 185.694 Y 10.087  
G2 X 177.257 Y 4.517 I-5.999 J-0.087 
G2 X 171.799 Y -0.978 I-5.980 J0.483
G2 X 165.360 Y 3.999 I-0.522 J5.977
G1 X 24.994   
G2 X 18.556 Y -0.978 I-5.916 J1.000 
G2 X 13.097 Y 4.517 I0.522 J5.978
G2 X 4.661 Y 10.087 I-2.437 J5.483
G1 X -0.616 Y 14.212  
G2 X -1.000 Y 14.999 I0.616 J0.788 
G1 X -1.000 Y 44.999  
G2 X 0.000 Y 45.999 I1.000 J0.000 
G1 X 190.355   
G2 X 191.355 Y 44.999 I0.000 J-1.000 
G0   Z 6.000
G0 Z 20.000
G0 X 0.000 Y 0.000
(END OF PROGRAM)
%
