%
( File Created by VCarve Pro )
T1 M6
G21 G90
G17
G0 Z 20.000
G0 X 0.000 Y 0.000
G0 X 24.300 Y 38.432 Z 6.000
G1   Z -1.450 F15000.0
G3 X 23.710 Y 39.022 I-0.590 J0.000 F39000.0
G3 X 23.120 Y 38.432 I0.000 J-0.590
G3 X 23.710 Y 37.842 I0.590 J0.000
G3 X 24.300 Y 38.432 I0.000 J0.590
G1   Z -2.900 F15000.0
G3 X 23.710 Y 39.022 I-0.590 J0.000 F39000.0
G3 X 23.120 Y 38.432 I0.000 J-0.590
G3 X 23.710 Y 37.842 I0.590 J0.000
G3 X 24.300 Y 38.432 I0.000 J0.590
G1   Z -4.350 F15000.0
G3 X 23.710 Y 39.022 I-0.590 J0.000 F39000.0
G3 X 23.120 Y 38.432 I0.000 J-0.590
G3 X 23.710 Y 37.842 I0.590 J0.000
G3 X 24.300 Y 38.432 I0.000 J0.590
G1   Z -5.800 F15000.0
G3 X 23.710 Y 39.022 I-0.590 J0.000 F39000.0
G3 X 23.120 Y 38.432 I0.000 J-0.590
G3 X 23.710 Y 37.842 I0.590 J0.000
G3 X 24.300 Y 38.432 I0.000 J0.590
G0   Z 6.000
G0 X 42.800 Y 24.712 
G1   Z -1.450 F15000.0
G3 X 42.000 Y 25.512 I-0.800 J0.000 F39000.0
G3 X 41.200 Y 24.712 I0.000 J-0.800
G3 X 42.000 Y 23.912 I0.800 J0.000
G3 X 42.800 Y 24.712 I0.000 J0.800
G1   Z -2.900 F15000.0
G3 X 42.000 Y 25.512 I-0.800 J0.000 F39000.0
G3 X 41.200 Y 24.712 I0.000 J-0.800
G3 X 42.000 Y 23.912 I0.800 J0.000
G3 X 42.800 Y 24.712 I0.000 J0.800
G1   Z -4.350 F15000.0
G3 X 42.000 Y 25.512 I-0.800 J0.000 F39000.0
G3 X 41.200 Y 24.712 I0.000 J-0.800
G3 X 42.000 Y 23.912 I0.800 J0.000
G3 X 42.800 Y 24.712 I0.000 J0.800
G1   Z -5.800 F15000.0
G3 X 42.000 Y 25.512 I-0.800 J0.000 F39000.0
G3 X 41.200 Y 24.712 I0.000 J-0.800
G3 X 42.000 Y 23.912 I0.800 J0.000
G3 X 42.800 Y 24.712 I0.000 J0.800
G0   Z 6.000
G0  Y 15.712 
G1   Z -1.450 F15000.0
G3 X 42.000 Y 16.512 I-0.800 J0.000 F39000.0
G3 X 41.200 Y 15.712 I0.000 J-0.800
G3 X 42.000 Y 14.912 I0.800 J0.000
G3 X 42.800 Y 15.712 I0.000 J0.800
G1   Z -2.900 F15000.0
G3 X 42.000 Y 16.512 I-0.800 J0.000 F39000.0
G3 X 41.200 Y 15.712 I0.000 J-0.800
G3 X 42.000 Y 14.912 I0.800 J0.000
G3 X 42.800 Y 15.712 I0.000 J0.800
G1   Z -4.350 F15000.0
G3 X 42.000 Y 16.512 I-0.800 J0.000 F39000.0
G3 X 41.200 Y 15.712 I0.000 J-0.800
G3 X 42.000 Y 14.912 I0.800 J0.000
G3 X 42.800 Y 15.712 I0.000 J0.800
G1   Z -5.800 F15000.0
G3 X 42.000 Y 16.512 I-0.800 J0.000 F39000.0
G3 X 41.200 Y 15.712 I0.000 J-0.800
G3 X 42.000 Y 14.912 I0.800 J0.000
G3 X 42.800 Y 15.712 I0.000 J0.800
G0   Z 6.000
G0 X 14.450 Y 71.000 
G1   Z -1.450 F15000.0
G3 X 13.650 Y 71.800 I-0.800 J0.000 F39000.0
G3 X 12.850 Y 71.000 I0.000 J-0.800
G3 X 13.650 Y 70.200 I0.800 J0.000
G3 X 14.450 Y 71.000 I0.000 J0.800
G1   Z -2.900 F15000.0
G3 X 13.650 Y 71.800 I-0.800 J0.000 F39000.0
G3 X 12.850 Y 71.000 I0.000 J-0.800
G3 X 13.650 Y 70.200 I0.800 J0.000
G3 X 14.450 Y 71.000 I0.000 J0.800
G1   Z -4.350 F15000.0
G3 X 13.650 Y 71.800 I-0.800 J0.000 F39000.0
G3 X 12.850 Y 71.000 I0.000 J-0.800
G3 X 13.650 Y 70.200 I0.800 J0.000
G3 X 14.450 Y 71.000 I0.000 J0.800
G1   Z -5.800 F15000.0
G3 X 13.650 Y 71.800 I-0.800 J0.000 F39000.0
G3 X 12.850 Y 71.000 I0.000 J-0.800
G3 X 13.650 Y 70.200 I0.800 J0.000
G3 X 14.450 Y 71.000 I0.000 J0.800
G0   Z 6.000
G0 X 5.450  
G1   Z -1.450 F15000.0
G3 X 4.650 Y 71.800 I-0.800 J0.000 F39000.0
G3 X 3.850 Y 71.000 I0.000 J-0.800
G3 X 4.650 Y 70.200 I0.800 J0.000
G3 X 5.450 Y 71.000 I0.000 J0.800
G1   Z -2.900 F15000.0
G3 X 4.650 Y 71.800 I-0.800 J0.000 F39000.0
G3 X 3.850 Y 71.000 I0.000 J-0.800
G3 X 4.650 Y 70.200 I0.800 J0.000
G3 X 5.450 Y 71.000 I0.000 J0.800
G1   Z -4.350 F15000.0
G3 X 4.650 Y 71.800 I-0.800 J0.000 F39000.0
G3 X 3.850 Y 71.000 I0.000 J-0.800
G3 X 4.650 Y 70.200 I0.800 J0.000
G3 X 5.450 Y 71.000 I0.000 J0.800
G1   Z -5.800 F15000.0
G3 X 4.650 Y 71.800 I-0.800 J0.000 F39000.0
G3 X 3.850 Y 71.000 I0.000 J-0.800
G3 X 4.650 Y 70.200 I0.800 J0.000
G3 X 5.450 Y 71.000 I0.000 J0.800
G0   Z 6.000
G0 X 24.300 Y 156.292 
G1   Z -1.450 F15000.0
G3 X 23.710 Y 156.882 I-0.590 J0.000 F39000.0
G3 X 23.120 Y 156.292 I0.000 J-0.590
G3 X 23.710 Y 155.702 I0.590 J0.000
G3 X 24.300 Y 156.292 I0.000 J0.590
G1   Z -2.900 F15000.0
G3 X 23.710 Y 156.882 I-0.590 J0.000 F39000.0
G3 X 23.120 Y 156.292 I0.000 J-0.590
G3 X 23.710 Y 155.702 I0.590 J0.000
G3 X 24.300 Y 156.292 I0.000 J0.590
G1   Z -4.350 F15000.0
G3 X 23.710 Y 156.882 I-0.590 J0.000 F39000.0
G3 X 23.120 Y 156.292 I0.000 J-0.590
G3 X 23.710 Y 155.702 I0.590 J0.000
G3 X 24.300 Y 156.292 I0.000 J0.590
G1   Z -5.800 F15000.0
G3 X 23.710 Y 156.882 I-0.590 J0.000 F39000.0
G3 X 23.120 Y 156.292 I0.000 J-0.590
G3 X 23.710 Y 155.702 I0.590 J0.000
G3 X 24.300 Y 156.292 I0.000 J0.590
G0   Z 6.000
G0 X 14.450 Y 175.724 
G1   Z -1.450 F15000.0
G3 X 13.650 Y 176.524 I-0.800 J0.000 F39000.0
G3 X 12.850 Y 175.724 I0.000 J-0.800
G3 X 13.650 Y 174.924 I0.800 J0.000
G3 X 14.450 Y 175.724 I0.000 J0.800
G1   Z -2.900 F15000.0
G3 X 13.650 Y 176.524 I-0.800 J0.000 F39000.0
G3 X 12.850 Y 175.724 I0.000 J-0.800
G3 X 13.650 Y 174.924 I0.800 J0.000
G3 X 14.450 Y 175.724 I0.000 J0.800
G1   Z -4.350 F15000.0
G3 X 13.650 Y 176.524 I-0.800 J0.000 F39000.0
G3 X 12.850 Y 175.724 I0.000 J-0.800
G3 X 13.650 Y 174.924 I0.800 J0.000
G3 X 14.450 Y 175.724 I0.000 J0.800
G1   Z -5.800 F15000.0
G3 X 13.650 Y 176.524 I-0.800 J0.000 F39000.0
G3 X 12.850 Y 175.724 I0.000 J-0.800
G3 X 13.650 Y 174.924 I0.800 J0.000
G3 X 14.450 Y 175.724 I0.000 J0.800
G0   Z 6.000
G0 X 5.450  
G1   Z -1.450 F15000.0
G3 X 4.650 Y 176.524 I-0.800 J0.000 F39000.0
G3 X 3.850 Y 175.724 I0.000 J-0.800
G3 X 4.650 Y 174.924 I0.800 J0.000
G3 X 5.450 Y 175.724 I0.000 J0.800
G1   Z -2.900 F15000.0
G3 X 4.650 Y 176.524 I-0.800 J0.000 F39000.0
G3 X 3.850 Y 175.724 I0.000 J-0.800
G3 X 4.650 Y 174.924 I0.800 J0.000
G3 X 5.450 Y 175.724 I0.000 J0.800
G1   Z -4.350 F15000.0
G3 X 4.650 Y 176.524 I-0.800 J0.000 F39000.0
G3 X 3.850 Y 175.724 I0.000 J-0.800
G3 X 4.650 Y 174.924 I0.800 J0.000
G3 X 5.450 Y 175.724 I0.000 J0.800
G1   Z -5.800 F15000.0
G3 X 4.650 Y 176.524 I-0.800 J0.000 F39000.0
G3 X 3.850 Y 175.724 I0.000 J-0.800
G3 X 4.650 Y 174.924 I0.800 J0.000
G3 X 5.450 Y 175.724 I0.000 J0.800
G0   Z 6.000
G0 X 94.800 Y 179.012 
G1   Z -1.450 F15000.0
G3 X 94.000 Y 179.812 I-0.800 J0.000 F39000.0
G3 X 93.200 Y 179.012 I0.000 J-0.800
G3 X 94.000 Y 178.212 I0.800 J0.000
G3 X 94.800 Y 179.012 I0.000 J0.800
G1   Z -2.900 F15000.0
G3 X 94.000 Y 179.812 I-0.800 J0.000 F39000.0
G3 X 93.200 Y 179.012 I0.000 J-0.800
G3 X 94.000 Y 178.212 I0.800 J0.000
G3 X 94.800 Y 179.012 I0.000 J0.800
G1   Z -4.350 F15000.0
G3 X 94.000 Y 179.812 I-0.800 J0.000 F39000.0
G3 X 93.200 Y 179.012 I0.000 J-0.800
G3 X 94.000 Y 178.212 I0.800 J0.000
G3 X 94.800 Y 179.012 I0.000 J0.800
G1   Z -5.800 F15000.0
G3 X 94.000 Y 179.812 I-0.800 J0.000 F39000.0
G3 X 93.200 Y 179.012 I0.000 J-0.800
G3 X 94.000 Y 178.212 I0.800 J0.000
G3 X 94.800 Y 179.012 I0.000 J0.800
G0   Z 6.000
G0  Y 170.012 
G1   Z -1.450 F15000.0
G3 X 94.000 Y 170.812 I-0.800 J0.000 F39000.0
G3 X 93.200 Y 170.012 I0.000 J-0.800
G3 X 94.000 Y 169.212 I0.800 J0.000
G3 X 94.800 Y 170.012 I0.000 J0.800
G1   Z -2.900 F15000.0
G3 X 94.000 Y 170.812 I-0.800 J0.000 F39000.0
G3 X 93.200 Y 170.012 I0.000 J-0.800
G3 X 94.000 Y 169.212 I0.800 J0.000
G3 X 94.800 Y 170.012 I0.000 J0.800
G1   Z -4.350 F15000.0
G3 X 94.000 Y 170.812 I-0.800 J0.000 F39000.0
G3 X 93.200 Y 170.012 I0.000 J-0.800
G3 X 94.000 Y 169.212 I0.800 J0.000
G3 X 94.800 Y 170.012 I0.000 J0.800
G1   Z -5.800 F15000.0
G3 X 94.000 Y 170.812 I-0.800 J0.000 F39000.0
G3 X 93.200 Y 170.012 I0.000 J-0.800
G3 X 94.000 Y 169.212 I0.800 J0.000
G3 X 94.800 Y 170.012 I0.000 J0.800
G0   Z 6.000
G0 X 112.880 Y 156.292 
G1   Z -1.450 F15000.0
G3 X 112.290 Y 156.882 I-0.590 J0.000 F39000.0
G3 X 111.700 Y 156.292 I0.000 J-0.590
G3 X 112.290 Y 155.702 I0.590 J0.000
G3 X 112.880 Y 156.292 I0.000 J0.590
G1   Z -2.900 F15000.0
G3 X 112.290 Y 156.882 I-0.590 J0.000 F39000.0
G3 X 111.700 Y 156.292 I0.000 J-0.590
G3 X 112.290 Y 155.702 I0.590 J0.000
G3 X 112.880 Y 156.292 I0.000 J0.590
G1   Z -4.350 F15000.0
G3 X 112.290 Y 156.882 I-0.590 J0.000 F39000.0
G3 X 111.700 Y 156.292 I0.000 J-0.590
G3 X 112.290 Y 155.702 I0.590 J0.000
G3 X 112.880 Y 156.292 I0.000 J0.590
G1   Z -5.800 F15000.0
G3 X 112.290 Y 156.882 I-0.590 J0.000 F39000.0
G3 X 111.700 Y 156.292 I0.000 J-0.590
G3 X 112.290 Y 155.702 I0.590 J0.000
G3 X 112.880 Y 156.292 I0.000 J0.590
G0   Z 6.000
G0 X 123.150 Y 123.724 
G1   Z -1.450 F15000.0
G3 X 122.350 Y 124.524 I-0.800 J0.000 F39000.0
G3 X 121.550 Y 123.724 I0.000 J-0.800
G3 X 122.350 Y 122.924 I0.800 J0.000
G3 X 123.150 Y 123.724 I0.000 J0.800
G1   Z -2.900 F15000.0
G3 X 122.350 Y 124.524 I-0.800 J0.000 F39000.0
G3 X 121.550 Y 123.724 I0.000 J-0.800
G3 X 122.350 Y 122.924 I0.800 J0.000
G3 X 123.150 Y 123.724 I0.000 J0.800
G1   Z -4.350 F15000.0
G3 X 122.350 Y 124.524 I-0.800 J0.000 F39000.0
G3 X 121.550 Y 123.724 I0.000 J-0.800
G3 X 122.350 Y 122.924 I0.800 J0.000
G3 X 123.150 Y 123.724 I0.000 J0.800
G1   Z -5.800 F15000.0
G3 X 122.350 Y 124.524 I-0.800 J0.000 F39000.0
G3 X 121.550 Y 123.724 I0.000 J-0.800
G3 X 122.350 Y 122.924 I0.800 J0.000
G3 X 123.150 Y 123.724 I0.000 J0.800
G0   Z 6.000
G0 X 132.150  
G1   Z -1.450 F15000.0
G3 X 131.350 Y 124.524 I-0.800 J0.000 F39000.0
G3 X 130.550 Y 123.724 I0.000 J-0.800
G3 X 131.350 Y 122.924 I0.800 J0.000
G3 X 132.150 Y 123.724 I0.000 J0.800
G1   Z -2.900 F15000.0
G3 X 131.350 Y 124.524 I-0.800 J0.000 F39000.0
G3 X 130.550 Y 123.724 I0.000 J-0.800
G3 X 131.350 Y 122.924 I0.800 J0.000
G3 X 132.150 Y 123.724 I0.000 J0.800
G1   Z -4.350 F15000.0
G3 X 131.350 Y 124.524 I-0.800 J0.000 F39000.0
G3 X 130.550 Y 123.724 I0.000 J-0.800
G3 X 131.350 Y 122.924 I0.800 J0.000
G3 X 132.150 Y 123.724 I0.000 J0.800
G1   Z -5.800 F15000.0
G3 X 131.350 Y 124.524 I-0.800 J0.000 F39000.0
G3 X 130.550 Y 123.724 I0.000 J-0.800
G3 X 131.350 Y 122.924 I0.800 J0.000
G3 X 132.150 Y 123.724 I0.000 J0.800
G0   Z 6.000
G0 X 112.880 Y 38.432 
G1   Z -1.450 F15000.0
G3 X 112.290 Y 39.022 I-0.590 J0.000 F39000.0
G3 X 111.700 Y 38.432 I0.000 J-0.590
G3 X 112.290 Y 37.842 I0.590 J0.000
G3 X 112.880 Y 38.432 I0.000 J0.590
G1   Z -2.900 F15000.0
G3 X 112.290 Y 39.022 I-0.590 J0.000 F39000.0
G3 X 111.700 Y 38.432 I0.000 J-0.590
G3 X 112.290 Y 37.842 I0.590 J0.000
G3 X 112.880 Y 38.432 I0.000 J0.590
G1   Z -4.350 F15000.0
G3 X 112.290 Y 39.022 I-0.590 J0.000 F39000.0
G3 X 111.700 Y 38.432 I0.000 J-0.590
G3 X 112.290 Y 37.842 I0.590 J0.000
G3 X 112.880 Y 38.432 I0.000 J0.590
G1   Z -5.800 F15000.0
G3 X 112.290 Y 39.022 I-0.590 J0.000 F39000.0
G3 X 111.700 Y 38.432 I0.000 J-0.590
G3 X 112.290 Y 37.842 I0.590 J0.000
G3 X 112.880 Y 38.432 I0.000 J0.590
G0   Z 6.000
G0 X 123.150 Y 19.000 
G1   Z -1.450 F15000.0
G3 X 122.350 Y 19.800 I-0.800 J0.000 F39000.0
G3 X 121.550 Y 19.000 I0.000 J-0.800
G3 X 122.350 Y 18.200 I0.800 J0.000
G3 X 123.150 Y 19.000 I0.000 J0.800
G1   Z -2.900 F15000.0
G3 X 122.350 Y 19.800 I-0.800 J0.000 F39000.0
G3 X 121.550 Y 19.000 I0.000 J-0.800
G3 X 122.350 Y 18.200 I0.800 J0.000
G3 X 123.150 Y 19.000 I0.000 J0.800
G1   Z -4.350 F15000.0
G3 X 122.350 Y 19.800 I-0.800 J0.000 F39000.0
G3 X 121.550 Y 19.000 I0.000 J-0.800
G3 X 122.350 Y 18.200 I0.800 J0.000
G3 X 123.150 Y 19.000 I0.000 J0.800
G1   Z -5.800 F15000.0
G3 X 122.350 Y 19.800 I-0.800 J0.000 F39000.0
G3 X 121.550 Y 19.000 I0.000 J-0.800
G3 X 122.350 Y 18.200 I0.800 J0.000
G3 X 123.150 Y 19.000 I0.000 J0.800
G0   Z 6.000
G0 X 132.150  
G1   Z -1.450 F15000.0
G3 X 131.350 Y 19.800 I-0.800 J0.000 F39000.0
G3 X 130.550 Y 19.000 I0.000 J-0.800
G3 X 131.350 Y 18.200 I0.800 J0.000
G3 X 132.150 Y 19.000 I0.000 J0.800
G1   Z -2.900 F15000.0
G3 X 131.350 Y 19.800 I-0.800 J0.000 F39000.0
G3 X 130.550 Y 19.000 I0.000 J-0.800
G3 X 131.350 Y 18.200 I0.800 J0.000
G3 X 132.150 Y 19.000 I0.000 J0.800
G1   Z -4.350 F15000.0
G3 X 131.350 Y 19.800 I-0.800 J0.000 F39000.0
G3 X 130.550 Y 19.000 I0.000 J-0.800
G3 X 131.350 Y 18.200 I0.800 J0.000
G3 X 132.150 Y 19.000 I0.000 J0.800
G1   Z -5.800 F15000.0
G3 X 131.350 Y 19.800 I-0.800 J0.000 F39000.0
G3 X 130.550 Y 19.000 I0.000 J-0.800
G3 X 131.350 Y 18.200 I0.800 J0.000
G3 X 132.150 Y 19.000 I0.000 J0.800
G0   Z 6.000
G0 X 11.599 Y 8.000 Z 6.000
G1   Z -1.450 F15000.0
G1 X 11.597 Y 8.047  F39000.0
X 11.592 Y 8.094 
X 11.583 Y 8.140 
X 11.570 Y 8.185 
X 11.554 Y 8.229 
X 11.534 Y 8.272 
X 11.511 Y 8.313 
X 11.485 Y 8.352 
X 11.456 Y 8.389 
X 11.424 Y 8.424 
X 11.389 Y 8.456 
X 11.352 Y 8.485 
X 11.313 Y 8.511 
X 11.272 Y 8.534 
X 11.229 Y 8.554 
X 11.185 Y 8.570 
X 11.140 Y 8.583 
X 11.094 Y 8.592 
X 11.047 Y 8.597 
X 11.000 Y 8.599 
X 10.953 Y 8.597 
X 10.906 Y 8.592 
X 10.860 Y 8.583 
X 10.815 Y 8.570 
X 10.771 Y 8.554 
X 10.728 Y 8.534 
X 10.687 Y 8.511 
X 10.648 Y 8.485 
X 10.611 Y 8.456 
X 10.576 Y 8.424 
X 10.544 Y 8.389 
X 10.515 Y 8.352 
X 10.489 Y 8.313 
X 10.466 Y 8.272 
X 10.446 Y 8.229 
X 10.430 Y 8.185 
X 10.417 Y 8.140 
X 10.408 Y 8.094 
X 10.403 Y 8.047 
X 10.401 Y 8.000 
X 10.403 Y 7.953 
X 10.408 Y 7.906 
X 10.417 Y 7.860 
X 10.430 Y 7.815 
X 10.446 Y 7.771 
X 10.466 Y 7.728 
X 10.489 Y 7.687 
X 10.515 Y 7.648 
X 10.544 Y 7.611 
X 10.576 Y 7.576 
X 10.611 Y 7.544 
X 10.648 Y 7.515 
X 10.687 Y 7.489 
X 10.728 Y 7.466 
X 10.771 Y 7.446 
X 10.815 Y 7.430 
X 10.860 Y 7.417 
X 10.906 Y 7.408 
X 10.953 Y 7.403 
X 11.000 Y 7.401 
X 11.047 Y 7.403 
X 11.094 Y 7.408 
X 11.140 Y 7.417 
X 11.185 Y 7.430 
X 11.229 Y 7.446 
X 11.272 Y 7.466 
X 11.313 Y 7.489 
X 11.352 Y 7.515 
X 11.389 Y 7.544 
X 11.424 Y 7.576 
X 11.456 Y 7.611 
X 11.485 Y 7.648 
X 11.511 Y 7.687 
X 11.534 Y 7.728 
X 11.554 Y 7.771 
X 11.570 Y 7.815 
X 11.583 Y 7.860 
X 11.592 Y 7.906 
X 11.597 Y 7.953 
X 11.599 Y 8.000 
G1   Z -2.900 F15000.0
G1 X 11.597 Y 8.047  F39000.0
X 11.592 Y 8.094 
X 11.583 Y 8.140 
X 11.570 Y 8.185 
X 11.554 Y 8.229 
X 11.534 Y 8.272 
X 11.511 Y 8.313 
X 11.485 Y 8.352 
X 11.456 Y 8.389 
X 11.424 Y 8.424 
X 11.389 Y 8.456 
X 11.352 Y 8.485 
X 11.313 Y 8.511 
X 11.272 Y 8.534 
X 11.229 Y 8.554 
X 11.185 Y 8.570 
X 11.140 Y 8.583 
X 11.094 Y 8.592 
X 11.047 Y 8.597 
X 11.000 Y 8.599 
X 10.953 Y 8.597 
X 10.906 Y 8.592 
X 10.860 Y 8.583 
X 10.815 Y 8.570 
X 10.771 Y 8.554 
X 10.728 Y 8.534 
X 10.687 Y 8.511 
X 10.648 Y 8.485 
X 10.611 Y 8.456 
X 10.576 Y 8.424 
X 10.544 Y 8.389 
X 10.515 Y 8.352 
X 10.489 Y 8.313 
X 10.466 Y 8.272 
X 10.446 Y 8.229 
X 10.430 Y 8.185 
X 10.417 Y 8.140 
X 10.408 Y 8.094 
X 10.403 Y 8.047 
X 10.401 Y 8.000 
X 10.403 Y 7.953 
X 10.408 Y 7.906 
X 10.417 Y 7.860 
X 10.430 Y 7.815 
X 10.446 Y 7.771 
X 10.466 Y 7.728 
X 10.489 Y 7.687 
X 10.515 Y 7.648 
X 10.544 Y 7.611 
X 10.576 Y 7.576 
X 10.611 Y 7.544 
X 10.648 Y 7.515 
X 10.687 Y 7.489 
X 10.728 Y 7.466 
X 10.771 Y 7.446 
X 10.815 Y 7.430 
X 10.860 Y 7.417 
X 10.906 Y 7.408 
X 10.953 Y 7.403 
X 11.000 Y 7.401 
X 11.047 Y 7.403 
X 11.094 Y 7.408 
X 11.140 Y 7.417 
X 11.185 Y 7.430 
X 11.229 Y 7.446 
X 11.272 Y 7.466 
X 11.313 Y 7.489 
X 11.352 Y 7.515 
X 11.389 Y 7.544 
X 11.424 Y 7.576 
X 11.456 Y 7.611 
X 11.485 Y 7.648 
X 11.511 Y 7.687 
X 11.534 Y 7.728 
X 11.554 Y 7.771 
X 11.570 Y 7.815 
X 11.583 Y 7.860 
X 11.592 Y 7.906 
X 11.597 Y 7.953 
X 11.599 Y 8.000 
G1   Z -4.350 F15000.0
G1 X 11.597 Y 8.047  F39000.0
X 11.592 Y 8.094 
X 11.583 Y 8.140 
X 11.570 Y 8.185 
X 11.554 Y 8.229 
X 11.534 Y 8.272 
X 11.511 Y 8.313 
X 11.485 Y 8.352 
X 11.456 Y 8.389 
X 11.424 Y 8.424 
X 11.389 Y 8.456 
X 11.352 Y 8.485 
X 11.313 Y 8.511 
X 11.272 Y 8.534 
X 11.229 Y 8.554 
X 11.185 Y 8.570 
X 11.140 Y 8.583 
X 11.094 Y 8.592 
X 11.047 Y 8.597 
X 11.000 Y 8.599 
X 10.953 Y 8.597 
X 10.906 Y 8.592 
X 10.860 Y 8.583 
X 10.815 Y 8.570 
X 10.771 Y 8.554 
X 10.728 Y 8.534 
X 10.687 Y 8.511 
X 10.648 Y 8.485 
X 10.611 Y 8.456 
X 10.576 Y 8.424 
X 10.544 Y 8.389 
X 10.515 Y 8.352 
X 10.489 Y 8.313 
X 10.466 Y 8.272 
X 10.446 Y 8.229 
X 10.430 Y 8.185 
X 10.417 Y 8.140 
X 10.408 Y 8.094 
X 10.403 Y 8.047 
X 10.401 Y 8.000 
X 10.403 Y 7.953 
X 10.408 Y 7.906 
X 10.417 Y 7.860 
X 10.430 Y 7.815 
X 10.446 Y 7.771 
X 10.466 Y 7.728 
X 10.489 Y 7.687 
X 10.515 Y 7.648 
X 10.544 Y 7.611 
X 10.576 Y 7.576 
X 10.611 Y 7.544 
X 10.648 Y 7.515 
X 10.687 Y 7.489 
X 10.728 Y 7.466 
X 10.771 Y 7.446 
X 10.815 Y 7.430 
X 10.860 Y 7.417 
X 10.906 Y 7.408 
X 10.953 Y 7.403 
X 11.000 Y 7.401 
X 11.047 Y 7.403 
X 11.094 Y 7.408 
X 11.140 Y 7.417 
X 11.185 Y 7.430 
X 11.229 Y 7.446 
X 11.272 Y 7.466 
X 11.313 Y 7.489 
X 11.352 Y 7.515 
X 11.389 Y 7.544 
X 11.424 Y 7.576 
X 11.456 Y 7.611 
X 11.485 Y 7.648 
X 11.511 Y 7.687 
X 11.534 Y 7.728 
X 11.554 Y 7.771 
X 11.570 Y 7.815 
X 11.583 Y 7.860 
X 11.592 Y 7.906 
X 11.597 Y 7.953 
X 11.599 Y 8.000 
G1   Z -5.800 F15000.0
G1 X 11.597 Y 8.047  F39000.0
X 11.592 Y 8.094 
X 11.583 Y 8.140 
X 11.570 Y 8.185 
X 11.554 Y 8.229 
X 11.534 Y 8.272 
X 11.511 Y 8.313 
X 11.485 Y 8.352 
X 11.456 Y 8.389 
X 11.424 Y 8.424 
X 11.389 Y 8.456 
X 11.352 Y 8.485 
X 11.313 Y 8.511 
X 11.272 Y 8.534 
X 11.229 Y 8.554 
X 11.185 Y 8.570 
X 11.140 Y 8.583 
X 11.094 Y 8.592 
X 11.047 Y 8.597 
X 11.000 Y 8.599 
X 10.953 Y 8.597 
X 10.906 Y 8.592 
X 10.860 Y 8.583 
X 10.815 Y 8.570 
X 10.771 Y 8.554 
X 10.728 Y 8.534 
X 10.687 Y 8.511 
X 10.648 Y 8.485 
X 10.611 Y 8.456 
X 10.576 Y 8.424 
X 10.544 Y 8.389 
X 10.515 Y 8.352 
X 10.489 Y 8.313 
X 10.466 Y 8.272 
X 10.446 Y 8.229 
X 10.430 Y 8.185 
X 10.417 Y 8.140 
X 10.408 Y 8.094 
X 10.403 Y 8.047 
X 10.401 Y 8.000 
X 10.403 Y 7.953 
X 10.408 Y 7.906 
X 10.417 Y 7.860 
X 10.430 Y 7.815 
X 10.446 Y 7.771 
X 10.466 Y 7.728 
X 10.489 Y 7.687 
X 10.515 Y 7.648 
X 10.544 Y 7.611 
X 10.576 Y 7.576 
X 10.611 Y 7.544 
X 10.648 Y 7.515 
X 10.687 Y 7.489 
X 10.728 Y 7.466 
X 10.771 Y 7.446 
X 10.815 Y 7.430 
X 10.860 Y 7.417 
X 10.906 Y 7.408 
X 10.953 Y 7.403 
X 11.000 Y 7.401 
X 11.047 Y 7.403 
X 11.094 Y 7.408 
X 11.140 Y 7.417 
X 11.185 Y 7.430 
X 11.229 Y 7.446 
X 11.272 Y 7.466 
X 11.313 Y 7.489 
X 11.352 Y 7.515 
X 11.389 Y 7.544 
X 11.424 Y 7.576 
X 11.456 Y 7.611 
X 11.485 Y 7.648 
X 11.511 Y 7.687 
X 11.534 Y 7.728 
X 11.554 Y 7.771 
X 11.570 Y 7.815 
X 11.583 Y 7.860 
X 11.592 Y 7.906 
X 11.597 Y 7.953 
X 11.599 Y 8.000 
G0   Z 6.000
G0 X 125.599  
G1   Z -1.450 F15000.0
G1 X 125.597 Y 8.047  F39000.0
X 125.592 Y 8.094 
X 125.583 Y 8.140 
X 125.570 Y 8.185 
X 125.554 Y 8.229 
X 125.534 Y 8.272 
X 125.511 Y 8.313 
X 125.485 Y 8.352 
X 125.456 Y 8.389 
X 125.424 Y 8.424 
X 125.389 Y 8.456 
X 125.352 Y 8.485 
X 125.313 Y 8.511 
X 125.272 Y 8.534 
X 125.229 Y 8.554 
X 125.185 Y 8.570 
X 125.140 Y 8.583 
X 125.094 Y 8.592 
X 125.047 Y 8.597 
X 125.000 Y 8.599 
X 124.953 Y 8.597 
X 124.906 Y 8.592 
X 124.860 Y 8.583 
X 124.815 Y 8.570 
X 124.771 Y 8.554 
X 124.728 Y 8.534 
X 124.687 Y 8.511 
X 124.648 Y 8.485 
X 124.611 Y 8.456 
X 124.576 Y 8.424 
X 124.544 Y 8.389 
X 124.515 Y 8.352 
X 124.489 Y 8.313 
X 124.466 Y 8.272 
X 124.446 Y 8.229 
X 124.430 Y 8.185 
X 124.417 Y 8.140 
X 124.408 Y 8.094 
X 124.403 Y 8.047 
X 124.401 Y 8.000 
X 124.403 Y 7.953 
X 124.408 Y 7.906 
X 124.417 Y 7.860 
X 124.430 Y 7.815 
X 124.446 Y 7.771 
X 124.466 Y 7.728 
X 124.489 Y 7.687 
X 124.515 Y 7.648 
X 124.544 Y 7.611 
X 124.576 Y 7.576 
X 124.611 Y 7.544 
X 124.648 Y 7.515 
X 124.687 Y 7.489 
X 124.728 Y 7.466 
X 124.771 Y 7.446 
X 124.815 Y 7.430 
X 124.860 Y 7.417 
X 124.906 Y 7.408 
X 124.953 Y 7.403 
X 125.000 Y 7.401 
X 125.047 Y 7.403 
X 125.094 Y 7.408 
X 125.140 Y 7.417 
X 125.185 Y 7.430 
X 125.229 Y 7.446 
X 125.272 Y 7.466 
X 125.313 Y 7.489 
X 125.352 Y 7.515 
X 125.389 Y 7.544 
X 125.424 Y 7.576 
X 125.456 Y 7.611 
X 125.485 Y 7.648 
X 125.511 Y 7.687 
X 125.534 Y 7.728 
X 125.554 Y 7.771 
X 125.570 Y 7.815 
X 125.583 Y 7.860 
X 125.592 Y 7.906 
X 125.597 Y 7.953 
X 125.599 Y 8.000 
G1   Z -2.900 F15000.0
G1 X 125.597 Y 8.047  F39000.0
X 125.592 Y 8.094 
X 125.583 Y 8.140 
X 125.570 Y 8.185 
X 125.554 Y 8.229 
X 125.534 Y 8.272 
X 125.511 Y 8.313 
X 125.485 Y 8.352 
X 125.456 Y 8.389 
X 125.424 Y 8.424 
X 125.389 Y 8.456 
X 125.352 Y 8.485 
X 125.313 Y 8.511 
X 125.272 Y 8.534 
X 125.229 Y 8.554 
X 125.185 Y 8.570 
X 125.140 Y 8.583 
X 125.094 Y 8.592 
X 125.047 Y 8.597 
X 125.000 Y 8.599 
X 124.953 Y 8.597 
X 124.906 Y 8.592 
X 124.860 Y 8.583 
X 124.815 Y 8.570 
X 124.771 Y 8.554 
X 124.728 Y 8.534 
X 124.687 Y 8.511 
X 124.648 Y 8.485 
X 124.611 Y 8.456 
X 124.576 Y 8.424 
X 124.544 Y 8.389 
X 124.515 Y 8.352 
X 124.489 Y 8.313 
X 124.466 Y 8.272 
X 124.446 Y 8.229 
X 124.430 Y 8.185 
X 124.417 Y 8.140 
X 124.408 Y 8.094 
X 124.403 Y 8.047 
X 124.401 Y 8.000 
X 124.403 Y 7.953 
X 124.408 Y 7.906 
X 124.417 Y 7.860 
X 124.430 Y 7.815 
X 124.446 Y 7.771 
X 124.466 Y 7.728 
X 124.489 Y 7.687 
X 124.515 Y 7.648 
X 124.544 Y 7.611 
X 124.576 Y 7.576 
X 124.611 Y 7.544 
X 124.648 Y 7.515 
X 124.687 Y 7.489 
X 124.728 Y 7.466 
X 124.771 Y 7.446 
X 124.815 Y 7.430 
X 124.860 Y 7.417 
X 124.906 Y 7.408 
X 124.953 Y 7.403 
X 125.000 Y 7.401 
X 125.047 Y 7.403 
X 125.094 Y 7.408 
X 125.140 Y 7.417 
X 125.185 Y 7.430 
X 125.229 Y 7.446 
X 125.272 Y 7.466 
X 125.313 Y 7.489 
X 125.352 Y 7.515 
X 125.389 Y 7.544 
X 125.424 Y 7.576 
X 125.456 Y 7.611 
X 125.485 Y 7.648 
X 125.511 Y 7.687 
X 125.534 Y 7.728 
X 125.554 Y 7.771 
X 125.570 Y 7.815 
X 125.583 Y 7.860 
X 125.592 Y 7.906 
X 125.597 Y 7.953 
X 125.599 Y 8.000 
G1   Z -4.350 F15000.0
G1 X 125.597 Y 8.047  F39000.0
X 125.592 Y 8.094 
X 125.583 Y 8.140 
X 125.570 Y 8.185 
X 125.554 Y 8.229 
X 125.534 Y 8.272 
X 125.511 Y 8.313 
X 125.485 Y 8.352 
X 125.456 Y 8.389 
X 125.424 Y 8.424 
X 125.389 Y 8.456 
X 125.352 Y 8.485 
X 125.313 Y 8.511 
X 125.272 Y 8.534 
X 125.229 Y 8.554 
X 125.185 Y 8.570 
X 125.140 Y 8.583 
X 125.094 Y 8.592 
X 125.047 Y 8.597 
X 125.000 Y 8.599 
X 124.953 Y 8.597 
X 124.906 Y 8.592 
X 124.860 Y 8.583 
X 124.815 Y 8.570 
X 124.771 Y 8.554 
X 124.728 Y 8.534 
X 124.687 Y 8.511 
X 124.648 Y 8.485 
X 124.611 Y 8.456 
X 124.576 Y 8.424 
X 124.544 Y 8.389 
X 124.515 Y 8.352 
X 124.489 Y 8.313 
X 124.466 Y 8.272 
X 124.446 Y 8.229 
X 124.430 Y 8.185 
X 124.417 Y 8.140 
X 124.408 Y 8.094 
X 124.403 Y 8.047 
X 124.401 Y 8.000 
X 124.403 Y 7.953 
X 124.408 Y 7.906 
X 124.417 Y 7.860 
X 124.430 Y 7.815 
X 124.446 Y 7.771 
X 124.466 Y 7.728 
X 124.489 Y 7.687 
X 124.515 Y 7.648 
X 124.544 Y 7.611 
X 124.576 Y 7.576 
X 124.611 Y 7.544 
X 124.648 Y 7.515 
X 124.687 Y 7.489 
X 124.728 Y 7.466 
X 124.771 Y 7.446 
X 124.815 Y 7.430 
X 124.860 Y 7.417 
X 124.906 Y 7.408 
X 124.953 Y 7.403 
X 125.000 Y 7.401 
X 125.047 Y 7.403 
X 125.094 Y 7.408 
X 125.140 Y 7.417 
X 125.185 Y 7.430 
X 125.229 Y 7.446 
X 125.272 Y 7.466 
X 125.313 Y 7.489 
X 125.352 Y 7.515 
X 125.389 Y 7.544 
X 125.424 Y 7.576 
X 125.456 Y 7.611 
X 125.485 Y 7.648 
X 125.511 Y 7.687 
X 125.534 Y 7.728 
X 125.554 Y 7.771 
X 125.570 Y 7.815 
X 125.583 Y 7.860 
X 125.592 Y 7.906 
X 125.597 Y 7.953 
X 125.599 Y 8.000 
G1   Z -5.800 F15000.0
G1 X 125.597 Y 8.047  F39000.0
X 125.592 Y 8.094 
X 125.583 Y 8.140 
X 125.570 Y 8.185 
X 125.554 Y 8.229 
X 125.534 Y 8.272 
X 125.511 Y 8.313 
X 125.485 Y 8.352 
X 125.456 Y 8.389 
X 125.424 Y 8.424 
X 125.389 Y 8.456 
X 125.352 Y 8.485 
X 125.313 Y 8.511 
X 125.272 Y 8.534 
X 125.229 Y 8.554 
X 125.185 Y 8.570 
X 125.140 Y 8.583 
X 125.094 Y 8.592 
X 125.047 Y 8.597 
X 125.000 Y 8.599 
X 124.953 Y 8.597 
X 124.906 Y 8.592 
X 124.860 Y 8.583 
X 124.815 Y 8.570 
X 124.771 Y 8.554 
X 124.728 Y 8.534 
X 124.687 Y 8.511 
X 124.648 Y 8.485 
X 124.611 Y 8.456 
X 124.576 Y 8.424 
X 124.544 Y 8.389 
X 124.515 Y 8.352 
X 124.489 Y 8.313 
X 124.466 Y 8.272 
X 124.446 Y 8.229 
X 124.430 Y 8.185 
X 124.417 Y 8.140 
X 124.408 Y 8.094 
X 124.403 Y 8.047 
X 124.401 Y 8.000 
X 124.403 Y 7.953 
X 124.408 Y 7.906 
X 124.417 Y 7.860 
X 124.430 Y 7.815 
X 124.446 Y 7.771 
X 124.466 Y 7.728 
X 124.489 Y 7.687 
X 124.515 Y 7.648 
X 124.544 Y 7.611 
X 124.576 Y 7.576 
X 124.611 Y 7.544 
X 124.648 Y 7.515 
X 124.687 Y 7.489 
X 124.728 Y 7.466 
X 124.771 Y 7.446 
X 124.815 Y 7.430 
X 124.860 Y 7.417 
X 124.906 Y 7.408 
X 124.953 Y 7.403 
X 125.000 Y 7.401 
X 125.047 Y 7.403 
X 125.094 Y 7.408 
X 125.140 Y 7.417 
X 125.185 Y 7.430 
X 125.229 Y 7.446 
X 125.272 Y 7.466 
X 125.313 Y 7.489 
X 125.352 Y 7.515 
X 125.389 Y 7.544 
X 125.424 Y 7.576 
X 125.456 Y 7.611 
X 125.485 Y 7.648 
X 125.511 Y 7.687 
X 125.534 Y 7.728 
X 125.554 Y 7.771 
X 125.570 Y 7.815 
X 125.583 Y 7.860 
X 125.592 Y 7.906 
X 125.597 Y 7.953 
X 125.599 Y 8.000 
G0   Z 6.000
G0  Y 186.724 
G1   Z -1.450 F15000.0
G1 X 125.597 Y 186.771  F39000.0
X 125.592 Y 186.818 
X 125.583 Y 186.864 
X 125.570 Y 186.909 
X 125.554 Y 186.953 
X 125.534 Y 186.996 
X 125.511 Y 187.037 
X 125.485 Y 187.076 
X 125.456 Y 187.113 
X 125.424 Y 187.148 
X 125.389 Y 187.180 
X 125.352 Y 187.209 
X 125.313 Y 187.235 
X 125.272 Y 187.258 
X 125.229 Y 187.278 
X 125.185 Y 187.294 
X 125.140 Y 187.307 
X 125.094 Y 187.316 
X 125.047 Y 187.321 
X 125.000 Y 187.323 
X 124.953 Y 187.321 
X 124.906 Y 187.316 
X 124.860 Y 187.307 
X 124.815 Y 187.294 
X 124.771 Y 187.278 
X 124.728 Y 187.258 
X 124.687 Y 187.235 
X 124.648 Y 187.209 
X 124.611 Y 187.180 
X 124.576 Y 187.148 
X 124.544 Y 187.113 
X 124.515 Y 187.076 
X 124.489 Y 187.037 
X 124.466 Y 186.996 
X 124.446 Y 186.953 
X 124.430 Y 186.909 
X 124.417 Y 186.864 
X 124.408 Y 186.818 
X 124.403 Y 186.771 
X 124.401 Y 186.724 
X 124.403 Y 186.677 
X 124.408 Y 186.630 
X 124.417 Y 186.584 
X 124.430 Y 186.539 
X 124.446 Y 186.495 
X 124.466 Y 186.452 
X 124.489 Y 186.411 
X 124.515 Y 186.372 
X 124.544 Y 186.335 
X 124.576 Y 186.300 
X 124.611 Y 186.268 
X 124.648 Y 186.239 
X 124.687 Y 186.213 
X 124.728 Y 186.190 
X 124.771 Y 186.170 
X 124.815 Y 186.154 
X 124.860 Y 186.141 
X 124.906 Y 186.132 
X 124.953 Y 186.127 
X 125.000 Y 186.125 
X 125.047 Y 186.127 
X 125.094 Y 186.132 
X 125.140 Y 186.141 
X 125.185 Y 186.154 
X 125.229 Y 186.170 
X 125.272 Y 186.190 
X 125.313 Y 186.213 
X 125.352 Y 186.239 
X 125.389 Y 186.268 
X 125.424 Y 186.300 
X 125.456 Y 186.335 
X 125.485 Y 186.372 
X 125.511 Y 186.411 
X 125.534 Y 186.452 
X 125.554 Y 186.495 
X 125.570 Y 186.539 
X 125.583 Y 186.584 
X 125.592 Y 186.630 
X 125.597 Y 186.677 
X 125.599 Y 186.724 
G1   Z -2.900 F15000.0
G1 X 125.597 Y 186.771  F39000.0
X 125.592 Y 186.818 
X 125.583 Y 186.864 
X 125.570 Y 186.909 
X 125.554 Y 186.953 
X 125.534 Y 186.996 
X 125.511 Y 187.037 
X 125.485 Y 187.076 
X 125.456 Y 187.113 
X 125.424 Y 187.148 
X 125.389 Y 187.180 
X 125.352 Y 187.209 
X 125.313 Y 187.235 
X 125.272 Y 187.258 
X 125.229 Y 187.278 
X 125.185 Y 187.294 
X 125.140 Y 187.307 
X 125.094 Y 187.316 
X 125.047 Y 187.321 
X 125.000 Y 187.323 
X 124.953 Y 187.321 
X 124.906 Y 187.316 
X 124.860 Y 187.307 
X 124.815 Y 187.294 
X 124.771 Y 187.278 
X 124.728 Y 187.258 
X 124.687 Y 187.235 
X 124.648 Y 187.209 
X 124.611 Y 187.180 
X 124.576 Y 187.148 
X 124.544 Y 187.113 
X 124.515 Y 187.076 
X 124.489 Y 187.037 
X 124.466 Y 186.996 
X 124.446 Y 186.953 
X 124.430 Y 186.909 
X 124.417 Y 186.864 
X 124.408 Y 186.818 
X 124.403 Y 186.771 
X 124.401 Y 186.724 
X 124.403 Y 186.677 
X 124.408 Y 186.630 
X 124.417 Y 186.584 
X 124.430 Y 186.539 
X 124.446 Y 186.495 
X 124.466 Y 186.452 
X 124.489 Y 186.411 
X 124.515 Y 186.372 
X 124.544 Y 186.335 
X 124.576 Y 186.300 
X 124.611 Y 186.268 
X 124.648 Y 186.239 
X 124.687 Y 186.213 
X 124.728 Y 186.190 
X 124.771 Y 186.170 
X 124.815 Y 186.154 
X 124.860 Y 186.141 
X 124.906 Y 186.132 
X 124.953 Y 186.127 
X 125.000 Y 186.125 
X 125.047 Y 186.127 
X 125.094 Y 186.132 
X 125.140 Y 186.141 
X 125.185 Y 186.154 
X 125.229 Y 186.170 
X 125.272 Y 186.190 
X 125.313 Y 186.213 
X 125.352 Y 186.239 
X 125.389 Y 186.268 
X 125.424 Y 186.300 
X 125.456 Y 186.335 
X 125.485 Y 186.372 
X 125.511 Y 186.411 
X 125.534 Y 186.452 
X 125.554 Y 186.495 
X 125.570 Y 186.539 
X 125.583 Y 186.584 
X 125.592 Y 186.630 
X 125.597 Y 186.677 
X 125.599 Y 186.724 
G1   Z -4.350 F15000.0
G1 X 125.597 Y 186.771  F39000.0
X 125.592 Y 186.818 
X 125.583 Y 186.864 
X 125.570 Y 186.909 
X 125.554 Y 186.953 
X 125.534 Y 186.996 
X 125.511 Y 187.037 
X 125.485 Y 187.076 
X 125.456 Y 187.113 
X 125.424 Y 187.148 
X 125.389 Y 187.180 
X 125.352 Y 187.209 
X 125.313 Y 187.235 
X 125.272 Y 187.258 
X 125.229 Y 187.278 
X 125.185 Y 187.294 
X 125.140 Y 187.307 
X 125.094 Y 187.316 
X 125.047 Y 187.321 
X 125.000 Y 187.323 
X 124.953 Y 187.321 
X 124.906 Y 187.316 
X 124.860 Y 187.307 
X 124.815 Y 187.294 
X 124.771 Y 187.278 
X 124.728 Y 187.258 
X 124.687 Y 187.235 
X 124.648 Y 187.209 
X 124.611 Y 187.180 
X 124.576 Y 187.148 
X 124.544 Y 187.113 
X 124.515 Y 187.076 
X 124.489 Y 187.037 
X 124.466 Y 186.996 
X 124.446 Y 186.953 
X 124.430 Y 186.909 
X 124.417 Y 186.864 
X 124.408 Y 186.818 
X 124.403 Y 186.771 
X 124.401 Y 186.724 
X 124.403 Y 186.677 
X 124.408 Y 186.630 
X 124.417 Y 186.584 
X 124.430 Y 186.539 
X 124.446 Y 186.495 
X 124.466 Y 186.452 
X 124.489 Y 186.411 
X 124.515 Y 186.372 
X 124.544 Y 186.335 
X 124.576 Y 186.300 
X 124.611 Y 186.268 
X 124.648 Y 186.239 
X 124.687 Y 186.213 
X 124.728 Y 186.190 
X 124.771 Y 186.170 
X 124.815 Y 186.154 
X 124.860 Y 186.141 
X 124.906 Y 186.132 
X 124.953 Y 186.127 
X 125.000 Y 186.125 
X 125.047 Y 186.127 
X 125.094 Y 186.132 
X 125.140 Y 186.141 
X 125.185 Y 186.154 
X 125.229 Y 186.170 
X 125.272 Y 186.190 
X 125.313 Y 186.213 
X 125.352 Y 186.239 
X 125.389 Y 186.268 
X 125.424 Y 186.300 
X 125.456 Y 186.335 
X 125.485 Y 186.372 
X 125.511 Y 186.411 
X 125.534 Y 186.452 
X 125.554 Y 186.495 
X 125.570 Y 186.539 
X 125.583 Y 186.584 
X 125.592 Y 186.630 
X 125.597 Y 186.677 
X 125.599 Y 186.724 
G1   Z -5.800 F15000.0
G1 X 125.597 Y 186.771  F39000.0
X 125.592 Y 186.818 
X 125.583 Y 186.864 
X 125.570 Y 186.909 
X 125.554 Y 186.953 
X 125.534 Y 186.996 
X 125.511 Y 187.037 
X 125.485 Y 187.076 
X 125.456 Y 187.113 
X 125.424 Y 187.148 
X 125.389 Y 187.180 
X 125.352 Y 187.209 
X 125.313 Y 187.235 
X 125.272 Y 187.258 
X 125.229 Y 187.278 
X 125.185 Y 187.294 
X 125.140 Y 187.307 
X 125.094 Y 187.316 
X 125.047 Y 187.321 
X 125.000 Y 187.323 
X 124.953 Y 187.321 
X 124.906 Y 187.316 
X 124.860 Y 187.307 
X 124.815 Y 187.294 
X 124.771 Y 187.278 
X 124.728 Y 187.258 
X 124.687 Y 187.235 
X 124.648 Y 187.209 
X 124.611 Y 187.180 
X 124.576 Y 187.148 
X 124.544 Y 187.113 
X 124.515 Y 187.076 
X 124.489 Y 187.037 
X 124.466 Y 186.996 
X 124.446 Y 186.953 
X 124.430 Y 186.909 
X 124.417 Y 186.864 
X 124.408 Y 186.818 
X 124.403 Y 186.771 
X 124.401 Y 186.724 
X 124.403 Y 186.677 
X 124.408 Y 186.630 
X 124.417 Y 186.584 
X 124.430 Y 186.539 
X 124.446 Y 186.495 
X 124.466 Y 186.452 
X 124.489 Y 186.411 
X 124.515 Y 186.372 
X 124.544 Y 186.335 
X 124.576 Y 186.300 
X 124.611 Y 186.268 
X 124.648 Y 186.239 
X 124.687 Y 186.213 
X 124.728 Y 186.190 
X 124.771 Y 186.170 
X 124.815 Y 186.154 
X 124.860 Y 186.141 
X 124.906 Y 186.132 
X 124.953 Y 186.127 
X 125.000 Y 186.125 
X 125.047 Y 186.127 
X 125.094 Y 186.132 
X 125.140 Y 186.141 
X 125.185 Y 186.154 
X 125.229 Y 186.170 
X 125.272 Y 186.190 
X 125.313 Y 186.213 
X 125.352 Y 186.239 
X 125.389 Y 186.268 
X 125.424 Y 186.300 
X 125.456 Y 186.335 
X 125.485 Y 186.372 
X 125.511 Y 186.411 
X 125.534 Y 186.452 
X 125.554 Y 186.495 
X 125.570 Y 186.539 
X 125.583 Y 186.584 
X 125.592 Y 186.630 
X 125.597 Y 186.677 
X 125.599 Y 186.724 
G0   Z 6.000
G0 X 11.599  
G1   Z -1.450 F15000.0
G1 X 11.597 Y 186.771  F39000.0
X 11.592 Y 186.818 
X 11.583 Y 186.864 
X 11.570 Y 186.909 
X 11.554 Y 186.953 
X 11.534 Y 186.996 
X 11.511 Y 187.037 
X 11.485 Y 187.076 
X 11.456 Y 187.113 
X 11.424 Y 187.148 
X 11.389 Y 187.180 
X 11.352 Y 187.209 
X 11.313 Y 187.235 
X 11.272 Y 187.258 
X 11.229 Y 187.278 
X 11.185 Y 187.294 
X 11.140 Y 187.307 
X 11.094 Y 187.316 
X 11.047 Y 187.321 
X 11.000 Y 187.323 
X 10.953 Y 187.321 
X 10.906 Y 187.316 
X 10.860 Y 187.307 
X 10.815 Y 187.294 
X 10.771 Y 187.278 
X 10.728 Y 187.258 
X 10.687 Y 187.235 
X 10.648 Y 187.209 
X 10.611 Y 187.180 
X 10.576 Y 187.148 
X 10.544 Y 187.113 
X 10.515 Y 187.076 
X 10.489 Y 187.037 
X 10.466 Y 186.996 
X 10.446 Y 186.953 
X 10.430 Y 186.909 
X 10.417 Y 186.864 
X 10.408 Y 186.818 
X 10.403 Y 186.771 
X 10.401 Y 186.724 
X 10.403 Y 186.677 
X 10.408 Y 186.630 
X 10.417 Y 186.584 
X 10.430 Y 186.539 
X 10.446 Y 186.495 
X 10.466 Y 186.452 
X 10.489 Y 186.411 
X 10.515 Y 186.372 
X 10.544 Y 186.335 
X 10.576 Y 186.300 
X 10.611 Y 186.268 
X 10.648 Y 186.239 
X 10.687 Y 186.213 
X 10.728 Y 186.190 
X 10.771 Y 186.170 
X 10.815 Y 186.154 
X 10.860 Y 186.141 
X 10.906 Y 186.132 
X 10.953 Y 186.127 
X 11.000 Y 186.125 
X 11.047 Y 186.127 
X 11.094 Y 186.132 
X 11.140 Y 186.141 
X 11.185 Y 186.154 
X 11.229 Y 186.170 
X 11.272 Y 186.190 
X 11.313 Y 186.213 
X 11.352 Y 186.239 
X 11.389 Y 186.268 
X 11.424 Y 186.300 
X 11.456 Y 186.335 
X 11.485 Y 186.372 
X 11.511 Y 186.411 
X 11.534 Y 186.452 
X 11.554 Y 186.495 
X 11.570 Y 186.539 
X 11.583 Y 186.584 
X 11.592 Y 186.630 
X 11.597 Y 186.677 
X 11.599 Y 186.724 
G1   Z -2.900 F15000.0
G1 X 11.597 Y 186.771  F39000.0
X 11.592 Y 186.818 
X 11.583 Y 186.864 
X 11.570 Y 186.909 
X 11.554 Y 186.953 
X 11.534 Y 186.996 
X 11.511 Y 187.037 
X 11.485 Y 187.076 
X 11.456 Y 187.113 
X 11.424 Y 187.148 
X 11.389 Y 187.180 
X 11.352 Y 187.209 
X 11.313 Y 187.235 
X 11.272 Y 187.258 
X 11.229 Y 187.278 
X 11.185 Y 187.294 
X 11.140 Y 187.307 
X 11.094 Y 187.316 
X 11.047 Y 187.321 
X 11.000 Y 187.323 
X 10.953 Y 187.321 
X 10.906 Y 187.316 
X 10.860 Y 187.307 
X 10.815 Y 187.294 
X 10.771 Y 187.278 
X 10.728 Y 187.258 
X 10.687 Y 187.235 
X 10.648 Y 187.209 
X 10.611 Y 187.180 
X 10.576 Y 187.148 
X 10.544 Y 187.113 
X 10.515 Y 187.076 
X 10.489 Y 187.037 
X 10.466 Y 186.996 
X 10.446 Y 186.953 
X 10.430 Y 186.909 
X 10.417 Y 186.864 
X 10.408 Y 186.818 
X 10.403 Y 186.771 
X 10.401 Y 186.724 
X 10.403 Y 186.677 
X 10.408 Y 186.630 
X 10.417 Y 186.584 
X 10.430 Y 186.539 
X 10.446 Y 186.495 
X 10.466 Y 186.452 
X 10.489 Y 186.411 
X 10.515 Y 186.372 
X 10.544 Y 186.335 
X 10.576 Y 186.300 
X 10.611 Y 186.268 
X 10.648 Y 186.239 
X 10.687 Y 186.213 
X 10.728 Y 186.190 
X 10.771 Y 186.170 
X 10.815 Y 186.154 
X 10.860 Y 186.141 
X 10.906 Y 186.132 
X 10.953 Y 186.127 
X 11.000 Y 186.125 
X 11.047 Y 186.127 
X 11.094 Y 186.132 
X 11.140 Y 186.141 
X 11.185 Y 186.154 
X 11.229 Y 186.170 
X 11.272 Y 186.190 
X 11.313 Y 186.213 
X 11.352 Y 186.239 
X 11.389 Y 186.268 
X 11.424 Y 186.300 
X 11.456 Y 186.335 
X 11.485 Y 186.372 
X 11.511 Y 186.411 
X 11.534 Y 186.452 
X 11.554 Y 186.495 
X 11.570 Y 186.539 
X 11.583 Y 186.584 
X 11.592 Y 186.630 
X 11.597 Y 186.677 
X 11.599 Y 186.724 
G1   Z -4.350 F15000.0
G1 X 11.597 Y 186.771  F39000.0
X 11.592 Y 186.818 
X 11.583 Y 186.864 
X 11.570 Y 186.909 
X 11.554 Y 186.953 
X 11.534 Y 186.996 
X 11.511 Y 187.037 
X 11.485 Y 187.076 
X 11.456 Y 187.113 
X 11.424 Y 187.148 
X 11.389 Y 187.180 
X 11.352 Y 187.209 
X 11.313 Y 187.235 
X 11.272 Y 187.258 
X 11.229 Y 187.278 
X 11.185 Y 187.294 
X 11.140 Y 187.307 
X 11.094 Y 187.316 
X 11.047 Y 187.321 
X 11.000 Y 187.323 
X 10.953 Y 187.321 
X 10.906 Y 187.316 
X 10.860 Y 187.307 
X 10.815 Y 187.294 
X 10.771 Y 187.278 
X 10.728 Y 187.258 
X 10.687 Y 187.235 
X 10.648 Y 187.209 
X 10.611 Y 187.180 
X 10.576 Y 187.148 
X 10.544 Y 187.113 
X 10.515 Y 187.076 
X 10.489 Y 187.037 
X 10.466 Y 186.996 
X 10.446 Y 186.953 
X 10.430 Y 186.909 
X 10.417 Y 186.864 
X 10.408 Y 186.818 
X 10.403 Y 186.771 
X 10.401 Y 186.724 
X 10.403 Y 186.677 
X 10.408 Y 186.630 
X 10.417 Y 186.584 
X 10.430 Y 186.539 
X 10.446 Y 186.495 
X 10.466 Y 186.452 
X 10.489 Y 186.411 
X 10.515 Y 186.372 
X 10.544 Y 186.335 
X 10.576 Y 186.300 
X 10.611 Y 186.268 
X 10.648 Y 186.239 
X 10.687 Y 186.213 
X 10.728 Y 186.190 
X 10.771 Y 186.170 
X 10.815 Y 186.154 
X 10.860 Y 186.141 
X 10.906 Y 186.132 
X 10.953 Y 186.127 
X 11.000 Y 186.125 
X 11.047 Y 186.127 
X 11.094 Y 186.132 
X 11.140 Y 186.141 
X 11.185 Y 186.154 
X 11.229 Y 186.170 
X 11.272 Y 186.190 
X 11.313 Y 186.213 
X 11.352 Y 186.239 
X 11.389 Y 186.268 
X 11.424 Y 186.300 
X 11.456 Y 186.335 
X 11.485 Y 186.372 
X 11.511 Y 186.411 
X 11.534 Y 186.452 
X 11.554 Y 186.495 
X 11.570 Y 186.539 
X 11.583 Y 186.584 
X 11.592 Y 186.630 
X 11.597 Y 186.677 
X 11.599 Y 186.724 
G1   Z -5.800 F15000.0
G1 X 11.597 Y 186.771  F39000.0
X 11.592 Y 186.818 
X 11.583 Y 186.864 
X 11.570 Y 186.909 
X 11.554 Y 186.953 
X 11.534 Y 186.996 
X 11.511 Y 187.037 
X 11.485 Y 187.076 
X 11.456 Y 187.113 
X 11.424 Y 187.148 
X 11.389 Y 187.180 
X 11.352 Y 187.209 
X 11.313 Y 187.235 
X 11.272 Y 187.258 
X 11.229 Y 187.278 
X 11.185 Y 187.294 
X 11.140 Y 187.307 
X 11.094 Y 187.316 
X 11.047 Y 187.321 
X 11.000 Y 187.323 
X 10.953 Y 187.321 
X 10.906 Y 187.316 
X 10.860 Y 187.307 
X 10.815 Y 187.294 
X 10.771 Y 187.278 
X 10.728 Y 187.258 
X 10.687 Y 187.235 
X 10.648 Y 187.209 
X 10.611 Y 187.180 
X 10.576 Y 187.148 
X 10.544 Y 187.113 
X 10.515 Y 187.076 
X 10.489 Y 187.037 
X 10.466 Y 186.996 
X 10.446 Y 186.953 
X 10.430 Y 186.909 
X 10.417 Y 186.864 
X 10.408 Y 186.818 
X 10.403 Y 186.771 
X 10.401 Y 186.724 
X 10.403 Y 186.677 
X 10.408 Y 186.630 
X 10.417 Y 186.584 
X 10.430 Y 186.539 
X 10.446 Y 186.495 
X 10.466 Y 186.452 
X 10.489 Y 186.411 
X 10.515 Y 186.372 
X 10.544 Y 186.335 
X 10.576 Y 186.300 
X 10.611 Y 186.268 
X 10.648 Y 186.239 
X 10.687 Y 186.213 
X 10.728 Y 186.190 
X 10.771 Y 186.170 
X 10.815 Y 186.154 
X 10.860 Y 186.141 
X 10.906 Y 186.132 
X 10.953 Y 186.127 
X 11.000 Y 186.125 
X 11.047 Y 186.127 
X 11.094 Y 186.132 
X 11.140 Y 186.141 
X 11.185 Y 186.154 
X 11.229 Y 186.170 
X 11.272 Y 186.190 
X 11.313 Y 186.213 
X 11.352 Y 186.239 
X 11.389 Y 186.268 
X 11.424 Y 186.300 
X 11.456 Y 186.335 
X 11.485 Y 186.372 
X 11.511 Y 186.411 
X 11.534 Y 186.452 
X 11.554 Y 186.495 
X 11.570 Y 186.539 
X 11.583 Y 186.584 
X 11.592 Y 186.630 
X 11.597 Y 186.677 
X 11.599 Y 186.724 
G0   Z 6.000
G0 X 11.599 Y 8.000 Z 6.000
G1   Z -1.450 F15000.0
G1 X 11.597 Y 8.047  F39000.0
X 11.592 Y 8.094 
X 11.583 Y 8.140 
X 11.570 Y 8.185 
X 11.554 Y 8.229 
X 11.534 Y 8.272 
X 11.511 Y 8.313 
X 11.485 Y 8.352 
X 11.456 Y 8.389 
X 11.424 Y 8.424 
X 11.389 Y 8.456 
X 11.352 Y 8.485 
X 11.313 Y 8.511 
X 11.272 Y 8.534 
X 11.229 Y 8.554 
X 11.185 Y 8.570 
X 11.140 Y 8.583 
X 11.094 Y 8.592 
X 11.047 Y 8.597 
X 11.000 Y 8.599 
X 10.953 Y 8.597 
X 10.906 Y 8.592 
X 10.860 Y 8.583 
X 10.815 Y 8.570 
X 10.771 Y 8.554 
X 10.728 Y 8.534 
X 10.687 Y 8.511 
X 10.648 Y 8.485 
X 10.611 Y 8.456 
X 10.576 Y 8.424 
X 10.544 Y 8.389 
X 10.515 Y 8.352 
X 10.489 Y 8.313 
X 10.466 Y 8.272 
X 10.446 Y 8.229 
X 10.430 Y 8.185 
X 10.417 Y 8.140 
X 10.408 Y 8.094 
X 10.403 Y 8.047 
X 10.401 Y 8.000 
X 10.403 Y 7.953 
X 10.408 Y 7.906 
X 10.417 Y 7.860 
X 10.430 Y 7.815 
X 10.446 Y 7.771 
X 10.466 Y 7.728 
X 10.489 Y 7.687 
X 10.515 Y 7.648 
X 10.544 Y 7.611 
X 10.576 Y 7.576 
X 10.611 Y 7.544 
X 10.648 Y 7.515 
X 10.687 Y 7.489 
X 10.728 Y 7.466 
X 10.771 Y 7.446 
X 10.815 Y 7.430 
X 10.860 Y 7.417 
X 10.906 Y 7.408 
X 10.953 Y 7.403 
X 11.000 Y 7.401 
X 11.047 Y 7.403 
X 11.094 Y 7.408 
X 11.140 Y 7.417 
X 11.185 Y 7.430 
X 11.229 Y 7.446 
X 11.272 Y 7.466 
X 11.313 Y 7.489 
X 11.352 Y 7.515 
X 11.389 Y 7.544 
X 11.424 Y 7.576 
X 11.456 Y 7.611 
X 11.485 Y 7.648 
X 11.511 Y 7.687 
X 11.534 Y 7.728 
X 11.554 Y 7.771 
X 11.570 Y 7.815 
X 11.583 Y 7.860 
X 11.592 Y 7.906 
X 11.597 Y 7.953 
X 11.599 Y 8.000 
G1   Z -2.900 F15000.0
G1 X 11.597 Y 8.047  F39000.0
X 11.592 Y 8.094 
X 11.583 Y 8.140 
X 11.570 Y 8.185 
X 11.554 Y 8.229 
X 11.534 Y 8.272 
X 11.511 Y 8.313 
X 11.485 Y 8.352 
X 11.456 Y 8.389 
X 11.424 Y 8.424 
X 11.389 Y 8.456 
X 11.352 Y 8.485 
X 11.313 Y 8.511 
X 11.272 Y 8.534 
X 11.229 Y 8.554 
X 11.185 Y 8.570 
X 11.140 Y 8.583 
X 11.094 Y 8.592 
X 11.047 Y 8.597 
X 11.000 Y 8.599 
X 10.953 Y 8.597 
X 10.906 Y 8.592 
X 10.860 Y 8.583 
X 10.815 Y 8.570 
X 10.771 Y 8.554 
X 10.728 Y 8.534 
X 10.687 Y 8.511 
X 10.648 Y 8.485 
X 10.611 Y 8.456 
X 10.576 Y 8.424 
X 10.544 Y 8.389 
X 10.515 Y 8.352 
X 10.489 Y 8.313 
X 10.466 Y 8.272 
X 10.446 Y 8.229 
X 10.430 Y 8.185 
X 10.417 Y 8.140 
X 10.408 Y 8.094 
X 10.403 Y 8.047 
X 10.401 Y 8.000 
X 10.403 Y 7.953 
X 10.408 Y 7.906 
X 10.417 Y 7.860 
X 10.430 Y 7.815 
X 10.446 Y 7.771 
X 10.466 Y 7.728 
X 10.489 Y 7.687 
X 10.515 Y 7.648 
X 10.544 Y 7.611 
X 10.576 Y 7.576 
X 10.611 Y 7.544 
X 10.648 Y 7.515 
X 10.687 Y 7.489 
X 10.728 Y 7.466 
X 10.771 Y 7.446 
X 10.815 Y 7.430 
X 10.860 Y 7.417 
X 10.906 Y 7.408 
X 10.953 Y 7.403 
X 11.000 Y 7.401 
X 11.047 Y 7.403 
X 11.094 Y 7.408 
X 11.140 Y 7.417 
X 11.185 Y 7.430 
X 11.229 Y 7.446 
X 11.272 Y 7.466 
X 11.313 Y 7.489 
X 11.352 Y 7.515 
X 11.389 Y 7.544 
X 11.424 Y 7.576 
X 11.456 Y 7.611 
X 11.485 Y 7.648 
X 11.511 Y 7.687 
X 11.534 Y 7.728 
X 11.554 Y 7.771 
X 11.570 Y 7.815 
X 11.583 Y 7.860 
X 11.592 Y 7.906 
X 11.597 Y 7.953 
X 11.599 Y 8.000 
G1   Z -4.350 F15000.0
G1 X 11.597 Y 8.047  F39000.0
X 11.592 Y 8.094 
X 11.583 Y 8.140 
X 11.570 Y 8.185 
X 11.554 Y 8.229 
X 11.534 Y 8.272 
X 11.511 Y 8.313 
X 11.485 Y 8.352 
X 11.456 Y 8.389 
X 11.424 Y 8.424 
X 11.389 Y 8.456 
X 11.352 Y 8.485 
X 11.313 Y 8.511 
X 11.272 Y 8.534 
X 11.229 Y 8.554 
X 11.185 Y 8.570 
X 11.140 Y 8.583 
X 11.094 Y 8.592 
X 11.047 Y 8.597 
X 11.000 Y 8.599 
X 10.953 Y 8.597 
X 10.906 Y 8.592 
X 10.860 Y 8.583 
X 10.815 Y 8.570 
X 10.771 Y 8.554 
X 10.728 Y 8.534 
X 10.687 Y 8.511 
X 10.648 Y 8.485 
X 10.611 Y 8.456 
X 10.576 Y 8.424 
X 10.544 Y 8.389 
X 10.515 Y 8.352 
X 10.489 Y 8.313 
X 10.466 Y 8.272 
X 10.446 Y 8.229 
X 10.430 Y 8.185 
X 10.417 Y 8.140 
X 10.408 Y 8.094 
X 10.403 Y 8.047 
X 10.401 Y 8.000 
X 10.403 Y 7.953 
X 10.408 Y 7.906 
X 10.417 Y 7.860 
X 10.430 Y 7.815 
X 10.446 Y 7.771 
X 10.466 Y 7.728 
X 10.489 Y 7.687 
X 10.515 Y 7.648 
X 10.544 Y 7.611 
X 10.576 Y 7.576 
X 10.611 Y 7.544 
X 10.648 Y 7.515 
X 10.687 Y 7.489 
X 10.728 Y 7.466 
X 10.771 Y 7.446 
X 10.815 Y 7.430 
X 10.860 Y 7.417 
X 10.906 Y 7.408 
X 10.953 Y 7.403 
X 11.000 Y 7.401 
X 11.047 Y 7.403 
X 11.094 Y 7.408 
X 11.140 Y 7.417 
X 11.185 Y 7.430 
X 11.229 Y 7.446 
X 11.272 Y 7.466 
X 11.313 Y 7.489 
X 11.352 Y 7.515 
X 11.389 Y 7.544 
X 11.424 Y 7.576 
X 11.456 Y 7.611 
X 11.485 Y 7.648 
X 11.511 Y 7.687 
X 11.534 Y 7.728 
X 11.554 Y 7.771 
X 11.570 Y 7.815 
X 11.583 Y 7.860 
X 11.592 Y 7.906 
X 11.597 Y 7.953 
X 11.599 Y 8.000 
G1   Z -5.800 F15000.0
G1 X 11.597 Y 8.047  F39000.0
X 11.592 Y 8.094 
X 11.583 Y 8.140 
X 11.570 Y 8.185 
X 11.554 Y 8.229 
X 11.534 Y 8.272 
X 11.511 Y 8.313 
X 11.485 Y 8.352 
X 11.456 Y 8.389 
X 11.424 Y 8.424 
X 11.389 Y 8.456 
X 11.352 Y 8.485 
X 11.313 Y 8.511 
X 11.272 Y 8.534 
X 11.229 Y 8.554 
X 11.185 Y 8.570 
X 11.140 Y 8.583 
X 11.094 Y 8.592 
X 11.047 Y 8.597 
X 11.000 Y 8.599 
X 10.953 Y 8.597 
X 10.906 Y 8.592 
X 10.860 Y 8.583 
X 10.815 Y 8.570 
X 10.771 Y 8.554 
X 10.728 Y 8.534 
X 10.687 Y 8.511 
X 10.648 Y 8.485 
X 10.611 Y 8.456 
X 10.576 Y 8.424 
X 10.544 Y 8.389 
X 10.515 Y 8.352 
X 10.489 Y 8.313 
X 10.466 Y 8.272 
X 10.446 Y 8.229 
X 10.430 Y 8.185 
X 10.417 Y 8.140 
X 10.408 Y 8.094 
X 10.403 Y 8.047 
X 10.401 Y 8.000 
X 10.403 Y 7.953 
X 10.408 Y 7.906 
X 10.417 Y 7.860 
X 10.430 Y 7.815 
X 10.446 Y 7.771 
X 10.466 Y 7.728 
X 10.489 Y 7.687 
X 10.515 Y 7.648 
X 10.544 Y 7.611 
X 10.576 Y 7.576 
X 10.611 Y 7.544 
X 10.648 Y 7.515 
X 10.687 Y 7.489 
X 10.728 Y 7.466 
X 10.771 Y 7.446 
X 10.815 Y 7.430 
X 10.860 Y 7.417 
X 10.906 Y 7.408 
X 10.953 Y 7.403 
X 11.000 Y 7.401 
X 11.047 Y 7.403 
X 11.094 Y 7.408 
X 11.140 Y 7.417 
X 11.185 Y 7.430 
X 11.229 Y 7.446 
X 11.272 Y 7.466 
X 11.313 Y 7.489 
X 11.352 Y 7.515 
X 11.389 Y 7.544 
X 11.424 Y 7.576 
X 11.456 Y 7.611 
X 11.485 Y 7.648 
X 11.511 Y 7.687 
X 11.534 Y 7.728 
X 11.554 Y 7.771 
X 11.570 Y 7.815 
X 11.583 Y 7.860 
X 11.592 Y 7.906 
X 11.597 Y 7.953 
X 11.599 Y 8.000 
G0   Z 6.000
G0 X 10.557 Y 84.362 
G1   Z -1.450 F15000.0
G3 X 10.407 Y 84.512 I-0.150 J0.000 F39000.0
G3 X 10.257 Y 84.362 I0.000 J-0.150
G3 X 10.407 Y 84.212 I0.150 J0.000
G3 X 10.557 Y 84.362 I0.000 J0.150
G1   Z -2.900 F15000.0
G3 X 10.407 Y 84.512 I-0.150 J0.000 F39000.0
G3 X 10.257 Y 84.362 I0.000 J-0.150
G3 X 10.407 Y 84.212 I0.150 J0.000
G3 X 10.557 Y 84.362 I0.000 J0.150
G1   Z -4.350 F15000.0
G3 X 10.407 Y 84.512 I-0.150 J0.000 F39000.0
G3 X 10.257 Y 84.362 I0.000 J-0.150
G3 X 10.407 Y 84.212 I0.150 J0.000
G3 X 10.557 Y 84.362 I0.000 J0.150
G1   Z -5.800 F15000.0
G3 X 10.407 Y 84.512 I-0.150 J0.000 F39000.0
G3 X 10.257 Y 84.362 I0.000 J-0.150
G3 X 10.407 Y 84.212 I0.150 J0.000
G3 X 10.557 Y 84.362 I0.000 J0.150
G0   Z 6.000
G0  Y 110.362 
G1   Z -1.450 F15000.0
G3 X 10.407 Y 110.512 I-0.150 J0.000 F39000.0
G3 X 10.257 Y 110.362 I0.000 J-0.150
G3 X 10.407 Y 110.212 I0.150 J0.000
G3 X 10.557 Y 110.362 I0.000 J0.150
G1   Z -2.900 F15000.0
G3 X 10.407 Y 110.512 I-0.150 J0.000 F39000.0
G3 X 10.257 Y 110.362 I0.000 J-0.150
G3 X 10.407 Y 110.212 I0.150 J0.000
G3 X 10.557 Y 110.362 I0.000 J0.150
G1   Z -4.350 F15000.0
G3 X 10.407 Y 110.512 I-0.150 J0.000 F39000.0
G3 X 10.257 Y 110.362 I0.000 J-0.150
G3 X 10.407 Y 110.212 I0.150 J0.000
G3 X 10.557 Y 110.362 I0.000 J0.150
G1   Z -5.800 F15000.0
G3 X 10.407 Y 110.512 I-0.150 J0.000 F39000.0
G3 X 10.257 Y 110.362 I0.000 J-0.150
G3 X 10.407 Y 110.212 I0.150 J0.000
G3 X 10.557 Y 110.362 I0.000 J0.150
G0   Z 6.000
G0 X 11.599 Y 186.724 
G1   Z -1.450 F15000.0
G1 X 11.597 Y 186.771  F39000.0
X 11.592 Y 186.818 
X 11.583 Y 186.864 
X 11.570 Y 186.909 
X 11.554 Y 186.953 
X 11.534 Y 186.996 
X 11.511 Y 187.037 
X 11.485 Y 187.076 
X 11.456 Y 187.113 
X 11.424 Y 187.148 
X 11.389 Y 187.180 
X 11.352 Y 187.209 
X 11.313 Y 187.235 
X 11.272 Y 187.258 
X 11.229 Y 187.278 
X 11.185 Y 187.294 
X 11.140 Y 187.307 
X 11.094 Y 187.316 
X 11.047 Y 187.321 
X 11.000 Y 187.323 
X 10.953 Y 187.321 
X 10.906 Y 187.316 
X 10.860 Y 187.307 
X 10.815 Y 187.294 
X 10.771 Y 187.278 
X 10.728 Y 187.258 
X 10.687 Y 187.235 
X 10.648 Y 187.209 
X 10.611 Y 187.180 
X 10.576 Y 187.148 
X 10.544 Y 187.113 
X 10.515 Y 187.076 
X 10.489 Y 187.037 
X 10.466 Y 186.996 
X 10.446 Y 186.953 
X 10.430 Y 186.909 
X 10.417 Y 186.864 
X 10.408 Y 186.818 
X 10.403 Y 186.771 
X 10.401 Y 186.724 
X 10.403 Y 186.677 
X 10.408 Y 186.630 
X 10.417 Y 186.584 
X 10.430 Y 186.539 
X 10.446 Y 186.495 
X 10.466 Y 186.452 
X 10.489 Y 186.411 
X 10.515 Y 186.372 
X 10.544 Y 186.335 
X 10.576 Y 186.300 
X 10.611 Y 186.268 
X 10.648 Y 186.239 
X 10.687 Y 186.213 
X 10.728 Y 186.190 
X 10.771 Y 186.170 
X 10.815 Y 186.154 
X 10.860 Y 186.141 
X 10.906 Y 186.132 
X 10.953 Y 186.127 
X 11.000 Y 186.125 
X 11.047 Y 186.127 
X 11.094 Y 186.132 
X 11.140 Y 186.141 
X 11.185 Y 186.154 
X 11.229 Y 186.170 
X 11.272 Y 186.190 
X 11.313 Y 186.213 
X 11.352 Y 186.239 
X 11.389 Y 186.268 
X 11.424 Y 186.300 
X 11.456 Y 186.335 
X 11.485 Y 186.372 
X 11.511 Y 186.411 
X 11.534 Y 186.452 
X 11.554 Y 186.495 
X 11.570 Y 186.539 
X 11.583 Y 186.584 
X 11.592 Y 186.630 
X 11.597 Y 186.677 
X 11.599 Y 186.724 
G1   Z -2.900 F15000.0
G1 X 11.597 Y 186.771  F39000.0
X 11.592 Y 186.818 
X 11.583 Y 186.864 
X 11.570 Y 186.909 
X 11.554 Y 186.953 
X 11.534 Y 186.996 
X 11.511 Y 187.037 
X 11.485 Y 187.076 
X 11.456 Y 187.113 
X 11.424 Y 187.148 
X 11.389 Y 187.180 
X 11.352 Y 187.209 
X 11.313 Y 187.235 
X 11.272 Y 187.258 
X 11.229 Y 187.278 
X 11.185 Y 187.294 
X 11.140 Y 187.307 
X 11.094 Y 187.316 
X 11.047 Y 187.321 
X 11.000 Y 187.323 
X 10.953 Y 187.321 
X 10.906 Y 187.316 
X 10.860 Y 187.307 
X 10.815 Y 187.294 
X 10.771 Y 187.278 
X 10.728 Y 187.258 
X 10.687 Y 187.235 
X 10.648 Y 187.209 
X 10.611 Y 187.180 
X 10.576 Y 187.148 
X 10.544 Y 187.113 
X 10.515 Y 187.076 
X 10.489 Y 187.037 
X 10.466 Y 186.996 
X 10.446 Y 186.953 
X 10.430 Y 186.909 
X 10.417 Y 186.864 
X 10.408 Y 186.818 
X 10.403 Y 186.771 
X 10.401 Y 186.724 
X 10.403 Y 186.677 
X 10.408 Y 186.630 
X 10.417 Y 186.584 
X 10.430 Y 186.539 
X 10.446 Y 186.495 
X 10.466 Y 186.452 
X 10.489 Y 186.411 
X 10.515 Y 186.372 
X 10.544 Y 186.335 
X 10.576 Y 186.300 
X 10.611 Y 186.268 
X 10.648 Y 186.239 
X 10.687 Y 186.213 
X 10.728 Y 186.190 
X 10.771 Y 186.170 
X 10.815 Y 186.154 
X 10.860 Y 186.141 
X 10.906 Y 186.132 
X 10.953 Y 186.127 
X 11.000 Y 186.125 
X 11.047 Y 186.127 
X 11.094 Y 186.132 
X 11.140 Y 186.141 
X 11.185 Y 186.154 
X 11.229 Y 186.170 
X 11.272 Y 186.190 
X 11.313 Y 186.213 
X 11.352 Y 186.239 
X 11.389 Y 186.268 
X 11.424 Y 186.300 
X 11.456 Y 186.335 
X 11.485 Y 186.372 
X 11.511 Y 186.411 
X 11.534 Y 186.452 
X 11.554 Y 186.495 
X 11.570 Y 186.539 
X 11.583 Y 186.584 
X 11.592 Y 186.630 
X 11.597 Y 186.677 
X 11.599 Y 186.724 
G1   Z -4.350 F15000.0
G1 X 11.597 Y 186.771  F39000.0
X 11.592 Y 186.818 
X 11.583 Y 186.864 
X 11.570 Y 186.909 
X 11.554 Y 186.953 
X 11.534 Y 186.996 
X 11.511 Y 187.037 
X 11.485 Y 187.076 
X 11.456 Y 187.113 
X 11.424 Y 187.148 
X 11.389 Y 187.180 
X 11.352 Y 187.209 
X 11.313 Y 187.235 
X 11.272 Y 187.258 
X 11.229 Y 187.278 
X 11.185 Y 187.294 
X 11.140 Y 187.307 
X 11.094 Y 187.316 
X 11.047 Y 187.321 
X 11.000 Y 187.323 
X 10.953 Y 187.321 
X 10.906 Y 187.316 
X 10.860 Y 187.307 
X 10.815 Y 187.294 
X 10.771 Y 187.278 
X 10.728 Y 187.258 
X 10.687 Y 187.235 
X 10.648 Y 187.209 
X 10.611 Y 187.180 
X 10.576 Y 187.148 
X 10.544 Y 187.113 
X 10.515 Y 187.076 
X 10.489 Y 187.037 
X 10.466 Y 186.996 
X 10.446 Y 186.953 
X 10.430 Y 186.909 
X 10.417 Y 186.864 
X 10.408 Y 186.818 
X 10.403 Y 186.771 
X 10.401 Y 186.724 
X 10.403 Y 186.677 
X 10.408 Y 186.630 
X 10.417 Y 186.584 
X 10.430 Y 186.539 
X 10.446 Y 186.495 
X 10.466 Y 186.452 
X 10.489 Y 186.411 
X 10.515 Y 186.372 
X 10.544 Y 186.335 
X 10.576 Y 186.300 
X 10.611 Y 186.268 
X 10.648 Y 186.239 
X 10.687 Y 186.213 
X 10.728 Y 186.190 
X 10.771 Y 186.170 
X 10.815 Y 186.154 
X 10.860 Y 186.141 
X 10.906 Y 186.132 
X 10.953 Y 186.127 
X 11.000 Y 186.125 
X 11.047 Y 186.127 
X 11.094 Y 186.132 
X 11.140 Y 186.141 
X 11.185 Y 186.154 
X 11.229 Y 186.170 
X 11.272 Y 186.190 
X 11.313 Y 186.213 
X 11.352 Y 186.239 
X 11.389 Y 186.268 
X 11.424 Y 186.300 
X 11.456 Y 186.335 
X 11.485 Y 186.372 
X 11.511 Y 186.411 
X 11.534 Y 186.452 
X 11.554 Y 186.495 
X 11.570 Y 186.539 
X 11.583 Y 186.584 
X 11.592 Y 186.630 
X 11.597 Y 186.677 
X 11.599 Y 186.724 
G1   Z -5.800 F15000.0
G1 X 11.597 Y 186.771  F39000.0
X 11.592 Y 186.818 
X 11.583 Y 186.864 
X 11.570 Y 186.909 
X 11.554 Y 186.953 
X 11.534 Y 186.996 
X 11.511 Y 187.037 
X 11.485 Y 187.076 
X 11.456 Y 187.113 
X 11.424 Y 187.148 
X 11.389 Y 187.180 
X 11.352 Y 187.209 
X 11.313 Y 187.235 
X 11.272 Y 187.258 
X 11.229 Y 187.278 
X 11.185 Y 187.294 
X 11.140 Y 187.307 
X 11.094 Y 187.316 
X 11.047 Y 187.321 
X 11.000 Y 187.323 
X 10.953 Y 187.321 
X 10.906 Y 187.316 
X 10.860 Y 187.307 
X 10.815 Y 187.294 
X 10.771 Y 187.278 
X 10.728 Y 187.258 
X 10.687 Y 187.235 
X 10.648 Y 187.209 
X 10.611 Y 187.180 
X 10.576 Y 187.148 
X 10.544 Y 187.113 
X 10.515 Y 187.076 
X 10.489 Y 187.037 
X 10.466 Y 186.996 
X 10.446 Y 186.953 
X 10.430 Y 186.909 
X 10.417 Y 186.864 
X 10.408 Y 186.818 
X 10.403 Y 186.771 
X 10.401 Y 186.724 
X 10.403 Y 186.677 
X 10.408 Y 186.630 
X 10.417 Y 186.584 
X 10.430 Y 186.539 
X 10.446 Y 186.495 
X 10.466 Y 186.452 
X 10.489 Y 186.411 
X 10.515 Y 186.372 
X 10.544 Y 186.335 
X 10.576 Y 186.300 
X 10.611 Y 186.268 
X 10.648 Y 186.239 
X 10.687 Y 186.213 
X 10.728 Y 186.190 
X 10.771 Y 186.170 
X 10.815 Y 186.154 
X 10.860 Y 186.141 
X 10.906 Y 186.132 
X 10.953 Y 186.127 
X 11.000 Y 186.125 
X 11.047 Y 186.127 
X 11.094 Y 186.132 
X 11.140 Y 186.141 
X 11.185 Y 186.154 
X 11.229 Y 186.170 
X 11.272 Y 186.190 
X 11.313 Y 186.213 
X 11.352 Y 186.239 
X 11.389 Y 186.268 
X 11.424 Y 186.300 
X 11.456 Y 186.335 
X 11.485 Y 186.372 
X 11.511 Y 186.411 
X 11.534 Y 186.452 
X 11.554 Y 186.495 
X 11.570 Y 186.539 
X 11.583 Y 186.584 
X 11.592 Y 186.630 
X 11.597 Y 186.677 
X 11.599 Y 186.724 
G0   Z 6.000
G0 X 125.599  
G1   Z -1.450 F15000.0
G1 X 125.597 Y 186.771  F39000.0
X 125.592 Y 186.818 
X 125.583 Y 186.864 
X 125.570 Y 186.909 
X 125.554 Y 186.953 
X 125.534 Y 186.996 
X 125.511 Y 187.037 
X 125.485 Y 187.076 
X 125.456 Y 187.113 
X 125.424 Y 187.148 
X 125.389 Y 187.180 
X 125.352 Y 187.209 
X 125.313 Y 187.235 
X 125.272 Y 187.258 
X 125.229 Y 187.278 
X 125.185 Y 187.294 
X 125.140 Y 187.307 
X 125.094 Y 187.316 
X 125.047 Y 187.321 
X 125.000 Y 187.323 
X 124.953 Y 187.321 
X 124.906 Y 187.316 
X 124.860 Y 187.307 
X 124.815 Y 187.294 
X 124.771 Y 187.278 
X 124.728 Y 187.258 
X 124.687 Y 187.235 
X 124.648 Y 187.209 
X 124.611 Y 187.180 
X 124.576 Y 187.148 
X 124.544 Y 187.113 
X 124.515 Y 187.076 
X 124.489 Y 187.037 
X 124.466 Y 186.996 
X 124.446 Y 186.953 
X 124.430 Y 186.909 
X 124.417 Y 186.864 
X 124.408 Y 186.818 
X 124.403 Y 186.771 
X 124.401 Y 186.724 
X 124.403 Y 186.677 
X 124.408 Y 186.630 
X 124.417 Y 186.584 
X 124.430 Y 186.539 
X 124.446 Y 186.495 
X 124.466 Y 186.452 
X 124.489 Y 186.411 
X 124.515 Y 186.372 
X 124.544 Y 186.335 
X 124.576 Y 186.300 
X 124.611 Y 186.268 
X 124.648 Y 186.239 
X 124.687 Y 186.213 
X 124.728 Y 186.190 
X 124.771 Y 186.170 
X 124.815 Y 186.154 
X 124.860 Y 186.141 
X 124.906 Y 186.132 
X 124.953 Y 186.127 
X 125.000 Y 186.125 
X 125.047 Y 186.127 
X 125.094 Y 186.132 
X 125.140 Y 186.141 
X 125.185 Y 186.154 
X 125.229 Y 186.170 
X 125.272 Y 186.190 
X 125.313 Y 186.213 
X 125.352 Y 186.239 
X 125.389 Y 186.268 
X 125.424 Y 186.300 
X 125.456 Y 186.335 
X 125.485 Y 186.372 
X 125.511 Y 186.411 
X 125.534 Y 186.452 
X 125.554 Y 186.495 
X 125.570 Y 186.539 
X 125.583 Y 186.584 
X 125.592 Y 186.630 
X 125.597 Y 186.677 
X 125.599 Y 186.724 
G1   Z -2.900 F15000.0
G1 X 125.597 Y 186.771  F39000.0
X 125.592 Y 186.818 
X 125.583 Y 186.864 
X 125.570 Y 186.909 
X 125.554 Y 186.953 
X 125.534 Y 186.996 
X 125.511 Y 187.037 
X 125.485 Y 187.076 
X 125.456 Y 187.113 
X 125.424 Y 187.148 
X 125.389 Y 187.180 
X 125.352 Y 187.209 
X 125.313 Y 187.235 
X 125.272 Y 187.258 
X 125.229 Y 187.278 
X 125.185 Y 187.294 
X 125.140 Y 187.307 
X 125.094 Y 187.316 
X 125.047 Y 187.321 
X 125.000 Y 187.323 
X 124.953 Y 187.321 
X 124.906 Y 187.316 
X 124.860 Y 187.307 
X 124.815 Y 187.294 
X 124.771 Y 187.278 
X 124.728 Y 187.258 
X 124.687 Y 187.235 
X 124.648 Y 187.209 
X 124.611 Y 187.180 
X 124.576 Y 187.148 
X 124.544 Y 187.113 
X 124.515 Y 187.076 
X 124.489 Y 187.037 
X 124.466 Y 186.996 
X 124.446 Y 186.953 
X 124.430 Y 186.909 
X 124.417 Y 186.864 
X 124.408 Y 186.818 
X 124.403 Y 186.771 
X 124.401 Y 186.724 
X 124.403 Y 186.677 
X 124.408 Y 186.630 
X 124.417 Y 186.584 
X 124.430 Y 186.539 
X 124.446 Y 186.495 
X 124.466 Y 186.452 
X 124.489 Y 186.411 
X 124.515 Y 186.372 
X 124.544 Y 186.335 
X 124.576 Y 186.300 
X 124.611 Y 186.268 
X 124.648 Y 186.239 
X 124.687 Y 186.213 
X 124.728 Y 186.190 
X 124.771 Y 186.170 
X 124.815 Y 186.154 
X 124.860 Y 186.141 
X 124.906 Y 186.132 
X 124.953 Y 186.127 
X 125.000 Y 186.125 
X 125.047 Y 186.127 
X 125.094 Y 186.132 
X 125.140 Y 186.141 
X 125.185 Y 186.154 
X 125.229 Y 186.170 
X 125.272 Y 186.190 
X 125.313 Y 186.213 
X 125.352 Y 186.239 
X 125.389 Y 186.268 
X 125.424 Y 186.300 
X 125.456 Y 186.335 
X 125.485 Y 186.372 
X 125.511 Y 186.411 
X 125.534 Y 186.452 
X 125.554 Y 186.495 
X 125.570 Y 186.539 
X 125.583 Y 186.584 
X 125.592 Y 186.630 
X 125.597 Y 186.677 
X 125.599 Y 186.724 
G1   Z -4.350 F15000.0
G1 X 125.597 Y 186.771  F39000.0
X 125.592 Y 186.818 
X 125.583 Y 186.864 
X 125.570 Y 186.909 
X 125.554 Y 186.953 
X 125.534 Y 186.996 
X 125.511 Y 187.037 
X 125.485 Y 187.076 
X 125.456 Y 187.113 
X 125.424 Y 187.148 
X 125.389 Y 187.180 
X 125.352 Y 187.209 
X 125.313 Y 187.235 
X 125.272 Y 187.258 
X 125.229 Y 187.278 
X 125.185 Y 187.294 
X 125.140 Y 187.307 
X 125.094 Y 187.316 
X 125.047 Y 187.321 
X 125.000 Y 187.323 
X 124.953 Y 187.321 
X 124.906 Y 187.316 
X 124.860 Y 187.307 
X 124.815 Y 187.294 
X 124.771 Y 187.278 
X 124.728 Y 187.258 
X 124.687 Y 187.235 
X 124.648 Y 187.209 
X 124.611 Y 187.180 
X 124.576 Y 187.148 
X 124.544 Y 187.113 
X 124.515 Y 187.076 
X 124.489 Y 187.037 
X 124.466 Y 186.996 
X 124.446 Y 186.953 
X 124.430 Y 186.909 
X 124.417 Y 186.864 
X 124.408 Y 186.818 
X 124.403 Y 186.771 
X 124.401 Y 186.724 
X 124.403 Y 186.677 
X 124.408 Y 186.630 
X 124.417 Y 186.584 
X 124.430 Y 186.539 
X 124.446 Y 186.495 
X 124.466 Y 186.452 
X 124.489 Y 186.411 
X 124.515 Y 186.372 
X 124.544 Y 186.335 
X 124.576 Y 186.300 
X 124.611 Y 186.268 
X 124.648 Y 186.239 
X 124.687 Y 186.213 
X 124.728 Y 186.190 
X 124.771 Y 186.170 
X 124.815 Y 186.154 
X 124.860 Y 186.141 
X 124.906 Y 186.132 
X 124.953 Y 186.127 
X 125.000 Y 186.125 
X 125.047 Y 186.127 
X 125.094 Y 186.132 
X 125.140 Y 186.141 
X 125.185 Y 186.154 
X 125.229 Y 186.170 
X 125.272 Y 186.190 
X 125.313 Y 186.213 
X 125.352 Y 186.239 
X 125.389 Y 186.268 
X 125.424 Y 186.300 
X 125.456 Y 186.335 
X 125.485 Y 186.372 
X 125.511 Y 186.411 
X 125.534 Y 186.452 
X 125.554 Y 186.495 
X 125.570 Y 186.539 
X 125.583 Y 186.584 
X 125.592 Y 186.630 
X 125.597 Y 186.677 
X 125.599 Y 186.724 
G1   Z -5.800 F15000.0
G1 X 125.597 Y 186.771  F39000.0
X 125.592 Y 186.818 
X 125.583 Y 186.864 
X 125.570 Y 186.909 
X 125.554 Y 186.953 
X 125.534 Y 186.996 
X 125.511 Y 187.037 
X 125.485 Y 187.076 
X 125.456 Y 187.113 
X 125.424 Y 187.148 
X 125.389 Y 187.180 
X 125.352 Y 187.209 
X 125.313 Y 187.235 
X 125.272 Y 187.258 
X 125.229 Y 187.278 
X 125.185 Y 187.294 
X 125.140 Y 187.307 
X 125.094 Y 187.316 
X 125.047 Y 187.321 
X 125.000 Y 187.323 
X 124.953 Y 187.321 
X 124.906 Y 187.316 
X 124.860 Y 187.307 
X 124.815 Y 187.294 
X 124.771 Y 187.278 
X 124.728 Y 187.258 
X 124.687 Y 187.235 
X 124.648 Y 187.209 
X 124.611 Y 187.180 
X 124.576 Y 187.148 
X 124.544 Y 187.113 
X 124.515 Y 187.076 
X 124.489 Y 187.037 
X 124.466 Y 186.996 
X 124.446 Y 186.953 
X 124.430 Y 186.909 
X 124.417 Y 186.864 
X 124.408 Y 186.818 
X 124.403 Y 186.771 
X 124.401 Y 186.724 
X 124.403 Y 186.677 
X 124.408 Y 186.630 
X 124.417 Y 186.584 
X 124.430 Y 186.539 
X 124.446 Y 186.495 
X 124.466 Y 186.452 
X 124.489 Y 186.411 
X 124.515 Y 186.372 
X 124.544 Y 186.335 
X 124.576 Y 186.300 
X 124.611 Y 186.268 
X 124.648 Y 186.239 
X 124.687 Y 186.213 
X 124.728 Y 186.190 
X 124.771 Y 186.170 
X 124.815 Y 186.154 
X 124.860 Y 186.141 
X 124.906 Y 186.132 
X 124.953 Y 186.127 
X 125.000 Y 186.125 
X 125.047 Y 186.127 
X 125.094 Y 186.132 
X 125.140 Y 186.141 
X 125.185 Y 186.154 
X 125.229 Y 186.170 
X 125.272 Y 186.190 
X 125.313 Y 186.213 
X 125.352 Y 186.239 
X 125.389 Y 186.268 
X 125.424 Y 186.300 
X 125.456 Y 186.335 
X 125.485 Y 186.372 
X 125.511 Y 186.411 
X 125.534 Y 186.452 
X 125.554 Y 186.495 
X 125.570 Y 186.539 
X 125.583 Y 186.584 
X 125.592 Y 186.630 
X 125.597 Y 186.677 
X 125.599 Y 186.724 
G0   Z 6.000
G0  Y 8.000 
G1   Z -1.450 F15000.0
G1 X 125.597 Y 8.047  F39000.0
X 125.592 Y 8.094 
X 125.583 Y 8.140 
X 125.570 Y 8.185 
X 125.554 Y 8.229 
X 125.534 Y 8.272 
X 125.511 Y 8.313 
X 125.485 Y 8.352 
X 125.456 Y 8.389 
X 125.424 Y 8.424 
X 125.389 Y 8.456 
X 125.352 Y 8.485 
X 125.313 Y 8.511 
X 125.272 Y 8.534 
X 125.229 Y 8.554 
X 125.185 Y 8.570 
X 125.140 Y 8.583 
X 125.094 Y 8.592 
X 125.047 Y 8.597 
X 125.000 Y 8.599 
X 124.953 Y 8.597 
X 124.906 Y 8.592 
X 124.860 Y 8.583 
X 124.815 Y 8.570 
X 124.771 Y 8.554 
X 124.728 Y 8.534 
X 124.687 Y 8.511 
X 124.648 Y 8.485 
X 124.611 Y 8.456 
X 124.576 Y 8.424 
X 124.544 Y 8.389 
X 124.515 Y 8.352 
X 124.489 Y 8.313 
X 124.466 Y 8.272 
X 124.446 Y 8.229 
X 124.430 Y 8.185 
X 124.417 Y 8.140 
X 124.408 Y 8.094 
X 124.403 Y 8.047 
X 124.401 Y 8.000 
X 124.403 Y 7.953 
X 124.408 Y 7.906 
X 124.417 Y 7.860 
X 124.430 Y 7.815 
X 124.446 Y 7.771 
X 124.466 Y 7.728 
X 124.489 Y 7.687 
X 124.515 Y 7.648 
X 124.544 Y 7.611 
X 124.576 Y 7.576 
X 124.611 Y 7.544 
X 124.648 Y 7.515 
X 124.687 Y 7.489 
X 124.728 Y 7.466 
X 124.771 Y 7.446 
X 124.815 Y 7.430 
X 124.860 Y 7.417 
X 124.906 Y 7.408 
X 124.953 Y 7.403 
X 125.000 Y 7.401 
X 125.047 Y 7.403 
X 125.094 Y 7.408 
X 125.140 Y 7.417 
X 125.185 Y 7.430 
X 125.229 Y 7.446 
X 125.272 Y 7.466 
X 125.313 Y 7.489 
X 125.352 Y 7.515 
X 125.389 Y 7.544 
X 125.424 Y 7.576 
X 125.456 Y 7.611 
X 125.485 Y 7.648 
X 125.511 Y 7.687 
X 125.534 Y 7.728 
X 125.554 Y 7.771 
X 125.570 Y 7.815 
X 125.583 Y 7.860 
X 125.592 Y 7.906 
X 125.597 Y 7.953 
X 125.599 Y 8.000 
G1   Z -2.900 F15000.0
G1 X 125.597 Y 8.047  F39000.0
X 125.592 Y 8.094 
X 125.583 Y 8.140 
X 125.570 Y 8.185 
X 125.554 Y 8.229 
X 125.534 Y 8.272 
X 125.511 Y 8.313 
X 125.485 Y 8.352 
X 125.456 Y 8.389 
X 125.424 Y 8.424 
X 125.389 Y 8.456 
X 125.352 Y 8.485 
X 125.313 Y 8.511 
X 125.272 Y 8.534 
X 125.229 Y 8.554 
X 125.185 Y 8.570 
X 125.140 Y 8.583 
X 125.094 Y 8.592 
X 125.047 Y 8.597 
X 125.000 Y 8.599 
X 124.953 Y 8.597 
X 124.906 Y 8.592 
X 124.860 Y 8.583 
X 124.815 Y 8.570 
X 124.771 Y 8.554 
X 124.728 Y 8.534 
X 124.687 Y 8.511 
X 124.648 Y 8.485 
X 124.611 Y 8.456 
X 124.576 Y 8.424 
X 124.544 Y 8.389 
X 124.515 Y 8.352 
X 124.489 Y 8.313 
X 124.466 Y 8.272 
X 124.446 Y 8.229 
X 124.430 Y 8.185 
X 124.417 Y 8.140 
X 124.408 Y 8.094 
X 124.403 Y 8.047 
X 124.401 Y 8.000 
X 124.403 Y 7.953 
X 124.408 Y 7.906 
X 124.417 Y 7.860 
X 124.430 Y 7.815 
X 124.446 Y 7.771 
X 124.466 Y 7.728 
X 124.489 Y 7.687 
X 124.515 Y 7.648 
X 124.544 Y 7.611 
X 124.576 Y 7.576 
X 124.611 Y 7.544 
X 124.648 Y 7.515 
X 124.687 Y 7.489 
X 124.728 Y 7.466 
X 124.771 Y 7.446 
X 124.815 Y 7.430 
X 124.860 Y 7.417 
X 124.906 Y 7.408 
X 124.953 Y 7.403 
X 125.000 Y 7.401 
X 125.047 Y 7.403 
X 125.094 Y 7.408 
X 125.140 Y 7.417 
X 125.185 Y 7.430 
X 125.229 Y 7.446 
X 125.272 Y 7.466 
X 125.313 Y 7.489 
X 125.352 Y 7.515 
X 125.389 Y 7.544 
X 125.424 Y 7.576 
X 125.456 Y 7.611 
X 125.485 Y 7.648 
X 125.511 Y 7.687 
X 125.534 Y 7.728 
X 125.554 Y 7.771 
X 125.570 Y 7.815 
X 125.583 Y 7.860 
X 125.592 Y 7.906 
X 125.597 Y 7.953 
X 125.599 Y 8.000 
G1   Z -4.350 F15000.0
G1 X 125.597 Y 8.047  F39000.0
X 125.592 Y 8.094 
X 125.583 Y 8.140 
X 125.570 Y 8.185 
X 125.554 Y 8.229 
X 125.534 Y 8.272 
X 125.511 Y 8.313 
X 125.485 Y 8.352 
X 125.456 Y 8.389 
X 125.424 Y 8.424 
X 125.389 Y 8.456 
X 125.352 Y 8.485 
X 125.313 Y 8.511 
X 125.272 Y 8.534 
X 125.229 Y 8.554 
X 125.185 Y 8.570 
X 125.140 Y 8.583 
X 125.094 Y 8.592 
X 125.047 Y 8.597 
X 125.000 Y 8.599 
X 124.953 Y 8.597 
X 124.906 Y 8.592 
X 124.860 Y 8.583 
X 124.815 Y 8.570 
X 124.771 Y 8.554 
X 124.728 Y 8.534 
X 124.687 Y 8.511 
X 124.648 Y 8.485 
X 124.611 Y 8.456 
X 124.576 Y 8.424 
X 124.544 Y 8.389 
X 124.515 Y 8.352 
X 124.489 Y 8.313 
X 124.466 Y 8.272 
X 124.446 Y 8.229 
X 124.430 Y 8.185 
X 124.417 Y 8.140 
X 124.408 Y 8.094 
X 124.403 Y 8.047 
X 124.401 Y 8.000 
X 124.403 Y 7.953 
X 124.408 Y 7.906 
X 124.417 Y 7.860 
X 124.430 Y 7.815 
X 124.446 Y 7.771 
X 124.466 Y 7.728 
X 124.489 Y 7.687 
X 124.515 Y 7.648 
X 124.544 Y 7.611 
X 124.576 Y 7.576 
X 124.611 Y 7.544 
X 124.648 Y 7.515 
X 124.687 Y 7.489 
X 124.728 Y 7.466 
X 124.771 Y 7.446 
X 124.815 Y 7.430 
X 124.860 Y 7.417 
X 124.906 Y 7.408 
X 124.953 Y 7.403 
X 125.000 Y 7.401 
X 125.047 Y 7.403 
X 125.094 Y 7.408 
X 125.140 Y 7.417 
X 125.185 Y 7.430 
X 125.229 Y 7.446 
X 125.272 Y 7.466 
X 125.313 Y 7.489 
X 125.352 Y 7.515 
X 125.389 Y 7.544 
X 125.424 Y 7.576 
X 125.456 Y 7.611 
X 125.485 Y 7.648 
X 125.511 Y 7.687 
X 125.534 Y 7.728 
X 125.554 Y 7.771 
X 125.570 Y 7.815 
X 125.583 Y 7.860 
X 125.592 Y 7.906 
X 125.597 Y 7.953 
X 125.599 Y 8.000 
G1   Z -5.800 F15000.0
G1 X 125.597 Y 8.047  F39000.0
X 125.592 Y 8.094 
X 125.583 Y 8.140 
X 125.570 Y 8.185 
X 125.554 Y 8.229 
X 125.534 Y 8.272 
X 125.511 Y 8.313 
X 125.485 Y 8.352 
X 125.456 Y 8.389 
X 125.424 Y 8.424 
X 125.389 Y 8.456 
X 125.352 Y 8.485 
X 125.313 Y 8.511 
X 125.272 Y 8.534 
X 125.229 Y 8.554 
X 125.185 Y 8.570 
X 125.140 Y 8.583 
X 125.094 Y 8.592 
X 125.047 Y 8.597 
X 125.000 Y 8.599 
X 124.953 Y 8.597 
X 124.906 Y 8.592 
X 124.860 Y 8.583 
X 124.815 Y 8.570 
X 124.771 Y 8.554 
X 124.728 Y 8.534 
X 124.687 Y 8.511 
X 124.648 Y 8.485 
X 124.611 Y 8.456 
X 124.576 Y 8.424 
X 124.544 Y 8.389 
X 124.515 Y 8.352 
X 124.489 Y 8.313 
X 124.466 Y 8.272 
X 124.446 Y 8.229 
X 124.430 Y 8.185 
X 124.417 Y 8.140 
X 124.408 Y 8.094 
X 124.403 Y 8.047 
X 124.401 Y 8.000 
X 124.403 Y 7.953 
X 124.408 Y 7.906 
X 124.417 Y 7.860 
X 124.430 Y 7.815 
X 124.446 Y 7.771 
X 124.466 Y 7.728 
X 124.489 Y 7.687 
X 124.515 Y 7.648 
X 124.544 Y 7.611 
X 124.576 Y 7.576 
X 124.611 Y 7.544 
X 124.648 Y 7.515 
X 124.687 Y 7.489 
X 124.728 Y 7.466 
X 124.771 Y 7.446 
X 124.815 Y 7.430 
X 124.860 Y 7.417 
X 124.906 Y 7.408 
X 124.953 Y 7.403 
X 125.000 Y 7.401 
X 125.047 Y 7.403 
X 125.094 Y 7.408 
X 125.140 Y 7.417 
X 125.185 Y 7.430 
X 125.229 Y 7.446 
X 125.272 Y 7.466 
X 125.313 Y 7.489 
X 125.352 Y 7.515 
X 125.389 Y 7.544 
X 125.424 Y 7.576 
X 125.456 Y 7.611 
X 125.485 Y 7.648 
X 125.511 Y 7.687 
X 125.534 Y 7.728 
X 125.554 Y 7.771 
X 125.570 Y 7.815 
X 125.583 Y 7.860 
X 125.592 Y 7.906 
X 125.597 Y 7.953 
X 125.599 Y 8.000 
G0   Z 6.000
G0 X 15.407 Y 86.862 Z 6.000
G1   Z -1.450 F15000.0
G1  Y 107.862  F39000.0
X 5.407  
 Y 86.862 
X 15.407  
G1   Z -2.900 F15000.0
G1  Y 107.862  F39000.0
X 5.407  
 Y 86.862 
X 15.407  
G1   Z -4.350 F15000.0
G1  Y 107.862  F39000.0
X 5.407  
 Y 86.862 
X 15.407  
G1   Z -5.800 F15000.0
G1  Y 107.862  F39000.0
X 5.407  
 Y 86.862 
X 15.407  
G0   Z 6.000
G0 X 48.000 Y 18.000 Z 6.000
G1   Z -1.333 F15000.0
G1 X 80.000   F39000.0
 Y 19.362 
X 48.000  
 Y 18.000 
X 47.000 Y 17.000 
X 81.000  
 Y 20.362 
X 47.000  
 Y 17.000 
X 46.000 Y 16.000 
X 82.000  
 Y 21.362 
X 46.000  
 Y 16.000 
X 45.000 Y 15.000 
X 83.000  
 Y 22.362 
X 45.000  
 Y 15.000 
X 44.000 Y 14.000 
X 84.000  
 Y 23.362 
X 44.000  
 Y 14.000 
X 43.000 Y 13.000 
X 85.000  
 Y 24.362 
X 43.000  
 Y 13.000 
X 42.000 Y 12.000 
X 86.000  
 Y 25.362 
X 42.000  
 Y 12.000 
X 41.000 Y 11.000 
X 87.000  
 Y 26.362 
X 41.000  
 Y 11.000 
X 40.000 Y 10.000 
X 88.000  
 Y 27.362 
X 40.000  
 Y 10.000 
X 39.000 Y 9.000 
X 89.000  
 Y 28.362 
X 39.000  
 Y 9.000 
G0   Z 6.000
G0 X 48.000 Y 18.000 
G1   Z -2.667 F15000.0
G1 X 80.000   F39000.0
 Y 19.362 
X 48.000  
 Y 18.000 
X 47.000 Y 17.000 
X 81.000  
 Y 20.362 
X 47.000  
 Y 17.000 
X 46.000 Y 16.000 
X 82.000  
 Y 21.362 
X 46.000  
 Y 16.000 
X 45.000 Y 15.000 
X 83.000  
 Y 22.362 
X 45.000  
 Y 15.000 
X 44.000 Y 14.000 
X 84.000  
 Y 23.362 
X 44.000  
 Y 14.000 
X 43.000 Y 13.000 
X 85.000  
 Y 24.362 
X 43.000  
 Y 13.000 
X 42.000 Y 12.000 
X 86.000  
 Y 25.362 
X 42.000  
 Y 12.000 
X 41.000 Y 11.000 
X 87.000  
 Y 26.362 
X 41.000  
 Y 11.000 
X 40.000 Y 10.000 
X 88.000  
 Y 27.362 
X 40.000  
 Y 10.000 
X 39.000 Y 9.000 
X 89.000  
 Y 28.362 
X 39.000  
 Y 9.000 
G0   Z 6.000
G0 X 48.000 Y 18.000 
G1   Z -4.000 F15000.0
G1 X 80.000   F39000.0
 Y 19.362 
X 48.000  
 Y 18.000 
X 47.000 Y 17.000 
X 81.000  
 Y 20.362 
X 47.000  
 Y 17.000 
X 46.000 Y 16.000 
X 82.000  
 Y 21.362 
X 46.000  
 Y 16.000 
X 45.000 Y 15.000 
X 83.000  
 Y 22.362 
X 45.000  
 Y 15.000 
X 44.000 Y 14.000 
X 84.000  
 Y 23.362 
X 44.000  
 Y 14.000 
X 43.000 Y 13.000 
X 85.000  
 Y 24.362 
X 43.000  
 Y 13.000 
X 42.000 Y 12.000 
X 86.000  
 Y 25.362 
X 42.000  
 Y 12.000 
X 41.000 Y 11.000 
X 87.000  
 Y 26.362 
X 41.000  
 Y 11.000 
X 40.000 Y 10.000 
X 88.000  
 Y 27.362 
X 40.000  
 Y 10.000 
X 39.000 Y 9.000 
X 89.000  
 Y 28.362 
X 39.000  
 Y 9.000 
G0   Z 6.000
G0 X 9.000 Y 66.000 
G1   Z -1.333 F15000.0
G1  Y 32.000  F39000.0
X 9.300  
 Y 66.000 
X 9.000  
X 8.000 Y 67.000 
 Y 31.000 
X 10.300  
 Y 67.000 
X 8.000  
X 7.000 Y 68.000 
 Y 30.000 
X 11.300  
 Y 68.000 
X 7.000  
X 6.000 Y 69.000 
 Y 29.000 
X 12.300  
 Y 69.000 
X 6.000  
X 5.000 Y 70.000 
 Y 28.000 
X 13.300  
 Y 70.000 
X 5.000  
X 4.000 Y 71.000 
 Y 27.000 
X 14.300  
 Y 71.000 
X 4.000  
X 3.000 Y 72.000 
 Y 26.000 
X 15.300  
 Y 72.000 
X 3.000  
X 2.000 Y 73.000 
 Y 25.000 
X 16.300  
 Y 73.000 
X 2.000  
X 1.000 Y 74.000 
 Y 24.000 
X 17.300  
 Y 74.000 
X 1.000  
G0   Z 6.000
G0 X 9.000 Y 66.000 
G1   Z -2.667 F15000.0
G1  Y 32.000  F39000.0
X 9.300  
 Y 66.000 
X 9.000  
X 8.000 Y 67.000 
 Y 31.000 
X 10.300  
 Y 67.000 
X 8.000  
X 7.000 Y 68.000 
 Y 30.000 
X 11.300  
 Y 68.000 
X 7.000  
X 6.000 Y 69.000 
 Y 29.000 
X 12.300  
 Y 69.000 
X 6.000  
X 5.000 Y 70.000 
 Y 28.000 
X 13.300  
 Y 70.000 
X 5.000  
X 4.000 Y 71.000 
 Y 27.000 
X 14.300  
 Y 71.000 
X 4.000  
X 3.000 Y 72.000 
 Y 26.000 
X 15.300  
 Y 72.000 
X 3.000  
X 2.000 Y 73.000 
 Y 25.000 
X 16.300  
 Y 73.000 
X 2.000  
X 1.000 Y 74.000 
 Y 24.000 
X 17.300  
 Y 74.000 
X 1.000  
G0   Z 6.000
G0 X 9.000 Y 66.000 
G1   Z -4.000 F15000.0
G1  Y 32.000  F39000.0
X 9.300  
 Y 66.000 
X 9.000  
X 8.000 Y 67.000 
 Y 31.000 
X 10.300  
 Y 67.000 
X 8.000  
X 7.000 Y 68.000 
 Y 30.000 
X 11.300  
 Y 68.000 
X 7.000  
X 6.000 Y 69.000 
 Y 29.000 
X 12.300  
 Y 69.000 
X 6.000  
X 5.000 Y 70.000 
 Y 28.000 
X 13.300  
 Y 70.000 
X 5.000  
X 4.000 Y 71.000 
 Y 27.000 
X 14.300  
 Y 71.000 
X 4.000  
X 3.000 Y 72.000 
 Y 26.000 
X 15.300  
 Y 72.000 
X 3.000  
X 2.000 Y 73.000 
 Y 25.000 
X 16.300  
 Y 73.000 
X 2.000  
X 1.000 Y 74.000 
 Y 24.000 
X 17.300  
 Y 74.000 
X 1.000  
G0   Z 6.000
G0 X 9.000 Y 170.724 
G1   Z -1.333 F15000.0
G1  Y 136.724  F39000.0
X 9.300  
 Y 170.724 
X 9.000  
X 8.000 Y 171.724 
 Y 135.724 
X 10.300  
 Y 171.724 
X 8.000  
X 7.000 Y 172.724 
 Y 134.724 
X 11.300  
 Y 172.724 
X 7.000  
X 6.000 Y 173.724 
 Y 133.724 
X 12.300  
 Y 173.724 
X 6.000  
X 5.000 Y 174.724 
 Y 132.724 
X 13.300  
 Y 174.724 
X 5.000  
X 4.000 Y 175.724 
 Y 131.724 
X 14.300  
 Y 175.724 
X 4.000  
X 3.000 Y 176.724 
 Y 130.724 
X 15.300  
 Y 176.724 
X 3.000  
X 2.000 Y 177.724 
 Y 129.724 
X 16.300  
 Y 177.724 
X 2.000  
X 1.000 Y 178.724 
 Y 128.724 
X 17.300  
 Y 178.724 
X 1.000  
G0   Z 6.000
G0 X 9.000 Y 170.724 
G1   Z -2.667 F15000.0
G1  Y 136.724  F39000.0
X 9.300  
 Y 170.724 
X 9.000  
X 8.000 Y 171.724 
 Y 135.724 
X 10.300  
 Y 171.724 
X 8.000  
X 7.000 Y 172.724 
 Y 134.724 
X 11.300  
 Y 172.724 
X 7.000  
X 6.000 Y 173.724 
 Y 133.724 
X 12.300  
 Y 173.724 
X 6.000  
X 5.000 Y 174.724 
 Y 132.724 
X 13.300  
 Y 174.724 
X 5.000  
X 4.000 Y 175.724 
 Y 131.724 
X 14.300  
 Y 175.724 
X 4.000  
X 3.000 Y 176.724 
 Y 130.724 
X 15.300  
 Y 176.724 
X 3.000  
X 2.000 Y 177.724 
 Y 129.724 
X 16.300  
 Y 177.724 
X 2.000  
X 1.000 Y 178.724 
 Y 128.724 
X 17.300  
 Y 178.724 
X 1.000  
G0   Z 6.000
G0 X 9.000 Y 170.724 
G1   Z -4.000 F15000.0
G1  Y 136.724  F39000.0
X 9.300  
 Y 170.724 
X 9.000  
X 8.000 Y 171.724 
 Y 135.724 
X 10.300  
 Y 171.724 
X 8.000  
X 7.000 Y 172.724 
 Y 134.724 
X 11.300  
 Y 172.724 
X 7.000  
X 6.000 Y 173.724 
 Y 133.724 
X 12.300  
 Y 173.724 
X 6.000  
X 5.000 Y 174.724 
 Y 132.724 
X 13.300  
 Y 174.724 
X 5.000  
X 4.000 Y 175.724 
 Y 131.724 
X 14.300  
 Y 175.724 
X 4.000  
X 3.000 Y 176.724 
 Y 130.724 
X 15.300  
 Y 176.724 
X 3.000  
X 2.000 Y 177.724 
 Y 129.724 
X 16.300  
 Y 177.724 
X 2.000  
X 1.000 Y 178.724 
 Y 128.724 
X 17.300  
 Y 178.724 
X 1.000  
G0   Z 6.000
G0 X 56.000 Y 176.724 
G1   Z -1.333 F15000.0
G1  Y 175.362  F39000.0
X 88.000  
 Y 176.724 
X 56.000  
X 55.000 Y 177.724 
 Y 174.362 
X 89.000  
 Y 177.724 
X 55.000  
X 54.000 Y 178.724 
 Y 173.362 
X 90.000  
 Y 178.724 
X 54.000  
X 53.000 Y 179.724 
 Y 172.362 
X 91.000  
 Y 179.724 
X 53.000  
X 52.000 Y 180.724 
 Y 171.362 
X 92.000  
 Y 180.724 
X 52.000  
X 51.000 Y 181.724 
 Y 170.362 
X 93.000  
 Y 181.724 
X 51.000  
X 50.000 Y 182.724 
 Y 169.362 
X 94.000  
 Y 182.724 
X 50.000  
X 49.000 Y 183.724 
 Y 168.362 
X 95.000  
 Y 183.724 
X 49.000  
X 48.000 Y 184.724 
 Y 167.362 
X 96.000  
 Y 184.724 
X 48.000  
X 47.000 Y 185.724 
 Y 166.362 
X 97.000  
 Y 185.724 
X 47.000  
G0   Z 6.000
G0 X 56.000 Y 176.724 
G1   Z -2.667 F15000.0
G1  Y 175.362  F39000.0
X 88.000  
 Y 176.724 
X 56.000  
X 55.000 Y 177.724 
 Y 174.362 
X 89.000  
 Y 177.724 
X 55.000  
X 54.000 Y 178.724 
 Y 173.362 
X 90.000  
 Y 178.724 
X 54.000  
X 53.000 Y 179.724 
 Y 172.362 
X 91.000  
 Y 179.724 
X 53.000  
X 52.000 Y 180.724 
 Y 171.362 
X 92.000  
 Y 180.724 
X 52.000  
X 51.000 Y 181.724 
 Y 170.362 
X 93.000  
 Y 181.724 
X 51.000  
X 50.000 Y 182.724 
 Y 169.362 
X 94.000  
 Y 182.724 
X 50.000  
X 49.000 Y 183.724 
 Y 168.362 
X 95.000  
 Y 183.724 
X 49.000  
X 48.000 Y 184.724 
 Y 167.362 
X 96.000  
 Y 184.724 
X 48.000  
X 47.000 Y 185.724 
 Y 166.362 
X 97.000  
 Y 185.724 
X 47.000  
G0   Z 6.000
G0 X 56.000 Y 176.724 
G1   Z -4.000 F15000.0
G1  Y 175.362  F39000.0
X 88.000  
 Y 176.724 
X 56.000  
X 55.000 Y 177.724 
 Y 174.362 
X 89.000  
 Y 177.724 
X 55.000  
X 54.000 Y 178.724 
 Y 173.362 
X 90.000  
 Y 178.724 
X 54.000  
X 53.000 Y 179.724 
 Y 172.362 
X 91.000  
 Y 179.724 
X 53.000  
X 52.000 Y 180.724 
 Y 171.362 
X 92.000  
 Y 180.724 
X 52.000  
X 51.000 Y 181.724 
 Y 170.362 
X 93.000  
 Y 181.724 
X 51.000  
X 50.000 Y 182.724 
 Y 169.362 
X 94.000  
 Y 182.724 
X 50.000  
X 49.000 Y 183.724 
 Y 168.362 
X 95.000  
 Y 183.724 
X 49.000  
X 48.000 Y 184.724 
 Y 167.362 
X 96.000  
 Y 184.724 
X 48.000  
X 47.000 Y 185.724 
 Y 166.362 
X 97.000  
 Y 185.724 
X 47.000  
G0   Z 6.000
G0 X 126.700 Y 162.724 
G1   Z -1.333 F15000.0
G1  Y 128.724  F39000.0
X 127.000  
 Y 162.724 
X 126.700  
X 125.700 Y 163.724 
 Y 127.724 
X 128.000  
 Y 163.724 
X 125.700  
X 124.700 Y 164.724 
 Y 126.724 
X 129.000  
 Y 164.724 
X 124.700  
X 123.700 Y 165.724 
 Y 125.724 
X 130.000  
 Y 165.724 
X 123.700  
X 122.700 Y 166.724 
 Y 124.724 
X 131.000  
 Y 166.724 
X 122.700  
X 121.700 Y 167.724 
 Y 123.724 
X 132.000  
 Y 167.724 
X 121.700  
X 120.700 Y 168.724 
 Y 122.724 
X 133.000  
 Y 168.724 
X 120.700  
X 119.700 Y 169.724 
 Y 121.724 
X 134.000  
 Y 169.724 
X 119.700  
X 118.700 Y 170.724 
 Y 120.724 
X 135.000  
 Y 170.724 
X 118.700  
G0   Z 6.000
G0 X 126.700 Y 162.724 
G1   Z -2.667 F15000.0
G1  Y 128.724  F39000.0
X 127.000  
 Y 162.724 
X 126.700  
X 125.700 Y 163.724 
 Y 127.724 
X 128.000  
 Y 163.724 
X 125.700  
X 124.700 Y 164.724 
 Y 126.724 
X 129.000  
 Y 164.724 
X 124.700  
X 123.700 Y 165.724 
 Y 125.724 
X 130.000  
 Y 165.724 
X 123.700  
X 122.700 Y 166.724 
 Y 124.724 
X 131.000  
 Y 166.724 
X 122.700  
X 121.700 Y 167.724 
 Y 123.724 
X 132.000  
 Y 167.724 
X 121.700  
X 120.700 Y 168.724 
 Y 122.724 
X 133.000  
 Y 168.724 
X 120.700  
X 119.700 Y 169.724 
 Y 121.724 
X 134.000  
 Y 169.724 
X 119.700  
X 118.700 Y 170.724 
 Y 120.724 
X 135.000  
 Y 170.724 
X 118.700  
G0   Z 6.000
G0 X 126.700 Y 162.724 
G1   Z -4.000 F15000.0
G1  Y 128.724  F39000.0
X 127.000  
 Y 162.724 
X 126.700  
X 125.700 Y 163.724 
 Y 127.724 
X 128.000  
 Y 163.724 
X 125.700  
X 124.700 Y 164.724 
 Y 126.724 
X 129.000  
 Y 164.724 
X 124.700  
X 123.700 Y 165.724 
 Y 125.724 
X 130.000  
 Y 165.724 
X 123.700  
X 122.700 Y 166.724 
 Y 124.724 
X 131.000  
 Y 166.724 
X 122.700  
X 121.700 Y 167.724 
 Y 123.724 
X 132.000  
 Y 167.724 
X 121.700  
X 120.700 Y 168.724 
 Y 122.724 
X 133.000  
 Y 168.724 
X 120.700  
X 119.700 Y 169.724 
 Y 121.724 
X 134.000  
 Y 169.724 
X 119.700  
X 118.700 Y 170.724 
 Y 120.724 
X 135.000  
 Y 170.724 
X 118.700  
G0   Z 6.000
G0 X 126.700 Y 24.000 
G1   Z -1.333 F15000.0
G1 X 127.000   F39000.0
 Y 58.000 
X 126.700  
 Y 24.000 
X 125.700 Y 23.000 
X 128.000  
 Y 59.000 
X 125.700  
 Y 23.000 
X 124.700 Y 22.000 
X 129.000  
 Y 60.000 
X 124.700  
 Y 22.000 
X 123.700 Y 21.000 
X 130.000  
 Y 61.000 
X 123.700  
 Y 21.000 
X 122.700 Y 20.000 
X 131.000  
 Y 62.000 
X 122.700  
 Y 20.000 
X 121.700 Y 19.000 
X 132.000  
 Y 63.000 
X 121.700  
 Y 19.000 
X 120.700 Y 18.000 
X 133.000  
 Y 64.000 
X 120.700  
 Y 18.000 
X 119.700 Y 17.000 
X 134.000  
 Y 65.000 
X 119.700  
 Y 17.000 
X 118.700 Y 16.000 
X 135.000  
 Y 66.000 
X 118.700  
 Y 16.000 
G0   Z 6.000
G0 X 126.700 Y 24.000 
G1   Z -2.667 F15000.0
G1 X 127.000   F39000.0
 Y 58.000 
X 126.700  
 Y 24.000 
X 125.700 Y 23.000 
X 128.000  
 Y 59.000 
X 125.700  
 Y 23.000 
X 124.700 Y 22.000 
X 129.000  
 Y 60.000 
X 124.700  
 Y 22.000 
X 123.700 Y 21.000 
X 130.000  
 Y 61.000 
X 123.700  
 Y 21.000 
X 122.700 Y 20.000 
X 131.000  
 Y 62.000 
X 122.700  
 Y 20.000 
X 121.700 Y 19.000 
X 132.000  
 Y 63.000 
X 121.700  
 Y 19.000 
X 120.700 Y 18.000 
X 133.000  
 Y 64.000 
X 120.700  
 Y 18.000 
X 119.700 Y 17.000 
X 134.000  
 Y 65.000 
X 119.700  
 Y 17.000 
X 118.700 Y 16.000 
X 135.000  
 Y 66.000 
X 118.700  
 Y 16.000 
G0   Z 6.000
G0 X 126.700 Y 24.000 
G1   Z -4.000 F15000.0
G1 X 127.000   F39000.0
 Y 58.000 
X 126.700  
 Y 24.000 
X 125.700 Y 23.000 
X 128.000  
 Y 59.000 
X 125.700  
 Y 23.000 
X 124.700 Y 22.000 
X 129.000  
 Y 60.000 
X 124.700  
 Y 22.000 
X 123.700 Y 21.000 
X 130.000  
 Y 61.000 
X 123.700  
 Y 21.000 
X 122.700 Y 20.000 
X 131.000  
 Y 62.000 
X 122.700  
 Y 20.000 
X 121.700 Y 19.000 
X 132.000  
 Y 63.000 
X 121.700  
 Y 19.000 
X 120.700 Y 18.000 
X 133.000  
 Y 64.000 
X 120.700  
 Y 18.000 
X 119.700 Y 17.000 
X 134.000  
 Y 65.000 
X 119.700  
 Y 17.000 
X 118.700 Y 16.000 
X 135.000  
 Y 66.000 
X 118.700  
 Y 16.000 
G0   Z 6.000
G0 X 24.710 Y 46.369 Z 6.000
G1   Z -1.450 F15000.0
G2 X 31.647 Y 39.432 I-1.000 J-7.937 F39000.0
G1 X 104.353   
G2 X 111.290 Y 46.369 I7.937 J-1.000 
G1  Y 148.355  
G2 X 104.353 Y 155.292 I1.000 J7.937 
G1 X 31.647   
G2 X 24.710 Y 148.355 I-7.937 J1.000 
G1  Y 46.369  
G1   Z -2.900 F15000.0
G2 X 31.647 Y 39.432 I-1.000 J-7.937 F39000.0
G1 X 104.353   
G2 X 111.290 Y 46.369 I7.937 J-1.000 
G1  Y 148.355  
G2 X 104.353 Y 155.292 I1.000 J7.937 
G1 X 31.647   
G2 X 24.710 Y 148.355 I-7.937 J1.000 
G1  Y 46.369  
G1   Z -4.350 F15000.0
G2 X 31.647 Y 39.432 I-1.000 J-7.937 F39000.0
G1 X 104.353   
G2 X 111.290 Y 46.369 I7.937 J-1.000 
G1  Y 148.355  
G2 X 104.353 Y 155.292 I1.000 J7.937 
G1 X 31.647   
G2 X 24.710 Y 148.355 I-7.937 J1.000 
G1  Y 46.369  
G1   Z -5.800 F15000.0
G2 X 31.647 Y 39.432 I-1.000 J-7.937 F39000.0
G1 X 104.353   
G2 X 111.290 Y 46.369 I7.937 J-1.000 
G1  Y 148.355  
G2 X 104.353 Y 155.292 I1.000 J7.937 
G1 X 31.647   
G2 X 24.710 Y 148.355 I-7.937 J1.000 
G1  Y 46.369  
G0   Z 6.000
G0 X 2.008 Y -0.129 Z 6.000
G1   Z -1.450 F15000.0
G1 X -1.000 Y 22.935  F39000.0
 Y 179.724 
G2 X -0.981 Y 179.920 I1.000 J0.000 
G1 X 2.019 Y 194.920  
G2 X 3.183 Y 195.707 I0.981 J-0.196 
G1 X 46.092 Y 187.724  
X 97.887  
X 132.777 Y 195.699 
G2 X 133.992 Y 194.853 I0.223 J-0.975 
G1 X 137.000 Y 171.789  
 Y 15.000 
G2 X 136.981 Y 14.804 I-1.000 J0.000 
G1 X 133.981 Y -0.196  
G2 X 132.817 Y -0.983 I-0.981 J0.196 
G1 X 89.908 Y 7.000  
X 38.113  
X 3.223 Y -0.975 
G2 X 2.008 Y -0.129 I-0.223 J0.975 
G1   Z -2.900 F15000.0
G1 X -1.000 Y 22.935  F39000.0
 Y 179.724 
G2 X -0.981 Y 179.920 I1.000 J0.000 
G1 X 2.019 Y 194.920  
G2 X 3.183 Y 195.707 I0.981 J-0.196 
G1 X 46.092 Y 187.724  
X 97.887  
X 132.777 Y 195.699 
G2 X 133.992 Y 194.853 I0.223 J-0.975 
G1 X 137.000 Y 171.789  
 Y 15.000 
G2 X 136.981 Y 14.804 I-1.000 J0.000 
G1 X 133.981 Y -0.196  
G2 X 132.817 Y -0.983 I-0.981 J0.196 
G1 X 89.908 Y 7.000  
X 38.113  
X 3.223 Y -0.975 
G2 X 2.008 Y -0.129 I-0.223 J0.975 
G1   Z -4.350 F15000.0
G1 X -1.000 Y 22.935  F39000.0
 Y 179.724 
G2 X -0.981 Y 179.920 I1.000 J0.000 
G1 X 2.019 Y 194.920  
G2 X 3.183 Y 195.707 I0.981 J-0.196 
G1 X 46.092 Y 187.724  
X 97.887  
X 132.777 Y 195.699 
G2 X 133.992 Y 194.853 I0.223 J-0.975 
G1 X 137.000 Y 171.789  
 Y 15.000 
G2 X 136.981 Y 14.804 I-1.000 J0.000 
G1 X 133.981 Y -0.196  
G2 X 132.817 Y -0.983 I-0.981 J0.196 
G1 X 89.908 Y 7.000  
X 38.113  
X 3.223 Y -0.975 
G2 X 2.008 Y -0.129 I-0.223 J0.975 
G1   Z -5.800 F15000.0
G1 X -1.000 Y 22.935  F39000.0
 Y 179.724 
G2 X -0.981 Y 179.920 I1.000 J0.000 
G1 X 2.019 Y 194.920  
G2 X 3.183 Y 195.707 I0.981 J-0.196 
G1 X 46.092 Y 187.724  
X 97.887  
X 132.777 Y 195.699 
G2 X 133.992 Y 194.853 I0.223 J-0.975 
G1 X 137.000 Y 171.789  
 Y 15.000 
G2 X 136.981 Y 14.804 I-1.000 J0.000 
G1 X 133.981 Y -0.196  
G2 X 132.817 Y -0.983 I-0.981 J0.196 
G1 X 89.908 Y 7.000  
X 38.113  
X 3.223 Y -0.975 
G2 X 2.008 Y -0.129 I-0.223 J0.975 
G0   Z 6.000
G0 Z 20.000
G0 X 0.000 Y 0.000
(END OF PROGRAM)
%
