%
(1001)
(T1 D=2 CR=0 - ZMIN=-5.7 - flat end mill)
N10 G90 G94
N20 G17
N30 G21
N40 M9
N50 G0 Z10
N60 X0 Y0

(2D ??5)
N70 T1 M6
N80 S8000 M3
N90 G54
N110 G0 X24.714 Y62.993
N120 G43 Z10
N130 Z5
N140 G1 Z2.5 F80
N150 Z-1.5
N160 G3 X23.514 I-0.6 J0 F500
N170 X24.714 I0.6 J0
N180 G1 Z-3 F80
N190 G3 X23.514 I-0.6 J0 F500
N200 X24.714 I0.6 J0
N210 G1 Z-4.5 F80
N220 G3 X23.514 I-0.6 J0 F500
N230 X24.714 I0.6 J0
N240 G1 Z-5.7 F80
N250 G3 X23.514 I-0.6 J0 F500
N260 X24.714 I0.6 J0
N270 G0 Z5
N280 X10.681 Y71
N290 G1 Z2.5 F80
N300 Z-1.5
N310 G3 X9.481 I-0.6 J0 F500
N320 X10.681 I0.6 J0
N330 G1 Z-3 F80
N340 G3 X9.481 I-0.6 J0 F500
N350 X10.681 I0.6 J0
N360 G1 Z-4.5 F80
N370 G3 X9.481 I-0.6 J0 F500
N380 X10.681 I0.6 J0
N390 G1 Z-5.7 F80
N400 G3 X9.481 I-0.6 J0 F500
N410 X10.681 I0.6 J0
N420 G0 Z5
N430 X4.681
N440 G1 Z2.5 F80
N450 Z-1.5
N460 G3 X3.481 I-0.6 J0 F500
N470 X4.681 I0.6 J0
N480 G1 Z-3 F80
N490 G3 X3.481 I-0.6 J0 F500
N500 X4.681 I0.6 J0
N510 G1 Z-4.5 F80
N520 G3 X3.481 I-0.6 J0 F500
N530 X4.681 I0.6 J0
N540 G1 Z-5.7 F80
N550 G3 X3.481 I-0.6 J0 F500
N560 X4.681 I0.6 J0
N570 G0 Z5
N580 X4.6 Y44.5
N590 G1 Z2.5 F80
N600 Z-1.5
N610 G3 X3.4 I-0.6 J0 F500
N620 X4.6 I0.6 J0
N630 G1 Z-3 F80
N640 G3 X3.4 I-0.6 J0 F500
N650 X4.6 I0.6 J0
N660 G1 Z-4.5 F80
N670 G3 X3.4 I-0.6 J0 F500
N680 X4.6 I0.6 J0
N690 G1 Z-5.7 F80
N700 G3 X3.4 I-0.6 J0 F500
N710 X4.6 I0.6 J0
N720 G0 Z5
N730 X15.4 Y44.515
N740 G1 Z2.5 F80
N750 Z-1.5
N760 G3 X14.2 Y44.485 I-0.6 J-0.015 F500
N770 X15.4 Y44.515 I0.6 J0.015
N780 G1 Z-3 F80
N790 G3 X14.2 Y44.485 I-0.6 J-0.015 F500
N800 X15.4 Y44.515 I0.6 J0.015
N810 G1 Z-4.5 F80
N820 G3 X14.2 Y44.485 I-0.6 J-0.015 F500
N830 X15.4 Y44.515 I0.6 J0.015
N840 G1 Z-5.7 F80
N850 G3 X14.2 Y44.485 I-0.6 J-0.015 F500
N860 X15.4 Y44.515 I0.6 J0.015
N870 G0 Z5
N880 X23.951 Y40.362
N890 G1 Z2.5 F80
N900 Z-1.5
N910 G3 X23.651 I-0.15 J0 F500
N920 X23.951 I0.15 J0
N930 G1 Z-3 F80
N940 G3 X23.651 I-0.15 J0 F500
N950 X23.951 I0.15 J0
N960 G1 Z-4.5 F80
N970 G3 X23.651 I-0.15 J0 F500
N980 X23.951 I0.15 J0
N990 G1 Z-5.7 F80
N1000 G3 X23.651 I-0.15 J0 F500
N1010 X23.951 I0.15 J0
N1020 G0 Z5
N1030 X15.4 Y27
N1040 G1 Z2.5 F80
N1050 Z-1.5
N1060 G3 X14.2 I-0.6 J0 F500
N1070 X15.4 I0.6 J0
N1080 G1 Z-3 F80
N1090 G3 X14.2 I-0.6 J0 F500
N1100 X15.4 I0.6 J0
N1110 G1 Z-4.5 F80
N1120 G3 X14.2 I-0.6 J0 F500
N1130 X15.4 I0.6 J0
N1140 G1 Z-5.7 F80
N1150 G3 X14.2 I-0.6 J0 F500
N1160 X15.4 I0.6 J0
N1170 G0 Z5
N1180 X4.6
N1190 G1 Z2.5 F80
N1200 Z-1.5
N1210 G3 X3.4 I-0.6 J0 F500
N1220 X4.6 I0.6 J0
N1230 G1 Z-3 F80
N1240 G3 X3.4 I-0.6 J0 F500
N1250 X4.6 I0.6 J0
N1260 G1 Z-4.5 F80
N1270 G3 X3.4 I-0.6 J0 F500
N1280 X4.6 I0.6 J0
N1290 G1 Z-5.7 F80
N1300 G3 X3.4 I-0.6 J0 F500
N1310 X4.6 I0.6 J0
N1320 G0 Z5
N1330 X11.6 Y8
N1340 G1 Z2.5 F80
N1350 Z-1.5
N1360 G3 X10.4 I-0.6 J0 F500
N1370 X11.6 I0.6 J0
N1380 G1 Z-3 F80
N1390 G3 X10.4 I-0.6 J0 F500
N1400 X11.6 I0.6 J0
N1410 G1 Z-4.5 F80
N1420 G3 X10.4 I-0.6 J0 F500
N1430 X11.6 I0.6 J0
N1440 G1 Z-5.7 F80
N1450 G3 X10.4 I-0.6 J0 F500
N1460 X11.6 I0.6 J0
N1470 G0 Z5
N1480 X49.951 Y40.362
N1490 G1 Z2.5 F80
N1500 Z-1.5
N1510 G3 X49.651 I-0.15 J0 F500
N1520 X49.951 I0.15 J0
N1530 G1 Z-3 F80
N1540 G3 X49.651 I-0.15 J0 F500
N1550 X49.951 I0.15 J0
N1560 G1 Z-4.5 F80
N1570 G3 X49.651 I-0.15 J0 F500
N1580 X49.951 I0.15 J0
N1590 G1 Z-5.7 F80
N1600 G3 X49.651 I-0.15 J0 F500
N1610 X49.951 I0.15 J0
N1620 G0 Z5
N1630 X86.349 Y40.366
N1640 G1 Z2.5 F80
N1650 Z-1.5
N1660 G3 X86.049 Y40.358 I-0.15 J-0.004 F500
N1670 X86.349 Y40.366 I0.15 J0.004
N1680 G1 Z-3 F80
N1690 G3 X86.049 Y40.358 I-0.15 J-0.004 F500
N1700 X86.349 Y40.366 I0.15 J0.004
N1710 G1 Z-4.5 F80
N1720 G3 X86.049 Y40.358 I-0.15 J-0.004 F500
N1730 X86.349 Y40.366 I0.15 J0.004
N1740 G1 Z-5.7 F80
N1750 G3 X86.049 Y40.358 I-0.15 J-0.004 F500
N1760 X86.349 Y40.366 I0.15 J0.004
N1770 G0 Z5
N1780 X94.6 Y21.65
N1790 G1 Z2.5 F80
N1800 Z-1.5
N1810 G3 X93.4 I-0.6 J0 F500
N1820 X94.6 I0.6 J0
N1830 G1 Z-3 F80
N1840 G3 X93.4 I-0.6 J0 F500
N1850 X94.6 I0.6 J0
N1860 G1 Z-4.5 F80
N1870 G3 X93.4 I-0.6 J0 F500
N1880 X94.6 I0.6 J0
N1890 G1 Z-5.7 F80
N1900 G3 X93.4 I-0.6 J0 F500
N1910 X94.6 I0.6 J0
N1920 G0 Z5
N1930 Y12.65
N1940 G1 Z2.5 F80
N1950 Z-1.5
N1960 G3 X93.4 I-0.6 J0 F500
N1970 X94.6 I0.6 J0
N1980 G1 Z-3 F80
N1990 G3 X93.4 I-0.6 J0 F500
N2000 X94.6 I0.6 J0
N2010 G1 Z-4.5 F80
N2020 G3 X93.4 I-0.6 J0 F500
N2030 X94.6 I0.6 J0
N2040 G1 Z-5.7 F80
N2050 G3 X93.4 I-0.6 J0 F500
N2060 X94.6 I0.6 J0
N2070 G0 Z5
N2080 X121.8 Y27
N2090 G1 Z2.5 F80
N2100 Z-1.5
N2110 G3 X120.6 I-0.6 J0 F500
N2120 X121.8 I0.6 J0
N2130 G1 Z-3 F80
N2140 G3 X120.6 I-0.6 J0 F500
N2150 X121.8 I0.6 J0
N2160 G1 Z-4.5 F80
N2170 G3 X120.6 I-0.6 J0 F500
N2180 X121.8 I0.6 J0
N2190 G1 Z-5.7 F80
N2200 G3 X120.6 I-0.6 J0 F500
N2210 X121.8 I0.6 J0
N2220 G0 Z5
N2230 X132.6
N2240 G1 Z2.5 F80
N2250 Z-1.5
N2260 G3 X131.4 I-0.6 J0 F500
N2270 X132.6 I0.6 J0
N2280 G1 Z-3 F80
N2290 G3 X131.4 I-0.6 J0 F500
N2300 X132.6 I0.6 J0
N2310 G1 Z-4.5 F80
N2320 G3 X131.4 I-0.6 J0 F500
N2330 X132.6 I0.6 J0
N2340 G1 Z-5.7 F80
N2350 G3 X131.4 I-0.6 J0 F500
N2360 X132.6 I0.6 J0
N2370 G0 Z5
N2380 Y44.5
N2390 G1 Z2.5 F80
N2400 Z-1.5
N2410 G3 X131.4 I-0.6 J0 F500
N2420 X132.6 I0.6 J0
N2430 G1 Z-3 F80
N2440 G3 X131.4 I-0.6 J0 F500
N2450 X132.6 I0.6 J0
N2460 G1 Z-4.5 F80
N2470 G3 X131.4 I-0.6 J0 F500
N2480 X132.6 I0.6 J0
N2490 G1 Z-5.7 F80
N2500 G3 X131.4 I-0.6 J0 F500
N2510 X132.6 I0.6 J0
N2520 G0 Z5
N2530 X121.8 Y44.515
N2540 G1 Z2.5 F80
N2550 Z-1.5
N2560 G3 X120.6 Y44.485 I-0.6 J-0.015 F500
N2570 X121.8 Y44.515 I0.6 J0.015
N2580 G1 Z-3 F80
N2590 G3 X120.6 Y44.485 I-0.6 J-0.015 F500
N2600 X121.8 Y44.515 I0.6 J0.015
N2610 G1 Z-4.5 F80
N2620 G3 X120.6 Y44.485 I-0.6 J-0.015 F500
N2630 X121.8 Y44.515 I0.6 J0.015
N2640 G1 Z-5.7 F80
N2650 G3 X120.6 Y44.485 I-0.6 J-0.015 F500
N2660 X121.8 Y44.515 I0.6 J0.015
N2670 G0 Z5
N2680 X112.349 Y40.362
N2690 G1 Z2.5 F80
N2700 Z-1.5
N2710 G3 X112.049 I-0.15 J0 F500
N2720 X112.349 I0.15 J0
N2730 G1 Z-3 F80
N2740 G3 X112.049 I-0.15 J0 F500
N2750 X112.349 I0.15 J0
N2760 G1 Z-4.5 F80
N2770 G3 X112.049 I-0.15 J0 F500
N2780 X112.349 I0.15 J0
N2790 G1 Z-5.7 F80
N2800 G3 X112.049 I-0.15 J0 F500
N2810 X112.349 I0.15 J0
N2820 G0 Z5
N2830 X113.614 Y62.993
N2840 G1 Z2.5 F80
N2850 Z-1.5
N2860 G3 X112.414 I-0.6 J0 F500
N2870 X113.614 I0.6 J0
N2880 G1 Z-3 F80
N2890 G3 X112.414 I-0.6 J0 F500
N2900 X113.614 I0.6 J0
N2910 G1 Z-4.5 F80
N2920 G3 X112.414 I-0.6 J0 F500
N2930 X113.614 I0.6 J0
N2940 G1 Z-5.7 F80
N2950 G3 X112.414 I-0.6 J0 F500
N2960 X113.614 I0.6 J0
N2970 G0 Z5
N2980 X126.6 Y71.015
N2990 G1 Z2.5 F80
N3000 Z-1.5
N3010 G3 X125.4 Y70.985 I-0.6 J-0.015 F500
N3020 X126.6 Y71.015 I0.6 J0.015
N3030 G1 Z-3 F80
N3040 G3 X125.4 Y70.985 I-0.6 J-0.015 F500
N3050 X126.6 Y71.015 I0.6 J0.015
N3060 G1 Z-4.5 F80
N3070 G3 X125.4 Y70.985 I-0.6 J-0.015 F500
N3080 X126.6 Y71.015 I0.6 J0.015
N3090 G1 Z-5.7 F80
N3100 G3 X125.4 Y70.985 I-0.6 J-0.015 F500
N3110 X126.6 Y71.015 I0.6 J0.015
N3120 G0 Z5
N3130 X132.6 Y71
N3140 G1 Z2.5 F80
N3150 Z-1.5
N3160 G3 X131.4 I-0.6 J0 F500
N3170 X132.6 I0.6 J0
N3180 G1 Z-3 F80
N3190 G3 X131.4 I-0.6 J0 F500
N3200 X132.6 I0.6 J0
N3210 G1 Z-4.5 F80
N3220 G3 X131.4 I-0.6 J0 F500
N3230 X132.6 I0.6 J0
N3240 G1 Z-5.7 F80
N3250 G3 X131.4 I-0.6 J0 F500
N3260 X132.6 I0.6 J0
N3270 G0 Z5
N3280 Y107.626
N3290 G1 Z2.5 F80
N3300 Z-1.5
N3310 G3 X131.4 I-0.6 J0 F500
N3320 X132.6 I0.6 J0
N3330 G1 Z-3 F80
N3340 G3 X131.4 I-0.6 J0 F500
N3350 X132.6 I0.6 J0
N3360 G1 Z-4.5 F80
N3370 G3 X131.4 I-0.6 J0 F500
N3380 X132.6 I0.6 J0
N3390 G1 Z-5.7 F80
N3400 G3 X131.4 I-0.6 J0 F500
N3410 X132.6 I0.6 J0
N3420 G0 Z5
N3430 X126.6
N3440 G1 Z2.5 F80
N3450 Z-1.5
N3460 G3 X125.4 I-0.6 J0 F500
N3470 X126.6 I0.6 J0
N3480 G1 Z-3 F80
N3490 G3 X125.4 I-0.6 J0 F500
N3500 X126.6 I0.6 J0
N3510 G1 Z-4.5 F80
N3520 G3 X125.4 I-0.6 J0 F500
N3530 X126.6 I0.6 J0
N3540 G1 Z-5.7 F80
N3550 G3 X125.4 I-0.6 J0 F500
N3560 X126.6 I0.6 J0
N3570 G0 Z5
N3580 X121.8 Y150.239
N3590 G1 Z2.5 F80
N3600 Z-1.5
N3610 G3 X120.6 Y150.209 I-0.6 J-0.015 F500
N3620 X121.8 Y150.239 I0.6 J0.015
N3630 G1 Z-3 F80
N3640 G3 X120.6 Y150.209 I-0.6 J-0.015 F500
N3650 X121.8 Y150.239 I0.6 J0.015
N3660 G1 Z-4.5 F80
N3670 G3 X120.6 Y150.209 I-0.6 J-0.015 F500
N3680 X121.8 Y150.239 I0.6 J0.015
N3690 G1 Z-5.7 F80
N3700 G3 X120.6 Y150.209 I-0.6 J-0.015 F500
N3710 X121.8 Y150.239 I0.6 J0.015
N3720 G0 Z5
N3730 X113.614 Y153.178
N3740 G1 Z2.5 F80
N3750 Z-1.5
N3760 G3 X112.414 Y153.148 I-0.6 J-0.015 F500
N3770 X113.614 Y153.178 I0.6 J0.015
N3780 G1 Z-3 F80
N3790 G3 X112.414 Y153.148 I-0.6 J-0.015 F500
N3800 X113.614 Y153.178 I0.6 J0.015
N3810 G1 Z-4.5 F80
N3820 G3 X112.414 Y153.148 I-0.6 J-0.015 F500
N3830 X113.614 Y153.178 I0.6 J0.015
N3840 G1 Z-5.7 F80
N3850 G3 X112.414 Y153.148 I-0.6 J-0.015 F500
N3860 X113.614 Y153.178 I0.6 J0.015
N3870 G0 Z5
N3880 X121.8 Y167.724
N3890 G1 Z2.5 F80
N3900 Z-1.5
N3910 G3 X120.6 I-0.6 J0 F500
N3920 X121.8 I0.6 J0
N3930 G1 Z-3 F80
N3940 G3 X120.6 I-0.6 J0 F500
N3950 X121.8 I0.6 J0
N3960 G1 Z-4.5 F80
N3970 G3 X120.6 I-0.6 J0 F500
N3980 X121.8 I0.6 J0
N3990 G1 Z-5.7 F80
N4000 G3 X120.6 I-0.6 J0 F500
N4010 X121.8 I0.6 J0
N4020 G0 Z5
N4030 X132.6
N4040 G1 Z2.5 F80
N4050 Z-1.5
N4060 G3 X131.4 I-0.6 J0 F500
N4070 X132.6 I0.6 J0
N4080 G1 Z-3 F80
N4090 G3 X131.4 I-0.6 J0 F500
N4100 X132.6 I0.6 J0
N4110 G1 Z-4.5 F80
N4120 G3 X131.4 I-0.6 J0 F500
N4130 X132.6 I0.6 J0
N4140 G1 Z-5.7 F80
N4150 G3 X131.4 I-0.6 J0 F500
N4160 X132.6 I0.6 J0
N4170 G0 Z5
N4180 Y150.224
N4190 G1 Z2.5 F80
N4200 Z-1.5
N4210 G3 X131.4 I-0.6 J0 F500
N4220 X132.6 I0.6 J0
N4230 G1 Z-3 F80
N4240 G3 X131.4 I-0.6 J0 F500
N4250 X132.6 I0.6 J0
N4260 G1 Z-4.5 F80
N4270 G3 X131.4 I-0.6 J0 F500
N4280 X132.6 I0.6 J0
N4290 G1 Z-5.7 F80
N4300 G3 X131.4 I-0.6 J0 F500
N4310 X132.6 I0.6 J0
N4320 G0 Z5
N4330 X125.6 Y186.724
N4340 G1 Z2.5 F80
N4350 Z-1.5
N4360 G3 X124.4 I-0.6 J0 F500
N4370 X125.6 I0.6 J0
N4380 G1 Z-3 F80
N4390 G3 X124.4 I-0.6 J0 F500
N4400 X125.6 I0.6 J0
N4410 G1 Z-4.5 F80
N4420 G3 X124.4 I-0.6 J0 F500
N4430 X125.6 I0.6 J0
N4440 G1 Z-5.7 F80
N4450 G3 X124.4 I-0.6 J0 F500
N4460 X125.6 I0.6 J0
N4470 G0 Z5
N4480 X86.913 Y182.724
N4490 G1 Z2.5 F80
N4500 Z-1.5
N4510 G3 X85.713 I-0.6 J0 F500
N4520 X86.913 I0.6 J0
N4530 G1 Z-3 F80
N4540 G3 X85.713 I-0.6 J0 F500
N4550 X86.913 I0.6 J0
N4560 G1 Z-4.5 F80
N4570 G3 X85.713 I-0.6 J0 F500
N4580 X86.913 I0.6 J0
N4590 G1 Z-5.7 F80
N4600 G3 X85.713 I-0.6 J0 F500
N4610 X86.913 I0.6 J0
N4620 G0 Z5
N4630 Y176.724
N4640 G1 Z2.5 F80
N4650 Z-1.5
N4660 G3 X85.713 I-0.6 J0 F500
N4670 X86.913 I0.6 J0
N4680 G1 Z-3 F80
N4690 G3 X85.713 I-0.6 J0 F500
N4700 X86.913 I0.6 J0
N4710 G1 Z-4.5 F80
N4720 G3 X85.713 I-0.6 J0 F500
N4730 X86.913 I0.6 J0
N4740 G1 Z-5.7 F80
N4750 G3 X85.713 I-0.6 J0 F500
N4760 X86.913 I0.6 J0
N4770 G0 Z5
N4780 X50.287
N4790 G1 Z2.5 F80
N4800 Z-1.5
N4810 G3 X49.087 I-0.6 J0 F500
N4820 X50.287 I0.6 J0
N4830 G1 Z-3 F80
N4840 G3 X49.087 I-0.6 J0 F500
N4850 X50.287 I0.6 J0
N4860 G1 Z-4.5 F80
N4870 G3 X49.087 I-0.6 J0 F500
N4880 X50.287 I0.6 J0
N4890 G1 Z-5.7 F80
N4900 G3 X49.087 I-0.6 J0 F500
N4910 X50.287 I0.6 J0
N4920 G0 Z5
N4930 Y182.724
N4940 G1 Z2.5 F80
N4950 Z-1.5
N4960 G3 X49.087 I-0.6 J0 F500
N4970 X50.287 I0.6 J0
N4980 G1 Z-3 F80
N4990 G3 X49.087 I-0.6 J0 F500
N5000 X50.287 I0.6 J0
N5010 G1 Z-4.5 F80
N5020 G3 X49.087 I-0.6 J0 F500
N5030 X50.287 I0.6 J0
N5040 G1 Z-5.7 F80
N5050 G3 X49.087 I-0.6 J0 F500
N5060 X50.287 I0.6 J0
N5070 G0 Z5
N5080 X15.4 Y167.724
N5090 G1 Z2.5 F80
N5100 Z-1.5
N5110 G3 X14.2 I-0.6 J0 F500
N5120 X15.4 I0.6 J0
N5130 G1 Z-3 F80
N5140 G3 X14.2 I-0.6 J0 F500
N5150 X15.4 I0.6 J0
N5160 G1 Z-4.5 F80
N5170 G3 X14.2 I-0.6 J0 F500
N5180 X15.4 I0.6 J0
N5190 G1 Z-5.7 F80
N5200 G3 X14.2 I-0.6 J0 F500
N5210 X15.4 I0.6 J0
N5220 G0 Z5
N5230 X4.6
N5240 G1 Z2.5 F80
N5250 Z-1.5
N5260 G3 X3.4 I-0.6 J0 F500
N5270 X4.6 I0.6 J0
N5280 G1 Z-3 F80
N5290 G3 X3.4 I-0.6 J0 F500
N5300 X4.6 I0.6 J0
N5310 G1 Z-4.5 F80
N5320 G3 X3.4 I-0.6 J0 F500
N5330 X4.6 I0.6 J0
N5340 G1 Z-5.7 F80
N5350 G3 X3.4 I-0.6 J0 F500
N5360 X4.6 I0.6 J0
N5370 G0 Z5
N5380 Y150.239
N5390 G1 Z2.5 F80
N5400 Z-1.5
N5410 G3 X3.4 Y150.209 I-0.6 J-0.015 F500
N5420 X4.6 Y150.239 I0.6 J0.015
N5430 G1 Z-3 F80
N5440 G3 X3.4 Y150.209 I-0.6 J-0.015 F500
N5450 X4.6 Y150.239 I0.6 J0.015
N5460 G1 Z-4.5 F80
N5470 G3 X3.4 Y150.209 I-0.6 J-0.015 F500
N5480 X4.6 Y150.239 I0.6 J0.015
N5490 G1 Z-5.7 F80
N5500 G3 X3.4 Y150.209 I-0.6 J-0.015 F500
N5510 X4.6 Y150.239 I0.6 J0.015
N5520 G0 Z5
N5530 X15.4
N5540 G1 Z2.5 F80
N5550 Z-1.5
N5560 G3 X14.2 Y150.209 I-0.6 J-0.015 F500
N5570 X15.4 Y150.239 I0.6 J0.015
N5580 G1 Z-3 F80
N5590 G3 X14.2 Y150.209 I-0.6 J-0.015 F500
N5600 X15.4 Y150.239 I0.6 J0.015
N5610 G1 Z-4.5 F80
N5620 G3 X14.2 Y150.209 I-0.6 J-0.015 F500
N5630 X15.4 Y150.239 I0.6 J0.015
N5640 G1 Z-5.7 F80
N5650 G3 X14.2 Y150.209 I-0.6 J-0.015 F500
N5660 X15.4 Y150.239 I0.6 J0.015
N5670 G0 Z5
N5680 X24.714 Y153.178
N5690 G1 Z2.5 F80
N5700 Z-1.5
N5710 G3 X23.514 Y153.148 I-0.6 J-0.015 F500
N5720 X24.714 Y153.178 I0.6 J0.015
N5730 G1 Z-3 F80
N5740 G3 X23.514 Y153.148 I-0.6 J-0.015 F500
N5750 X24.714 Y153.178 I0.6 J0.015
N5760 G1 Z-4.5 F80
N5770 G3 X23.514 Y153.148 I-0.6 J-0.015 F500
N5780 X24.714 Y153.178 I0.6 J0.015
N5790 G1 Z-5.7 F80
N5800 G3 X23.514 Y153.148 I-0.6 J-0.015 F500
N5810 X24.714 Y153.178 I0.6 J0.015
N5820 G0 Z5
N5830 X11.6 Y186.724
N5840 G1 Z2.5 F80
N5850 Z-1.5
N5860 G3 X10.4 I-0.6 J0 F500
N5870 X11.6 I0.6 J0
N5880 G1 Z-3 F80
N5890 G3 X10.4 I-0.6 J0 F500
N5900 X11.6 I0.6 J0
N5910 G1 Z-4.5 F80
N5920 G3 X10.4 I-0.6 J0 F500
N5930 X11.6 I0.6 J0
N5940 G1 Z-5.7 F80
N5950 G3 X10.4 I-0.6 J0 F500
N5960 X11.6 I0.6 J0
N5970 G0 Z5
N5980 X10.681 Y107.626
N5990 G1 Z2.5 F80
N6000 Z-1.5
N6010 G3 X9.481 I-0.6 J0 F500
N6020 X10.681 I0.6 J0
N6030 G1 Z-3 F80
N6040 G3 X9.481 I-0.6 J0 F500
N6050 X10.681 I0.6 J0
N6060 G1 Z-4.5 F80
N6070 G3 X9.481 I-0.6 J0 F500
N6080 X10.681 I0.6 J0
N6090 G1 Z-5.7 F80
N6100 G3 X9.481 I-0.6 J0 F500
N6110 X10.681 I0.6 J0
N6120 G0 Z5
N6130 X4.681 Y107.641
N6140 G1 Z2.5 F80
N6150 Z-1.5
N6160 G3 X3.481 Y107.611 I-0.6 J-0.015 F500
N6170 X4.681 Y107.641 I0.6 J0.015
N6180 G1 Z-3 F80
N6190 G3 X3.481 Y107.611 I-0.6 J-0.015 F500
N6200 X4.681 Y107.641 I0.6 J0.015
N6210 G1 Z-4.5 F80
N6220 G3 X3.481 Y107.611 I-0.6 J-0.015 F500
N6230 X4.681 Y107.641 I0.6 J0.015
N6240 G1 Z-5.7 F80
N6250 G3 X3.481 Y107.611 I-0.6 J-0.015 F500
N6260 X4.681 Y107.641 I0.6 J0.015
N6270 G0 Z5
N6280 X125.6 Y8
N6290 G1 Z2.5 F80
N6300 Z-1.5
N6310 G3 X124.4 I-0.6 J0 F500
N6320 X125.6 I0.6 J0
N6330 G1 Z-3 F80
N6340 G3 X124.4 I-0.6 J0 F500
N6350 X125.6 I0.6 J0
N6360 G1 Z-4.5 F80
N6370 G3 X124.4 I-0.6 J0 F500
N6380 X125.6 I0.6 J0
N6390 G1 Z-5.7 F80
N6400 G3 X124.4 I-0.6 J0 F500
N6410 X125.6 I0.6 J0
N6420 G0 Z10

(2D ????3)
N6440 X136.905 Y159.778
N6450 Z10
N6460 Z5
N6470 G1 Z2.5 F500
N6480 Z-1.5
N6490 X136.889
N6500 X129.961
N6510 G3 X129.646 Y159.463 I0 J-0.315
N6520 G1 Y158.489
N6530 G3 X129.965 Y158.17 I0.319 J0
N6540 G1 X136.899
N6550 G3 X137.099 Y158.371 I0 J0.2
N6560 G1 X137.087 Y161.143
N6570 G3 X136.887 Y161.342 I-0.2 J-0.001
N6580 G1 X128.397
N6590 G3 X128.082 Y161.027 I0 J-0.315
N6600 G1 Y156.925
N6610 G3 X128.401 Y156.606 I0.319 J0
N6620 G1 X136.887
N6630 G3 X137.087 Y156.805 I0 J0.2
N6640 G1 X137.099 Y162.706
N6650 G3 X136.899 Y162.907 I-0.2 J0
N6660 G1 X126.833
N6670 G3 X126.517 Y162.591 I0 J-0.315
N6680 G1 Y155.36
N6690 G3 X126.836 Y155.041 I0.319 J0
N6700 G1 X136.889
N6710 G3 X137.089 Y155.241 I0 J0.2
N6720 G1 X137.097 Y164.271
N6730 G3 X136.897 Y164.471 I-0.2 J0
N6740 G1 X125.268
N6750 G3 X124.953 Y164.156 I0 J-0.315
N6760 G1 Y153.796
N6770 G3 X125.272 Y153.477 I0.319 J0
N6780 G1 X136.891
N6790 G3 X137.091 Y153.677 I0 J0.2
N6800 G1 X137.095 Y165.836
N6810 G3 X136.895 Y166.036 I-0.2 J0
N6820 G1 X123.704
N6830 G3 X123.388 Y165.72 I0 J-0.315
N6840 G1 Y152.232
N6850 G3 X123.708 Y151.912 I0.319 J0
N6860 G1 X136.893
N6870 G3 X137.093 Y152.112 I0 J0.2
N6880 G1 Y167.4
N6890 G3 X136.893 Y167.6 I-0.2 J0
N6900 G1 X132.67
N6910 X131.335
N6920 X122.139
N6930 G3 X121.824 Y167.285 I0 J-0.315
N6940 G1 Y150.667
N6950 G3 X122.143 Y150.348 I0.319 J0
N6960 G1 X131.338
N6970 X132.673
N6980 X136.895
N6990 G3 X137.095 Y150.548 I0 J0.2
N7000 G1 X137.091 Y168.965
N7010 G3 X136.891 Y169.165 I-0.2 J0
N7020 G1 X120.575
N7030 G3 X120.259 Y168.849 I0 J-0.315
N7040 G1 Y149.103
N7050 G3 X120.579 Y148.783 I0.319 J0
N7060 G1 X136.897
N7070 G3 X137.097 Y148.983 I0 J0.2
N7080 G1 X137.1 Y170.534
N7090 G3 X136.9 Y170.734 I-0.2 J0
N7100 G1 X118.75
N7110 G2 X118.688 Y170.736 I0 J0.99
N7120 X118.69 Y170.674 I-0.988 J-0.062
N7130 G1 Y147.274
N7140 G2 X118.688 Y147.212 I-0.99 J0
N7150 X118.75 Y147.214 I0.062 J-0.988
N7160 G1 X136
N7170 X136.899
N7180 G3 X137.099 Y147.414 I0 J0.2
N7190 G1 X137.105 Y159.578
N7200 G3 X136.905 Y159.778 I-0.2 J0
N7210 G1 Z-3.01
N7220 X136.889
N7230 X129.961
N7240 G3 X129.646 Y159.463 I0 J-0.315
N7250 G1 Y158.489
N7260 G3 X129.965 Y158.17 I0.319 J0
N7270 G1 X136.899
N7280 G3 X137.099 Y158.371 I0 J0.2
N7290 G1 X137.087 Y161.143
N7300 G3 X136.887 Y161.342 I-0.2 J-0.001
N7310 G1 X128.397
N7320 G3 X128.082 Y161.027 I0 J-0.315
N7330 G1 Y156.925
N7340 G3 X128.401 Y156.606 I0.319 J0
N7350 G1 X136.887
N7360 G3 X137.087 Y156.805 I0 J0.2
N7370 G1 X137.099 Y162.706
N7380 G3 X136.899 Y162.907 I-0.2 J0
N7390 G1 X126.833
N7400 G3 X126.517 Y162.591 I0 J-0.315
N7410 G1 Y155.36
N7420 G3 X126.836 Y155.041 I0.319 J0
N7430 G1 X136.889
N7440 G3 X137.089 Y155.241 I0 J0.2
N7450 G1 X137.097 Y164.271
N7460 G3 X136.897 Y164.471 I-0.2 J0
N7470 G1 X125.268
N7480 G3 X124.953 Y164.156 I0 J-0.315
N7490 G1 Y153.796
N7500 G3 X125.272 Y153.477 I0.319 J0
N7510 G1 X136.891
N7520 G3 X137.091 Y153.677 I0 J0.2
N7530 G1 X137.095 Y165.836
N7540 G3 X136.895 Y166.036 I-0.2 J0
N7550 G1 X123.704
N7560 G3 X123.388 Y165.72 I0 J-0.315
N7570 G1 Y152.232
N7580 G3 X123.708 Y151.912 I0.319 J0
N7590 G1 X136.893
N7600 G3 X137.093 Y152.112 I0 J0.2
N7610 G1 Y167.4
N7620 G3 X136.893 Y167.6 I-0.2 J0
N7630 G1 X132.67
N7640 X131.335
N7650 X122.139
N7660 G3 X121.824 Y167.285 I0 J-0.315
N7670 G1 Y150.667
N7680 G3 X122.143 Y150.348 I0.319 J0
N7690 G1 X131.338
N7700 X132.673
N7710 X136.895
N7720 G3 X137.095 Y150.548 I0 J0.2
N7730 G1 X137.091 Y168.965
N7740 G3 X136.891 Y169.165 I-0.2 J0
N7750 G1 X120.575
N7760 G3 X120.259 Y168.849 I0 J-0.315
N7770 G1 Y149.103
N7780 G3 X120.579 Y148.783 I0.319 J0
N7790 G1 X136.897
N7800 G3 X137.097 Y148.983 I0 J0.2
N7810 G1 X137.1 Y170.534
N7820 G3 X136.9 Y170.734 I-0.2 J0
N7830 G1 X118.75
N7840 G2 X118.688 Y170.736 I0 J0.99
N7850 X118.69 Y170.674 I-0.988 J-0.062
N7860 G1 Y147.274
N7870 G2 X118.688 Y147.212 I-0.99 J0
N7880 X118.75 Y147.214 I0.062 J-0.988
N7890 G1 X136
N7900 X136.899
N7910 G0 Z5
N7920 X117.742 Y146.182
N7930 G1 Z2.5 F80
N7940 Z-1.5
N7950 G3 X117.76 Y146.224 I-0.042 J0.042 F500
N7960 G2 X117.762 Y146.286 I0.99 J0
N7970 X117.7 Y146.284 I-0.062 J0.988
N7980 G3 X117.658 Y146.182 I0 J-0.06
N7990 X117.742 I0.042 J0.042
N8000 G1 Z-3.01 F80
N8010 G3 X117.76 Y146.224 I-0.042 J0.042 F500
N8020 G2 X117.762 Y146.286 I0.99 J0
N8030 X117.7 Y146.284 I-0.062 J0.988
N8040 G3 X117.658 Y146.182 I0 J-0.06
N8050 X117.742 I0.042 J0.042
N8060 G0 Z5
N8070 X117.658 Y171.766
N8080 G1 Z2.5 F80
N8090 Z-1.5
N8100 G3 X117.7 Y171.664 I0.042 J-0.042 F500
N8110 G2 X117.762 Y171.662 I0 J-0.99
N8120 X117.76 Y171.724 I0.988 J0.062
N8130 G3 X117.658 Y171.766 I-0.06 J0
N8140 G1 Z-3.01 F80
N8150 G3 X117.7 Y171.664 I0.042 J-0.042 F500
N8160 G2 X117.762 Y171.662 I0 J-0.99
N8170 X117.76 Y171.724 I0.988 J0.062
N8180 G3 X117.658 Y171.766 I-0.06 J0
N8190 G0 Z10
N8200 X63.391 Y187.631
N8210 Z5
N8220 G1 Z2.5 F500
N8230 Z-1.5
N8240 Y187.624
N8250 Y186.947
N8260 G3 X63.71 Y186.628 I0.319 J0
N8270 G1 X72.29
N8280 G3 X72.609 Y186.947 I0 J0.319
N8290 G1 Y187.615
N8300 G3 X72.409 Y187.815 I-0.2 J0
N8310 G1 X62.026 Y187.822
N8320 G3 X61.826 Y187.622 I0 J-0.2
N8330 G1 Y185.383
N8340 G3 X62.146 Y185.063 I0.319 J0
N8350 G1 X73.854
N8360 G3 X74.174 Y185.383 I0 J0.319
N8370 G1 Y187.617
N8380 G3 X73.974 Y187.817 I-0.2 J0
N8390 G1 X60.462 Y187.819
N8400 G3 X60.262 Y187.619 I0 J-0.2
N8410 G1 Y183.818
N8420 G3 X60.581 Y183.499 I0.319 J0
N8430 G1 X75.419
N8440 G3 X75.738 Y183.818 I0 J0.319
N8450 G1 Y187.619
N8460 G3 X75.538 Y187.819 I-0.2 J0
N8470 G1 X58.897 Y187.817
N8480 G3 X58.697 Y187.617 I0 J-0.2
N8490 G1 Y182.254
N8500 G3 X59.017 Y181.934 I0.319 J0
N8510 G1 X76.983
N8520 G3 X77.303 Y182.254 I0 J0.319
N8530 G1 Y187.621
N8540 G3 X77.103 Y187.821 I-0.2 J0
N8550 G1 X57.333 Y187.815
N8560 G3 X57.133 Y187.615 I0 J-0.2
N8570 G1 Y180.689
N8580 G3 X57.452 Y180.37 I0.319 J0
N8590 G1 X78.548
N8600 G3 X78.867 Y180.689 I0 J0.319
N8610 G1 Y187.623
N8620 G3 X78.667 Y187.823 I-0.2 J0
N8630 G1 X55.768 Y187.813
N8640 G3 X55.569 Y187.613 I0 J-0.2
N8650 G1 Y179.125
N8660 G3 X55.888 Y178.806 I0.319 J0
N8670 G1 X80.112
N8680 G3 X80.431 Y179.125 I0 J0.319
N8690 G1 Y187.611
N8700 G3 X80.231 Y187.811 I-0.2 J0
N8710 G1 X54.204
N8720 G3 X54.004 Y187.611 I0 J-0.2
N8730 G1 Y177.561
N8740 G3 X54.323 Y177.241 I0.319 J0
N8750 G1 X81.677
N8760 G3 X81.996 Y177.561 I0 J0.319
N8770 G1 Y187.613
N8780 G3 X81.796 Y187.813 I-0.2 J0
N8790 G1 X52.64 Y187.823
N8800 G3 X52.44 Y187.623 I0 J-0.2
N8810 G1 Y175.996
N8820 G3 X52.759 Y175.677 I0.319 J0
N8830 G1 X83.241
N8840 G3 X83.56 Y175.996 I0 J0.319
N8850 G1 Y187.615
N8860 G3 X83.36 Y187.815 I-0.2 J0
N8870 G1 X51.075 Y187.821
N8880 G3 X50.875 Y187.621 I0 J-0.2
N8890 G1 Y174.432
N8900 G3 X51.195 Y174.112 I0.319 J0
N8910 G1 X84.805
N8920 G3 X85.125 Y174.432 I0 J0.319
N8930 G1 Y187.617
N8940 G2 X85.524 Y187.632 I0.2 J0
N8950 G1 X86.29 Y177.266
N8960 G3 X86.689 Y177.281 I0.199 J0.015
N8970 G1 Y182.171
N8980 Y183.274
N8990 Y187.619
N9000 G3 X86.489 Y187.819 I-0.2 J0
N9010 G1 X49.511
N9020 G3 X49.311 Y187.619 I0 J-0.2
N9030 G1 Y183.273
N9040 Y182.17
N9050 Y177.28
N9060 Y176.177
N9070 Y172.867
N9080 G3 X49.63 Y172.548 I0.319 J0
N9090 G1 X86.37
N9100 G3 X86.689 Y172.867 I0 J0.319
N9110 G1 Y176.177
N9120 Y176.185
N9130 Z2.5
N9140 X47.746 Y187.625
N9150 Z-1.5
N9160 Y187.617
N9170 Y171.303
N9180 G3 X48.066 Y170.983 I0.319 J0
N9190 G1 X87.934
N9200 G3 X88.254 Y171.303 I0 J0.319
N9210 G1 Y187.621
N9220 G3 X88.054 Y187.821 I-0.2 J0
N9230 G1 X46.377 Y187.812
N9240 G3 X46.177 Y187.612 I0 J-0.2
N9250 G1 Y169.474
N9260 G2 X46.175 Y169.412 I-0.99 J0
N9270 X46.237 Y169.414 I0.062 J-0.988
N9280 G1 X89.763
N9290 G2 X89.825 Y169.412 I0 J-0.99
N9300 X89.823 Y169.474 I0.988 J0.062
N9310 G1 Y186.724
N9320 Y187.623
N9330 G3 X89.623 Y187.823 I-0.2 J0
N9340 G1 X63.591 Y187.831
N9350 G3 X63.391 Y187.631 I0 J-0.2
N9360 G1 Z-3.01
N9370 Y187.624
N9380 Y186.947
N9390 G3 X63.71 Y186.628 I0.319 J0
N9400 G1 X72.29
N9410 G3 X72.609 Y186.947 I0 J0.319
N9420 G1 Y187.615
N9430 G3 X72.409 Y187.815 I-0.2 J0
N9440 G1 X62.026 Y187.822
N9450 G3 X61.826 Y187.622 I0 J-0.2
N9460 G1 Y185.383
N9470 G3 X62.146 Y185.063 I0.319 J0
N9480 G1 X73.854
N9490 G3 X74.174 Y185.383 I0 J0.319
N9500 G1 Y187.617
N9510 G3 X73.974 Y187.817 I-0.2 J0
N9520 G1 X60.462 Y187.819
N9530 G3 X60.262 Y187.619 I0 J-0.2
N9540 G1 Y183.818
N9550 G3 X60.581 Y183.499 I0.319 J0
N9560 G1 X75.419
N9570 G3 X75.738 Y183.818 I0 J0.319
N9580 G1 Y187.619
N9590 G3 X75.538 Y187.819 I-0.2 J0
N9600 G1 X58.897 Y187.817
N9610 G3 X58.697 Y187.617 I0 J-0.2
N9620 G1 Y182.254
N9630 G3 X59.017 Y181.934 I0.319 J0
N9640 G1 X76.983
N9650 G3 X77.303 Y182.254 I0 J0.319
N9660 G1 Y187.621
N9670 G3 X77.103 Y187.821 I-0.2 J0
N9680 G1 X57.333 Y187.815
N9690 G3 X57.133 Y187.615 I0 J-0.2
N9700 G1 Y180.689
N9710 G3 X57.452 Y180.37 I0.319 J0
N9720 G1 X78.548
N9730 G3 X78.867 Y180.689 I0 J0.319
N9740 G1 Y187.623
N9750 G3 X78.667 Y187.823 I-0.2 J0
N9760 G1 X55.768 Y187.813
N9770 G3 X55.569 Y187.613 I0 J-0.2
N9780 G1 Y179.125
N9790 G3 X55.888 Y178.806 I0.319 J0
N9800 G1 X80.112
N9810 G3 X80.431 Y179.125 I0 J0.319
N9820 G1 Y187.611
N9830 G3 X80.231 Y187.811 I-0.2 J0
N9840 G1 X54.204
N9850 G3 X54.004 Y187.611 I0 J-0.2
N9860 G1 Y177.561
N9870 G3 X54.323 Y177.241 I0.319 J0
N9880 G1 X81.677
N9890 G3 X81.996 Y177.561 I0 J0.319
N9900 G1 Y187.613
N9910 G3 X81.796 Y187.813 I-0.2 J0
N9920 G1 X52.64 Y187.823
N9930 G3 X52.44 Y187.623 I0 J-0.2
N9940 G1 Y175.996
N9950 G3 X52.759 Y175.677 I0.319 J0
N9960 G1 X83.241
N9970 G3 X83.56 Y175.996 I0 J0.319
N9980 G1 Y187.615
N9990 G3 X83.36 Y187.815 I-0.2 J0
N10000 G1 X51.075 Y187.821
N10010 G3 X50.875 Y187.621 I0 J-0.2
N10020 G1 Y174.432
N10030 G3 X51.195 Y174.112 I0.319 J0
N10040 G1 X84.805
N10050 G3 X85.125 Y174.432 I0 J0.319
N10060 G1 Y187.617
N10070 G2 X85.524 Y187.632 I0.2 J0
N10080 G1 X86.29 Y177.266
N10090 G3 X86.689 Y177.281 I0.199 J0.015
N10100 G1 Y182.171
N10110 Y183.274
N10120 Y187.619
N10130 G3 X86.489 Y187.819 I-0.2 J0
N10140 G1 X49.511
N10150 G3 X49.311 Y187.619 I0 J-0.2
N10160 G1 Y183.273
N10170 Y182.17
N10180 Y177.28
N10190 Y176.177
N10200 Y172.867
N10210 G3 X49.63 Y172.548 I0.319 J0
N10220 G1 X86.37
N10230 G3 X86.689 Y172.867 I0 J0.319
N10240 G1 Y176.177
N10250 Y176.185
N10260 Z1
N10270 X47.746 Y187.625
N10280 Z-3.01
N10290 Y187.617
N10300 Y171.303
N10310 G3 X48.066 Y170.983 I0.319 J0
N10320 G1 X87.934
N10330 G3 X88.254 Y171.303 I0 J0.319
N10340 G1 Y187.621
N10350 G3 X88.054 Y187.821 I-0.2 J0
N10360 G1 X46.377 Y187.812
N10370 G3 X46.177 Y187.612 I0 J-0.2
N10380 G1 Y169.474
N10390 G2 X46.175 Y169.412 I-0.99 J0
N10400 X46.237 Y169.414 I0.062 J-0.988
N10410 G1 X89.763
N10420 G2 X89.825 Y169.412 I0 J-0.99
N10430 X89.823 Y169.474 I0.988 J0.062
N10440 G1 Y186.724
N10450 Y187.623
N10460 G0 Z5
N10470 X90.855 Y168.382
N10480 G1 Z2.5 F80
N10490 Z-1.5
N10500 G3 X90.813 Y168.484 I-0.042 J0.042 F500
N10510 G2 X90.751 Y168.486 I0 J0.99
N10520 X90.753 Y168.424 I-0.988 J-0.062
N10530 G3 X90.855 Y168.382 I0.06 J0
N10540 G1 Z-3.01 F80
N10550 G3 X90.813 Y168.484 I-0.042 J0.042 F500
N10560 G2 X90.751 Y168.486 I0 J0.99
N10570 X90.753 Y168.424 I-0.988 J-0.062
N10580 G3 X90.855 Y168.382 I0.06 J0
N10590 G0 Z5
N10600 X45.229 Y168.381
N10610 G1 Z2.5 F80
N10620 Z-1.5
N10630 G3 X45.247 Y168.424 I-0.042 J0.043 F500
N10640 G2 X45.249 Y168.486 I0.99 J0
N10650 X45.187 Y168.484 I-0.062 J0.988
N10660 G3 X45.144 Y168.381 I0 J-0.06
N10670 X45.229 I0.042 J0.043
N10680 G1 Z-3.01 F80
N10690 G3 X45.247 Y168.424 I-0.042 J0.043 F500
N10700 G2 X45.249 Y168.486 I0.99 J0
N10710 X45.187 Y168.484 I-0.062 J0.988
N10720 G3 X45.144 Y168.381 I0 J-0.06
N10730 X45.229 I0.042 J0.043
N10740 G0 Z10
N10750 X-0.905 Y158.17
N10760 Z5
N10770 G1 Z2.5 F500
N10780 Z-1.5
N10790 X-0.89
N10800 X6.035
N10810 G3 X6.354 Y158.489 I0 J0.319
N10820 G1 Y159.459
N10830 G3 X6.035 Y159.778 I-0.319 J0
N10840 G1 X-0.899
N10850 G3 X-1.099 Y159.577 I0 J-0.2
N10860 G1 X-1.087 Y156.805
N10870 G3 X-0.887 Y156.606 I0.2 J0.001
N10880 G1 X7.599
N10890 G3 X7.918 Y156.925 I0 J0.319
N10900 G1 Y161.023
N10910 G3 X7.599 Y161.342 I-0.319 J0
N10920 G1 X-0.887
N10930 G3 X-1.087 Y161.143 I0 J-0.2
N10940 G1 X-1.099 Y155.242
N10950 G3 X-0.899 Y155.041 I0.2 J0
N10960 G1 X9.164
N10970 G3 X9.483 Y155.36 I0 J0.319
N10980 G1 Y162.588
N10990 G3 X9.164 Y162.907 I-0.319 J0
N11000 G1 X-0.889
N11010 G3 X-1.089 Y162.707 I0 J-0.2
N11020 G1 X-1.097 Y153.677
N11030 G3 X-0.897 Y153.477 I0.2 J0
N11040 G1 X10.728
N11050 G3 X11.047 Y153.796 I0 J0.319
N11060 G1 Y164.152
N11070 G3 X10.728 Y164.471 I-0.319 J0
N11080 G1 X-0.891
N11090 G3 X-1.091 Y164.271 I0 J-0.2
N11100 G1 X-1.095 Y152.112
N11110 G3 X-0.895 Y151.912 I0.2 J0
N11120 G1 X12.292
N11130 G3 X12.612 Y152.232 I0 J0.319
N11140 G1 Y165.716
N11150 G3 X12.292 Y166.036 I-0.319 J0
N11160 G1 X-0.893
N11170 G3 X-1.093 Y165.836 I0 J-0.2
N11180 G1 Y150.548
N11190 G3 X-0.893 Y150.348 I0.2 J0
N11200 G1 X3.33
N11210 X4.665
N11220 X13.857
N11230 G3 X14.176 Y150.667 I0 J0.319
N11240 G1 Y167.281
N11250 G3 X13.857 Y167.6 I-0.319 J0
N11260 G1 X4.662
N11270 X3.327
N11280 X-0.895
N11290 G3 X-1.095 Y167.4 I0 J-0.2
N11300 G1 X-1.091 Y148.983
N11310 G3 X-0.891 Y148.783 I0.2 J0
N11320 G1 X15.421
N11330 G3 X15.741 Y149.103 I0 J0.319
N11340 G1 Y168.845
N11350 G3 X15.421 Y169.165 I-0.319 J0
N11360 G1 X-0.897
N11370 G3 X-1.097 Y168.965 I0 J-0.2
N11380 G1 X-1.1 Y147.414
N11390 G3 X-0.9 Y147.214 I0.2 J0
N11400 G1 X17.25
N11410 G2 X17.312 Y147.212 I0 J-0.99
N11420 X17.31 Y147.274 I0.988 J0.062
N11430 G1 Y170.674
N11440 G2 X17.312 Y170.736 I0.99 J0
N11450 X17.25 Y170.734 I-0.062 J0.988
N11460 G1 X0
N11470 X-0.899
N11480 G3 X-1.099 Y170.534 I0 J-0.2
N11490 G1 X-1.105 Y158.37
N11500 G3 X-0.905 Y158.17 I0.2 J0
N11510 G1 Z-3.01
N11520 X-0.89
N11530 X6.035
N11540 G3 X6.354 Y158.489 I0 J0.319
N11550 G1 Y159.459
N11560 G3 X6.035 Y159.778 I-0.319 J0
N11570 G1 X-0.899
N11580 G3 X-1.099 Y159.577 I0 J-0.2
N11590 G1 X-1.087 Y156.805
N11600 G3 X-0.887 Y156.606 I0.2 J0.001
N11610 G1 X7.599
N11620 G3 X7.918 Y156.925 I0 J0.319
N11630 G1 Y161.023
N11640 G3 X7.599 Y161.342 I-0.319 J0
N11650 G1 X-0.887
N11660 G3 X-1.087 Y161.143 I0 J-0.2
N11670 G1 X-1.099 Y155.242
N11680 G3 X-0.899 Y155.041 I0.2 J0
N11690 G1 X9.164
N11700 G3 X9.483 Y155.36 I0 J0.319
N11710 G1 Y162.588
N11720 G3 X9.164 Y162.907 I-0.319 J0
N11730 G1 X-0.889
N11740 G3 X-1.089 Y162.707 I0 J-0.2
N11750 G1 X-1.097 Y153.677
N11760 G3 X-0.897 Y153.477 I0.2 J0
N11770 G1 X10.728
N11780 G3 X11.047 Y153.796 I0 J0.319
N11790 G1 Y164.152
N11800 G3 X10.728 Y164.471 I-0.319 J0
N11810 G1 X-0.891
N11820 G3 X-1.091 Y164.271 I0 J-0.2
N11830 G1 X-1.095 Y152.112
N11840 G3 X-0.895 Y151.912 I0.2 J0
N11850 G1 X12.292
N11860 G3 X12.612 Y152.232 I0 J0.319
N11870 G1 Y165.716
N11880 G3 X12.292 Y166.036 I-0.319 J0
N11890 G1 X-0.893
N11900 G3 X-1.093 Y165.836 I0 J-0.2
N11910 G1 Y150.548
N11920 G3 X-0.893 Y150.348 I0.2 J0
N11930 G1 X3.33
N11940 X4.665
N11950 X13.857
N11960 G3 X14.176 Y150.667 I0 J0.319
N11970 G1 Y167.281
N11980 G3 X13.857 Y167.6 I-0.319 J0
N11990 G1 X4.662
N12000 X3.327
N12010 X-0.895
N12020 G3 X-1.095 Y167.4 I0 J-0.2
N12030 G1 X-1.091 Y148.983
N12040 G3 X-0.891 Y148.783 I0.2 J0
N12050 G1 X15.421
N12060 G3 X15.741 Y149.103 I0 J0.319
N12070 G1 Y168.845
N12080 G3 X15.421 Y169.165 I-0.319 J0
N12090 G1 X-0.897
N12100 G3 X-1.097 Y168.965 I0 J-0.2
N12110 G1 X-1.1 Y147.414
N12120 G3 X-0.9 Y147.214 I0.2 J0
N12130 G1 X17.25
N12140 G2 X17.312 Y147.212 I0 J-0.99
N12150 X17.31 Y147.274 I0.988 J0.062
N12160 G1 Y170.674
N12170 G2 X17.312 Y170.736 I0.99 J0
N12180 X17.25 Y170.734 I-0.062 J0.988
N12190 G1 X0
N12200 X-0.899
N12210 G0 Z5
N12220 X18.342 Y171.766
N12230 G1 Z2.5 F80
N12240 Z-1.5
N12250 G3 X18.24 Y171.724 I-0.042 J-0.042 F500
N12260 G2 X18.238 Y171.662 I-0.99 J0
N12270 X18.3 Y171.664 I0.062 J-0.988
N12280 G3 X18.342 Y171.766 I0 J0.06
N12290 G1 Z-3.01 F80
N12300 G3 X18.24 Y171.724 I-0.042 J-0.042 F500
N12310 G2 X18.238 Y171.662 I-0.99 J0
N12320 X18.3 Y171.664 I0.062 J-0.988
N12330 G3 X18.342 Y171.766 I0 J0.06
N12340 G0 Z5
N12350 X18.3 Y146.284
N12360 G1 Z2.5 F80
N12370 Z-1.5
N12380 G2 X18.238 Y146.286 I0 J0.99 F500
N12390 X18.24 Y146.224 I-0.988 J-0.062
N12400 G3 X18.36 I0.06 J0
N12410 X18.3 Y146.284 I-0.06 J0
N12420 G1 Z-3.01 F80
N12430 G2 X18.238 Y146.286 I0 J0.99 F500
N12440 X18.24 Y146.224 I-0.988 J-0.062
N12450 G3 X18.36 I0.06 J0
N12460 X18.3 Y146.284 I-0.06 J0
N12470 G0 Z10
N12480 X-0.902 Y84.704
N12490 Z5
N12500 G1 Z2.5 F500
N12510 Z-1.5
N12520 X-0.887
N12530 X-0.222
N12540 G3 X0.097 Y85.023 I0 J0.319
N12550 G1 Y93.603
N12560 G3 X-0.222 Y93.922 I-0.319 J0
N12570 G1 X-0.89
N12580 G3 X-1.09 Y93.722 I0 J-0.2
N12590 G1 X-1.098 Y83.339
N12600 G3 X-0.898 Y83.139 I0.2 J0
N12610 G1 X1.342
N12620 G3 X1.661 Y83.459 I0 J0.319
N12630 G1 Y95.167
N12640 G3 X1.342 Y95.487 I-0.319 J0
N12650 G1 X-0.892
N12660 G3 X-1.092 Y95.287 I0 J-0.2
N12670 G1 X-1.096 Y81.775
N12680 G3 X-0.896 Y81.575 I0.2 J0
N12690 G1 X2.906
N12700 G3 X3.226 Y81.894 I0 J0.319
N12710 G1 Y96.732
N12720 G3 X2.906 Y97.051 I-0.319 J0
N12730 G1 X-0.894
N12740 G3 X-1.094 Y96.851 I0 J-0.2
N12750 G1 Y80.21
N12760 G3 X-0.894 Y80.01 I0.2 J0
N12770 G1 X4.471
N12780 G3 X4.79 Y80.33 I0 J0.319
N12790 G1 Y98.296
N12800 G3 X4.471 Y98.616 I-0.319 J0
N12810 G1 X-0.896
N12820 G3 X-1.096 Y98.416 I0 J-0.2
N12830 G1 X-1.092 Y78.646
N12840 G3 X-0.892 Y78.446 I0.2 J0
N12850 G1 X6.035
N12860 G3 X6.355 Y78.765 I0 J0.319
N12870 G1 Y99.861
N12880 G3 X6.035 Y100.18 I-0.319 J0
N12890 G1 X-0.898
N12900 G3 X-1.098 Y99.98 I0 J-0.2
N12910 G1 X-1.09 Y77.082
N12920 G3 X-0.89 Y76.882 I0.2 J0
N12930 G1 X7.6
N12940 G3 X7.919 Y77.201 I0 J0.319
N12950 G1 Y101.425
N12960 G3 X7.6 Y101.744 I-0.319 J0
N12970 G1 X-0.887
N12980 G3 X-1.087 Y101.544 I0 J-0.2
N12990 G1 X-1.088 Y75.517
N13000 G3 X-0.888 Y75.317 I0.2 J0
N13010 G1 X9.164
N13020 G3 X9.483 Y75.636 I0 J0.319
N13030 G1 Y102.99
N13040 G3 X9.164 Y103.309 I-0.319 J0
N13050 G1 X-0.889
N13060 G3 X-1.089 Y103.109 I0 J-0.2
N13070 G1 X-1.1 Y73.953
N13080 G3 X-0.9 Y73.753 I0.2 J0
N13090 G1 X10.729
N13100 G3 X11.048 Y74.072 I0 J0.319
N13110 G1 Y104.554
N13120 G3 X10.729 Y104.873 I-0.319 J0
N13130 G1 X-0.891
N13140 G3 X-1.091 Y104.673 I0 J-0.2
N13150 G1 X-1.098 Y72.388
N13160 G3 X-0.898 Y72.188 I0.2 J0
N13170 G1 X12.293
N13180 G3 X12.612 Y72.508 I0 J0.319
N13190 G1 Y106.118
N13200 G3 X12.293 Y106.438 I-0.319 J0
N13210 G1 X-0.893
N13220 G2 X-0.907 Y106.837 I0 J0.2
N13230 G1 X9.54 Y107.603
N13240 G3 X9.526 Y108.002 I-0.015 J0.199
N13250 G1 X4.636
N13260 X3.519
N13270 X-0.895
N13280 G3 X-1.095 Y107.802 I0 J-0.2
N13290 G1 X-1.096 Y70.824
N13300 G3 X-0.896 Y70.624 I0.2 J0
N13310 G1 X3.518
N13320 X4.635
N13330 X9.525
N13340 X10.642
N13350 X13.857
N13360 G3 X14.177 Y70.943 I0 J0.319
N13370 G1 Y107.683
N13380 G3 X13.857 Y108.002 I-0.319 J0
N13390 G1 X10.643
N13400 X10.627
N13410 Z2.5
N13420 X-0.901 Y69.059
N13430 Z-1.5
N13440 X-0.893
N13450 X15.422
N13460 G3 X15.741 Y69.379 I0 J0.319
N13470 G1 Y109.247
N13480 G3 X15.422 Y109.567 I-0.319 J0
N13490 G1 X-0.897
N13500 G3 X-1.097 Y109.367 I0 J-0.2
N13510 G1 X-1.089 Y67.69
N13520 G3 X-0.889 Y67.49 I0.2 J0
N13530 G1 X17.251
N13540 G2 X17.313 Y67.488 I0 J-0.99
N13550 X17.311 Y67.55 I0.988 J0.062
N13560 G1 Y111.076
N13570 G2 X17.313 Y111.138 I0.99 J0
N13580 X17.251 Y111.136 I-0.062 J0.988
N13590 G1 X0
N13600 X-0.899
N13610 G3 X-1.099 Y110.936 I0 J-0.2
N13620 G1 X-1.102 Y84.904
N13630 G3 X-0.902 Y84.704 I0.2 J0
N13640 G1 Z-3.01
N13650 X-0.887
N13660 X-0.222
N13670 G3 X0.097 Y85.023 I0 J0.319
N13680 G1 Y93.603
N13690 G3 X-0.222 Y93.922 I-0.319 J0
N13700 G1 X-0.89
N13710 G3 X-1.09 Y93.722 I0 J-0.2
N13720 G1 X-1.098 Y83.339
N13730 G3 X-0.898 Y83.139 I0.2 J0
N13740 G1 X1.342
N13750 G3 X1.661 Y83.459 I0 J0.319
N13760 G1 Y95.167
N13770 G3 X1.342 Y95.487 I-0.319 J0
N13780 G1 X-0.892
N13790 G3 X-1.092 Y95.287 I0 J-0.2
N13800 G1 X-1.096 Y81.775
N13810 G3 X-0.896 Y81.575 I0.2 J0
N13820 G1 X2.906
N13830 G3 X3.226 Y81.894 I0 J0.319
N13840 G1 Y96.732
N13850 G3 X2.906 Y97.051 I-0.319 J0
N13860 G1 X-0.894
N13870 G3 X-1.094 Y96.851 I0 J-0.2
N13880 G1 Y80.21
N13890 G3 X-0.894 Y80.01 I0.2 J0
N13900 G1 X4.471
N13910 G3 X4.79 Y80.33 I0 J0.319
N13920 G1 Y98.296
N13930 G3 X4.471 Y98.616 I-0.319 J0
N13940 G1 X-0.896
N13950 G3 X-1.096 Y98.416 I0 J-0.2
N13960 G1 X-1.092 Y78.646
N13970 G3 X-0.892 Y78.446 I0.2 J0
N13980 G1 X6.035
N13990 G3 X6.355 Y78.765 I0 J0.319
N14000 G1 Y99.861
N14010 G3 X6.035 Y100.18 I-0.319 J0
N14020 G1 X-0.898
N14030 G3 X-1.098 Y99.98 I0 J-0.2
N14040 G1 X-1.09 Y77.082
N14050 G3 X-0.89 Y76.882 I0.2 J0
N14060 G1 X7.6
N14070 G3 X7.919 Y77.201 I0 J0.319
N14080 G1 Y101.425
N14090 G3 X7.6 Y101.744 I-0.319 J0
N14100 G1 X-0.887
N14110 G3 X-1.087 Y101.544 I0 J-0.2
N14120 G1 X-1.088 Y75.517
N14130 G3 X-0.888 Y75.317 I0.2 J0
N14140 G1 X9.164
N14150 G3 X9.483 Y75.636 I0 J0.319
N14160 G1 Y102.99
N14170 G3 X9.164 Y103.309 I-0.319 J0
N14180 G1 X-0.889
N14190 G3 X-1.089 Y103.109 I0 J-0.2
N14200 G1 X-1.1 Y73.953
N14210 G3 X-0.9 Y73.753 I0.2 J0
N14220 G1 X10.729
N14230 G3 X11.048 Y74.072 I0 J0.319
N14240 G1 Y104.554
N14250 G3 X10.729 Y104.873 I-0.319 J0
N14260 G1 X-0.891
N14270 G3 X-1.091 Y104.673 I0 J-0.2
N14280 G1 X-1.098 Y72.388
N14290 G3 X-0.898 Y72.188 I0.2 J0
N14300 G1 X12.293
N14310 G3 X12.612 Y72.508 I0 J0.319
N14320 G1 Y106.118
N14330 G3 X12.293 Y106.438 I-0.319 J0
N14340 G1 X-0.893
N14350 G2 X-0.907 Y106.837 I0 J0.2
N14360 G1 X9.54 Y107.603
N14370 G3 X9.526 Y108.002 I-0.015 J0.199
N14380 G1 X4.636
N14390 X3.519
N14400 X-0.895
N14410 G3 X-1.095 Y107.802 I0 J-0.2
N14420 G1 X-1.096 Y70.824
N14430 G3 X-0.896 Y70.624 I0.2 J0
N14440 G1 X3.518
N14450 X4.635
N14460 X9.525
N14470 X10.642
N14480 X13.857
N14490 G3 X14.177 Y70.943 I0 J0.319
N14500 G1 Y107.683
N14510 G3 X13.857 Y108.002 I-0.319 J0
N14520 G1 X10.643
N14530 X10.627
N14540 Z1
N14550 X-0.901 Y69.059
N14560 Z-3.01
N14570 X-0.893
N14580 X15.422
N14590 G3 X15.741 Y69.379 I0 J0.319
N14600 G1 Y109.247
N14610 G3 X15.422 Y109.567 I-0.319 J0
N14620 G1 X-0.897
N14630 G3 X-1.097 Y109.367 I0 J-0.2
N14640 G1 X-1.089 Y67.69
N14650 G3 X-0.889 Y67.49 I0.2 J0
N14660 G1 X17.251
N14670 G2 X17.313 Y67.488 I0 J-0.99
N14680 X17.311 Y67.55 I0.988 J0.062
N14690 G1 Y111.076
N14700 G2 X17.313 Y111.138 I0.99 J0
N14710 X17.251 Y111.136 I-0.062 J0.988
N14720 G1 X0
N14730 X-0.899
N14740 G0 Z5
N14750 X18.343 Y112.168
N14760 G1 Z2.5 F80
N14770 Z-1.5
N14780 G3 X18.241 Y112.126 I-0.042 J-0.042 F500
N14790 G2 X18.239 Y112.064 I-0.99 J0
N14800 X18.301 Y112.066 I0.062 J-0.988
N14810 G3 X18.343 Y112.168 I0 J0.06
N14820 G1 Z-3.01 F80
N14830 G3 X18.241 Y112.126 I-0.042 J-0.042 F500
N14840 G2 X18.239 Y112.064 I-0.99 J0
N14850 X18.301 Y112.066 I0.062 J-0.988
N14860 G3 X18.343 Y112.168 I0 J0.06
N14870 G0 Z5
N14880 X18.301 Y66.56
N14890 G1 Z2.5 F80
N14900 Z-1.5
N14910 G2 X18.239 Y66.562 I0 J0.99 F500
N14920 X18.241 Y66.5 I-0.988 J-0.062
N14930 G3 X18.361 I0.06 J0
N14940 X18.301 Y66.56 I-0.06 J0
N14950 G1 Z-3.01 F80
N14960 G2 X18.239 Y66.562 I0 J0.99 F500
N14970 X18.241 Y66.5 I-0.988 J-0.062
N14980 G3 X18.361 I0.06 J0
N14990 X18.301 Y66.56 I-0.06 J0
N15000 G0 Z10
N15010 X-0.905 Y34.946
N15020 Z5
N15030 G1 Z2.5 F500
N15040 Z-1.5
N15050 X-0.89
N15060 X6.035
N15070 G3 X6.354 Y35.265 I0 J0.319
N15080 G1 Y36.235
N15090 G3 X6.035 Y36.554 I-0.319 J0
N15100 G1 X-0.899
N15110 G3 X-1.099 Y36.353 I0 J-0.2
N15120 G1 X-1.087 Y33.581
N15130 G3 X-0.887 Y33.382 I0.2 J0.001
N15140 G1 X7.599
N15150 G3 X7.918 Y33.701 I0 J0.319
N15160 G1 Y37.799
N15170 G3 X7.599 Y38.118 I-0.319 J0
N15180 G1 X-0.887
N15190 G3 X-1.087 Y37.919 I0 J-0.2
N15200 G1 X-1.099 Y32.018
N15210 G3 X-0.899 Y31.817 I0.2 J0
N15220 G1 X9.164
N15230 G3 X9.483 Y32.136 I0 J0.319
N15240 G1 Y39.364
N15250 G3 X9.164 Y39.683 I-0.319 J0
N15260 G1 X-0.889
N15270 G3 X-1.089 Y39.483 I0 J-0.2
N15280 G1 X-1.097 Y30.453
N15290 G3 X-0.897 Y30.253 I0.2 J0
N15300 G1 X10.728
N15310 G3 X11.047 Y30.572 I0 J0.319
N15320 G1 Y40.928
N15330 G3 X10.728 Y41.247 I-0.319 J0
N15340 G1 X-0.891
N15350 G3 X-1.091 Y41.047 I0 J-0.2
N15360 G1 X-1.095 Y28.888
N15370 G3 X-0.895 Y28.688 I0.2 J0
N15380 G1 X12.292
N15390 G3 X12.612 Y29.008 I0 J0.319
N15400 G1 Y42.492
N15410 G3 X12.292 Y42.812 I-0.319 J0
N15420 G1 X-0.893
N15430 G3 X-1.093 Y42.612 I0 J-0.2
N15440 G1 Y27.324
N15450 G3 X-0.893 Y27.124 I0.2 J0
N15460 G1 X3.33
N15470 X4.665
N15480 X13.857
N15490 G3 X14.176 Y27.443 I0 J0.319
N15500 G1 Y44.057
N15510 G3 X13.857 Y44.376 I-0.319 J0
N15520 G1 X4.662
N15530 X3.327
N15540 X-0.895
N15550 G3 X-1.095 Y44.176 I0 J-0.2
N15560 G1 X-1.091 Y25.759
N15570 G3 X-0.891 Y25.559 I0.2 J0
N15580 G1 X15.421
N15590 G3 X15.741 Y25.879 I0 J0.319
N15600 G1 Y45.621
N15610 G3 X15.421 Y45.941 I-0.319 J0
N15620 G1 X-0.897
N15630 G3 X-1.097 Y45.741 I0 J-0.2
N15640 G1 X-1.1 Y24.19
N15650 G3 X-0.9 Y23.99 I0.2 J0
N15660 G1 X17.25
N15670 G2 X17.312 Y23.988 I0 J-0.99
N15680 X17.31 Y24.05 I0.988 J0.062
N15690 G1 Y47.45
N15700 G2 X17.312 Y47.512 I0.99 J0
N15710 X17.25 Y47.51 I-0.062 J0.988
N15720 G1 X0
N15730 X-0.899
N15740 G3 X-1.099 Y47.31 I0 J-0.2
N15750 G1 X-1.105 Y35.146
N15760 G3 X-0.905 Y34.946 I0.2 J0
N15770 G1 Z-3.01
N15780 X-0.89
N15790 X6.035
N15800 G3 X6.354 Y35.265 I0 J0.319
N15810 G1 Y36.235
N15820 G3 X6.035 Y36.554 I-0.319 J0
N15830 G1 X-0.899
N15840 G3 X-1.099 Y36.353 I0 J-0.2
N15850 G1 X-1.087 Y33.581
N15860 G3 X-0.887 Y33.382 I0.2 J0.001
N15870 G1 X7.599
N15880 G3 X7.918 Y33.701 I0 J0.319
N15890 G1 Y37.799
N15900 G3 X7.599 Y38.118 I-0.319 J0
N15910 G1 X-0.887
N15920 G3 X-1.087 Y37.919 I0 J-0.2
N15930 G1 X-1.099 Y32.018
N15940 G3 X-0.899 Y31.817 I0.2 J0
N15950 G1 X9.164
N15960 G3 X9.483 Y32.136 I0 J0.319
N15970 G1 Y39.364
N15980 G3 X9.164 Y39.683 I-0.319 J0
N15990 G1 X-0.889
N16000 G3 X-1.089 Y39.483 I0 J-0.2
N16010 G1 X-1.097 Y30.453
N16020 G3 X-0.897 Y30.253 I0.2 J0
N16030 G1 X10.728
N16040 G3 X11.047 Y30.572 I0 J0.319
N16050 G1 Y40.928
N16060 G3 X10.728 Y41.247 I-0.319 J0
N16070 G1 X-0.891
N16080 G3 X-1.091 Y41.047 I0 J-0.2
N16090 G1 X-1.095 Y28.888
N16100 G3 X-0.895 Y28.688 I0.2 J0
N16110 G1 X12.292
N16120 G3 X12.612 Y29.008 I0 J0.319
N16130 G1 Y42.492
N16140 G3 X12.292 Y42.812 I-0.319 J0
N16150 G1 X-0.893
N16160 G3 X-1.093 Y42.612 I0 J-0.2
N16170 G1 Y27.324
N16180 G3 X-0.893 Y27.124 I0.2 J0
N16190 G1 X3.33
N16200 X4.665
N16210 X13.857
N16220 G3 X14.176 Y27.443 I0 J0.319
N16230 G1 Y44.057
N16240 G3 X13.857 Y44.376 I-0.319 J0
N16250 G1 X4.662
N16260 X3.327
N16270 X-0.895
N16280 G3 X-1.095 Y44.176 I0 J-0.2
N16290 G1 X-1.091 Y25.759
N16300 G3 X-0.891 Y25.559 I0.2 J0
N16310 G1 X15.421
N16320 G3 X15.741 Y25.879 I0 J0.319
N16330 G1 Y45.621
N16340 G3 X15.421 Y45.941 I-0.319 J0
N16350 G1 X-0.897
N16360 G3 X-1.097 Y45.741 I0 J-0.2
N16370 G1 X-1.1 Y24.19
N16380 G3 X-0.9 Y23.99 I0.2 J0
N16390 G1 X17.25
N16400 G2 X17.312 Y23.988 I0 J-0.99
N16410 X17.31 Y24.05 I0.988 J0.062
N16420 G1 Y47.45
N16430 G2 X17.312 Y47.512 I0.99 J0
N16440 X17.25 Y47.51 I-0.062 J0.988
N16450 G1 X0
N16460 X-0.899
N16470 G0 Z5
N16480 X18.342 Y48.542
N16490 G1 Z2.5 F80
N16500 Z-1.5
N16510 G3 X18.24 Y48.5 I-0.042 J-0.042 F500
N16520 G2 X18.238 Y48.438 I-0.99 J0
N16530 X18.3 Y48.44 I0.062 J-0.988
N16540 G3 X18.342 Y48.542 I0 J0.06
N16550 G1 Z-3.01 F80
N16560 G3 X18.24 Y48.5 I-0.042 J-0.042 F500
N16570 G2 X18.238 Y48.438 I-0.99 J0
N16580 X18.3 Y48.44 I0.062 J-0.988
N16590 G3 X18.342 Y48.542 I0 J0.06
N16600 G0 Z5
N16610 Y22.958
N16620 G1 Z2.5 F80
N16630 Z-1.5
N16640 G3 X18.3 Y23.06 I-0.042 J0.042 F500
N16650 G2 X18.238 Y23.062 I0 J0.99
N16660 X18.24 Y23 I-0.988 J-0.062
N16670 G3 X18.342 Y22.958 I0.06 J0
N16680 G1 Z-3.01 F80
N16690 G3 X18.3 Y23.06 I-0.042 J0.042 F500
N16700 G2 X18.238 Y23.062 I0 J0.99
N16710 X18.24 Y23 I-0.988 J-0.062
N16720 G3 X18.342 Y22.958 I0.06 J0
N16730 G0 Z10
N16740 X79.796 Y7.096
N16750 Z5
N16760 G1 Z2.5 F500
N16770 Z-1.5
N16780 Y7.111
N16790 Y7.777
N16800 G3 X79.477 Y8.096 I-0.319 J0
N16810 G1 X64.686
N16820 G3 X64.37 Y7.781 I0 J-0.315
N16830 G1 Y7.113
N16840 G3 X64.57 Y6.913 I0.2 J0
N16850 G1 X81.161
N16860 G3 X81.361 Y7.113 I0 J0.2
N16870 G1 Y9.341
N16880 G3 X81.041 Y9.661 I-0.319 J0
N16890 G1 X63.125
N16900 G3 X62.806 Y9.341 I0 J-0.319
N16910 G1 Y7.107
N16920 G3 X63.006 Y6.907 I0.2 J0
N16930 G1 X82.725 Y6.902
N16940 G3 X82.925 Y7.102 I0 J0.2
N16950 G1 Y10.906
N16960 G3 X82.606 Y11.225 I-0.319 J0
N16970 G1 X61.561
N16980 G3 X61.242 Y10.906 I0 J-0.319
N16990 G1 Y7.105
N17000 G3 X61.442 Y6.905 I0.2 J0
N17010 G1 X84.29 Y6.904
N17020 G3 X84.49 Y7.104 I0 J0.2
N17030 G1 Y12.47
N17040 G3 X84.17 Y12.79 I-0.319 J0
N17050 G1 X59.996
N17060 G3 X59.677 Y12.47 I0 J-0.319
N17070 G1 Y7.103
N17080 G3 X59.877 Y6.903 I0.2 J0
N17090 G1 X85.854 Y6.906
N17100 G3 X86.054 Y7.106 I0 J0.2
N17110 G1 Y14.035
N17120 G3 X85.735 Y14.354 I-0.319 J0
N17130 G1 X58.432
N17140 G3 X58.113 Y14.035 I0 J-0.319
N17150 G1 Y7.101
N17160 G3 X58.313 Y6.901 I0.2 J0
N17170 G1 X87.418 Y6.908
N17180 G3 X87.618 Y7.108 I0 J0.2
N17190 G1 Y15.599
N17200 G3 X87.299 Y15.918 I-0.319 J0
N17210 G1 X56.868
N17220 G3 X56.548 Y15.599 I0 J-0.319
N17230 G1 Y7.113
N17240 G3 X56.748 Y6.913 I0.2 J0
N17250 G1 X88.983 Y6.91
N17260 G3 X89.183 Y7.11 I0 J0.2
N17270 G1 Y17.164
N17280 G3 X88.864 Y17.483 I-0.319 J0
N17290 G1 X55.303
N17300 G3 X54.984 Y17.164 I0 J-0.319
N17310 G1 Y7.111
N17320 G3 X55.184 Y6.911 I0.2 J0
N17330 G1 X90.547 Y6.912
N17340 G3 X90.747 Y7.112 I0 J0.2
N17350 G1 Y18.728
N17360 G3 X90.428 Y19.047 I-0.319 J0
N17370 G1 X53.739
N17380 G3 X53.419 Y18.728 I0 J-0.319
N17390 G1 Y7.109
N17400 G3 X53.619 Y6.909 I0.2 J0
N17410 G1 X92.112 Y6.901
N17420 G3 X92.312 Y7.101 I0 J0.2
N17430 G1 Y20.292
N17440 G3 X91.992 Y20.612 I-0.319 J0
N17450 G1 X52.174
N17460 G3 X51.855 Y20.292 I0 J-0.319
N17470 G1 Y7.107
N17480 G3 X52.055 Y6.907 I0.2 J0
N17490 G1 X93.676 Y6.903
N17500 G3 X93.876 Y7.103 I0 J0.2
N17510 G1 Y11.993
N17520 Y13.3
N17530 Y20.997
N17540 X93.767 Y21.997
N17550 G3 X93.588 Y22.175 I-0.199 J-0.022
N17560 X93.557 Y22.176 I-0.031 J-0.318
N17570 G1 X50.61
N17580 G3 X50.291 Y21.857 I0 J-0.319
N17590 G1 Y7.105
N17600 G3 X50.491 Y6.905 I0.2 J0
N17610 G1 X95.241
N17620 G3 X95.441 Y7.105 I0 J0.2
N17630 G1 Y23.421
N17640 G3 X95.121 Y23.741 I-0.319 J0
N17650 G1 X49.045
N17660 G3 X48.726 Y23.421 I0 J-0.319
N17670 G1 Y7.103
N17680 G3 X48.926 Y6.903 I0.2 J0
N17690 G1 X96.81 Y6.909
N17700 G3 X97.01 Y7.109 I0 J0.2
N17710 G1 Y25.25
N17720 G2 X97.012 Y25.312 I0.99 J0
N17730 X96.95 Y25.31 I-0.062 J0.988
N17740 G1 X47.217
N17750 G2 X47.155 Y25.312 I0 J0.99
N17760 X47.157 Y25.25 I-0.988 J-0.062
N17770 G1 Y8
N17780 Y7.101
N17790 G3 X47.357 Y6.901 I0.2 J0
N17800 G1 X79.596 Y6.896
N17810 G3 X79.796 Y7.096 I0 J0.2
N17820 G1 Z-3.01
N17830 Y7.111
N17840 Y7.777
N17850 G3 X79.477 Y8.096 I-0.319 J0
N17860 G1 X64.686
N17870 G3 X64.37 Y7.781 I0 J-0.315
N17880 G1 Y7.113
N17890 G3 X64.57 Y6.913 I0.2 J0
N17900 G1 X81.161
N17910 G3 X81.361 Y7.113 I0 J0.2
N17920 G1 Y9.341
N17930 G3 X81.041 Y9.661 I-0.319 J0
N17940 G1 X63.125
N17950 G3 X62.806 Y9.341 I0 J-0.319
N17960 G1 Y7.107
N17970 G3 X63.006 Y6.907 I0.2 J0
N17980 G1 X82.725 Y6.902
N17990 G3 X82.925 Y7.102 I0 J0.2
N18000 G1 Y10.906
N18010 G3 X82.606 Y11.225 I-0.319 J0
N18020 G1 X61.561
N18030 G3 X61.242 Y10.906 I0 J-0.319
N18040 G1 Y7.105
N18050 G3 X61.442 Y6.905 I0.2 J0
N18060 G1 X84.29 Y6.904
N18070 G3 X84.49 Y7.104 I0 J0.2
N18080 G1 Y12.47
N18090 G3 X84.17 Y12.79 I-0.319 J0
N18100 G1 X59.996
N18110 G3 X59.677 Y12.47 I0 J-0.319
N18120 G1 Y7.103
N18130 G3 X59.877 Y6.903 I0.2 J0
N18140 G1 X85.854 Y6.906
N18150 G3 X86.054 Y7.106 I0 J0.2
N18160 G1 Y14.035
N18170 G3 X85.735 Y14.354 I-0.319 J0
N18180 G1 X58.432
N18190 G3 X58.113 Y14.035 I0 J-0.319
N18200 G1 Y7.101
N18210 G3 X58.313 Y6.901 I0.2 J0
N18220 G1 X87.418 Y6.908
N18230 G3 X87.618 Y7.108 I0 J0.2
N18240 G1 Y15.599
N18250 G3 X87.299 Y15.918 I-0.319 J0
N18260 G1 X56.868
N18270 G3 X56.548 Y15.599 I0 J-0.319
N18280 G1 Y7.113
N18290 G3 X56.748 Y6.913 I0.2 J0
N18300 G1 X88.983 Y6.91
N18310 G3 X89.183 Y7.11 I0 J0.2
N18320 G1 Y17.164
N18330 G3 X88.864 Y17.483 I-0.319 J0
N18340 G1 X55.303
N18350 G3 X54.984 Y17.164 I0 J-0.319
N18360 G1 Y7.111
N18370 G3 X55.184 Y6.911 I0.2 J0
N18380 G1 X90.547 Y6.912
N18390 G3 X90.747 Y7.112 I0 J0.2
N18400 G1 Y18.728
N18410 G3 X90.428 Y19.047 I-0.319 J0
N18420 G1 X53.739
N18430 G3 X53.419 Y18.728 I0 J-0.319
N18440 G1 Y7.109
N18450 G3 X53.619 Y6.909 I0.2 J0
N18460 G1 X92.112 Y6.901
N18470 G3 X92.312 Y7.101 I0 J0.2
N18480 G1 Y20.292
N18490 G3 X91.992 Y20.612 I-0.319 J0
N18500 G1 X52.174
N18510 G3 X51.855 Y20.292 I0 J-0.319
N18520 G1 Y7.107
N18530 G3 X52.055 Y6.907 I0.2 J0
N18540 G1 X93.676 Y6.903
N18550 G3 X93.876 Y7.103 I0 J0.2
N18560 G1 Y11.993
N18570 Y13.3
N18580 Y20.997
N18590 X93.767 Y21.997
N18600 G3 X93.588 Y22.175 I-0.199 J-0.022
N18610 X93.557 Y22.176 I-0.031 J-0.318
N18620 G1 X50.61
N18630 G3 X50.291 Y21.857 I0 J-0.319
N18640 G1 Y7.105
N18650 G3 X50.491 Y6.905 I0.2 J0
N18660 G1 X95.241
N18670 G3 X95.441 Y7.105 I0 J0.2
N18680 G1 Y23.421
N18690 G3 X95.121 Y23.741 I-0.319 J0
N18700 G1 X49.045
N18710 G3 X48.726 Y23.421 I0 J-0.319
N18720 G1 Y7.103
N18730 G3 X48.926 Y6.903 I0.2 J0
N18740 G1 X96.81 Y6.909
N18750 G3 X97.01 Y7.109 I0 J0.2
N18760 G1 Y25.25
N18770 G2 X97.012 Y25.312 I0.99 J0
N18780 X96.95 Y25.31 I-0.062 J0.988
N18790 G1 X47.217
N18800 G2 X47.155 Y25.312 I0 J0.99
N18810 X47.157 Y25.25 I-0.988 J-0.062
N18820 G1 Y8
N18830 Y7.101
N18840 G0 Z5
N18850 X46.167 Y26.24
N18860 G1 Z2.5 F80
N18870 Z-1.5
N18880 G2 X46.229 Y26.238 I0 J-0.99 F500
N18890 X46.227 Y26.3 I0.988 J0.062
N18900 G3 X46.107 I-0.06 J0
N18910 X46.167 Y26.24 I0.06 J0
N18920 G1 Z-3.01 F80
N18930 G2 X46.229 Y26.238 I0 J-0.99 F500
N18940 X46.227 Y26.3 I0.988 J0.062
N18950 G3 X46.107 I-0.06 J0
N18960 X46.167 Y26.24 I0.06 J0
N18970 G0 Z5
N18980 X97.94 Y26.3
N18990 G1 Z2.5 F80
N19000 Z-1.5
N19010 G2 X97.938 Y26.238 I-0.99 J0 F500
N19020 X98 Y26.24 I0.062 J-0.988
N19030 G3 Y26.36 I0 J0.06
N19040 X97.94 Y26.3 I0 J-0.06
N19050 G1 Z-3.01 F80
N19060 G2 X97.938 Y26.238 I-0.99 J0 F500
N19070 X98 Y26.24 I0.062 J-0.988
N19080 G3 Y26.36 I0 J0.06
N19090 X97.94 Y26.3 I0 J-0.06
N19100 G0 Z10
N19110 X136.905 Y36.554
N19120 Z5
N19130 G1 Z2.5 F500
N19140 Z-1.5
N19150 X136.889
N19160 X129.961
N19170 G3 X129.646 Y36.239 I0 J-0.315
N19180 G1 Y35.265
N19190 G3 X129.965 Y34.946 I0.319 J0
N19200 G1 X136.899
N19210 G3 X137.099 Y35.147 I0 J0.2
N19220 G1 X137.087 Y37.919
N19230 G3 X136.887 Y38.118 I-0.2 J-0.001
N19240 G1 X128.397
N19250 G3 X128.082 Y37.803 I0 J-0.315
N19260 G1 Y33.701
N19270 G3 X128.401 Y33.382 I0.319 J0
N19280 G1 X136.887
N19290 G3 X137.087 Y33.581 I0 J0.2
N19300 G1 X137.099 Y39.482
N19310 G3 X136.899 Y39.683 I-0.2 J0
N19320 G1 X126.833
N19330 G3 X126.517 Y39.367 I0 J-0.315
N19340 G1 Y32.136
N19350 G3 X126.836 Y31.817 I0.319 J0
N19360 G1 X136.889
N19370 G3 X137.089 Y32.017 I0 J0.2
N19380 G1 X137.097 Y41.047
N19390 G3 X136.897 Y41.247 I-0.2 J0
N19400 G1 X125.268
N19410 G3 X124.953 Y40.932 I0 J-0.315
N19420 G1 Y30.572
N19430 G3 X125.272 Y30.253 I0.319 J0
N19440 G1 X136.891
N19450 G3 X137.091 Y30.453 I0 J0.2
N19460 G1 X137.095 Y42.612
N19470 G3 X136.895 Y42.812 I-0.2 J0
N19480 G1 X123.704
N19490 G3 X123.388 Y42.496 I0 J-0.315
N19500 G1 Y29.008
N19510 G3 X123.708 Y28.688 I0.319 J0
N19520 G1 X136.893
N19530 G3 X137.093 Y28.888 I0 J0.2
N19540 G1 Y44.176
N19550 G3 X136.893 Y44.376 I-0.2 J0
N19560 G1 X132.67
N19570 X131.335
N19580 X122.139
N19590 G3 X121.824 Y44.061 I0 J-0.315
N19600 G1 Y27.443
N19610 G3 X122.143 Y27.124 I0.319 J0
N19620 G1 X131.338
N19630 X132.673
N19640 X136.895
N19650 G3 X137.095 Y27.324 I0 J0.2
N19660 G1 X137.091 Y45.741
N19670 G3 X136.891 Y45.941 I-0.2 J0
N19680 G1 X120.575
N19690 G3 X120.259 Y45.625 I0 J-0.315
N19700 G1 Y25.879
N19710 G3 X120.579 Y25.559 I0.319 J0
N19720 G1 X136.897
N19730 G3 X137.097 Y25.759 I0 J0.2
N19740 G1 X137.1 Y47.31
N19750 G3 X136.9 Y47.51 I-0.2 J0
N19760 G1 X118.75
N19770 G2 X118.688 Y47.512 I0 J0.99
N19780 X118.69 Y47.45 I-0.988 J-0.062
N19790 G1 Y24.05
N19800 G2 X118.688 Y23.988 I-0.99 J0
N19810 X118.75 Y23.99 I0.062 J-0.988
N19820 G1 X136
N19830 X136.899
N19840 G3 X137.099 Y24.19 I0 J0.2
N19850 G1 X137.105 Y36.354
N19860 G3 X136.905 Y36.554 I-0.2 J0
N19870 G1 Z-3.01
N19880 X136.889
N19890 X129.961
N19900 G3 X129.646 Y36.239 I0 J-0.315
N19910 G1 Y35.265
N19920 G3 X129.965 Y34.946 I0.319 J0
N19930 G1 X136.899
N19940 G3 X137.099 Y35.147 I0 J0.2
N19950 G1 X137.087 Y37.919
N19960 G3 X136.887 Y38.118 I-0.2 J-0.001
N19970 G1 X128.397
N19980 G3 X128.082 Y37.803 I0 J-0.315
N19990 G1 Y33.701
N20000 G3 X128.401 Y33.382 I0.319 J0
N20010 G1 X136.887
N20020 G3 X137.087 Y33.581 I0 J0.2
N20030 G1 X137.099 Y39.482
N20040 G3 X136.899 Y39.683 I-0.2 J0
N20050 G1 X126.833
N20060 G3 X126.517 Y39.367 I0 J-0.315
N20070 G1 Y32.136
N20080 G3 X126.836 Y31.817 I0.319 J0
N20090 G1 X136.889
N20100 G3 X137.089 Y32.017 I0 J0.2
N20110 G1 X137.097 Y41.047
N20120 G3 X136.897 Y41.247 I-0.2 J0
N20130 G1 X125.268
N20140 G3 X124.953 Y40.932 I0 J-0.315
N20150 G1 Y30.572
N20160 G3 X125.272 Y30.253 I0.319 J0
N20170 G1 X136.891
N20180 G3 X137.091 Y30.453 I0 J0.2
N20190 G1 X137.095 Y42.612
N20200 G3 X136.895 Y42.812 I-0.2 J0
N20210 G1 X123.704
N20220 G3 X123.388 Y42.496 I0 J-0.315
N20230 G1 Y29.008
N20240 G3 X123.708 Y28.688 I0.319 J0
N20250 G1 X136.893
N20260 G3 X137.093 Y28.888 I0 J0.2
N20270 G1 Y44.176
N20280 G3 X136.893 Y44.376 I-0.2 J0
N20290 G1 X132.67
N20300 X131.335
N20310 X122.139
N20320 G3 X121.824 Y44.061 I0 J-0.315
N20330 G1 Y27.443
N20340 G3 X122.143 Y27.124 I0.319 J0
N20350 G1 X131.338
N20360 X132.673
N20370 X136.895
N20380 G3 X137.095 Y27.324 I0 J0.2
N20390 G1 X137.091 Y45.741
N20400 G3 X136.891 Y45.941 I-0.2 J0
N20410 G1 X120.575
N20420 G3 X120.259 Y45.625 I0 J-0.315
N20430 G1 Y25.879
N20440 G3 X120.579 Y25.559 I0.319 J0
N20450 G1 X136.897
N20460 G3 X137.097 Y25.759 I0 J0.2
N20470 G1 X137.1 Y47.31
N20480 G3 X136.9 Y47.51 I-0.2 J0
N20490 G1 X118.75
N20500 G2 X118.688 Y47.512 I0 J0.99
N20510 X118.69 Y47.45 I-0.988 J-0.062
N20520 G1 Y24.05
N20530 G2 X118.688 Y23.988 I-0.99 J0
N20540 X118.75 Y23.99 I0.062 J-0.988
N20550 G1 X136
N20560 X136.899
N20570 G0 Z5
N20580 X117.76 Y23
N20590 G1 Z2.5 F80
N20600 Z-1.5
N20610 G2 X117.762 Y23.062 I0.99 J0 F500
N20620 X117.7 Y23.06 I-0.062 J0.988
N20630 G3 X117.658 Y22.958 I0 J-0.06
N20640 X117.76 Y23 I0.042 J0.042
N20650 G1 Z-3.01 F80
N20660 G2 X117.762 Y23.062 I0.99 J0 F500
N20670 X117.7 Y23.06 I-0.062 J0.988
N20680 G3 X117.658 Y22.958 I0 J-0.06
N20690 X117.76 Y23 I0.042 J0.042
N20700 G0 Z5
N20710 X117.658 Y48.542
N20720 G1 Z2.5 F80
N20730 Z-1.5
N20740 G3 X117.7 Y48.44 I0.042 J-0.042 F500
N20750 G2 X117.762 Y48.438 I0 J-0.99
N20760 X117.76 Y48.5 I0.988 J0.062
N20770 G3 X117.658 Y48.542 I-0.06 J0
N20780 G1 Z-3.01 F80
N20790 G3 X117.7 Y48.44 I0.042 J-0.042 F500
N20800 G2 X117.762 Y48.438 I0 J-0.99
N20810 X117.76 Y48.5 I0.988 J0.062
N20820 G3 X117.658 Y48.542 I-0.06 J0
N20830 G0 Z10
N20840 X136.903 Y93.922
N20850 Z5
N20860 G1 Z2.5 F500
N20870 Z-1.5
N20880 X136.887
N20890 X136.222
N20900 G3 X135.903 Y93.603 I0 J-0.319
N20910 G1 Y85.023
N20920 G3 X136.222 Y84.704 I0.319 J0
N20930 G1 X136.89
N20940 G3 X137.09 Y84.904 I0 J0.2
N20950 G1 X137.099 Y95.287
N20960 G3 X136.899 Y95.487 I-0.2 J0
N20970 G1 X134.658
N20980 G3 X134.338 Y95.167 I0 J-0.319
N20990 G1 Y83.459
N21000 G3 X134.658 Y83.139 I0.319 J0
N21010 G1 X136.892
N21020 G3 X137.092 Y83.339 I0 J0.2
N21030 G1 X137.096 Y96.851
N21040 G3 X136.896 Y97.051 I-0.2 J0
N21050 G1 X133.093
N21060 G3 X132.774 Y96.732 I0 J-0.319
N21070 G1 Y81.894
N21080 G3 X133.093 Y81.575 I0.319 J0
N21090 G1 X136.894
N21100 G3 X137.094 Y81.775 I0 J0.2
N21110 G1 Y98.416
N21120 G3 X136.894 Y98.616 I-0.2 J0
N21130 G1 X131.529
N21140 G3 X131.209 Y98.296 I0 J-0.319
N21150 G1 Y80.33
N21160 G3 X131.529 Y80.01 I0.319 J0
N21170 G1 X136.896
N21180 G3 X137.096 Y80.21 I0 J0.2
N21190 G1 X137.092 Y99.98
N21200 G3 X136.892 Y100.18 I-0.2 J0
N21210 G1 X129.964
N21220 G3 X129.645 Y99.861 I0 J-0.319
N21230 G1 Y78.765
N21240 G3 X129.964 Y78.446 I0.319 J0
N21250 G1 X136.898
N21260 G3 X137.098 Y78.646 I0 J0.2
N21270 G1 X137.09 Y101.544
N21280 G3 X136.89 Y101.744 I-0.2 J0
N21290 G1 X128.4
N21300 G3 X128.081 Y101.425 I0 J-0.319
N21310 G1 Y77.201
N21320 G3 X128.4 Y76.882 I0.319 J0
N21330 G1 X136.9
N21340 G3 X137.1 Y77.082 I0 J0.2
N21350 G1 X137.088 Y103.109
N21360 G3 X136.888 Y103.309 I-0.2 J0
N21370 G1 X126.835
N21380 G3 X126.516 Y102.99 I0 J-0.319
N21390 G1 Y75.636
N21400 G3 X126.835 Y75.317 I0.319 J0
N21410 G1 X136.888
N21420 G3 X137.088 Y75.517 I0 J0.2
N21430 G1 X137.1 Y104.673
N21440 G3 X136.9 Y104.873 I-0.2 J0
N21450 G1 X125.271
N21460 G3 X124.952 Y104.554 I0 J-0.319
N21470 G1 Y74.072
N21480 G3 X125.271 Y73.753 I0.319 J0
N21490 G1 X136.89
N21500 G3 X137.09 Y73.953 I0 J0.2
N21510 G1 X137.098 Y106.238
N21520 G3 X136.898 Y106.438 I-0.2 J0
N21530 G1 X123.707
N21540 G3 X123.387 Y106.118 I0 J-0.319
N21550 G1 Y72.508
N21560 G3 X123.707 Y72.188 I0.319 J0
N21570 G1 X136.892
N21580 G2 X136.907 Y71.789 I0 J-0.2
N21590 G1 X126.541 Y71.023
N21600 G3 X126.556 Y70.624 I0.015 J-0.199
N21610 G1 X131.446
N21620 X132.563
N21630 X136.894
N21640 G3 X137.094 Y70.824 I0 J0.2
N21650 G1 X137.096 Y107.802
N21660 G3 X136.896 Y108.002 I-0.2 J0
N21670 G1 X132.564
N21680 X131.447
N21690 X126.557
N21700 X125.44
N21710 X122.142
N21720 G3 X121.823 Y107.683 I0 J-0.319
N21730 G1 Y70.943
N21740 G3 X122.142 Y70.624 I0.319 J0
N21750 G1 X125.439
N21760 X125.454
N21770 Z2.5
N21780 X136.902 Y109.567
N21790 Z-1.5
N21800 X136.894
N21810 X120.578
N21820 G3 X120.258 Y109.247 I0 J-0.319
N21830 G1 Y69.379
N21840 G3 X120.578 Y69.059 I0.319 J0
N21850 G1 X136.896
N21860 G3 X137.096 Y69.259 I0 J0.2
N21870 G1 X137.089 Y110.936
N21880 G3 X136.889 Y111.136 I-0.2 J0
N21890 G1 X118.749
N21900 G2 X118.687 Y111.138 I0 J0.99
N21910 X118.689 Y111.076 I-0.988 J-0.062
N21920 G1 Y67.55
N21930 G2 X118.687 Y67.488 I-0.99 J0
N21940 X118.749 Y67.49 I0.062 J-0.988
N21950 G1 X136
N21960 X136.899
N21970 G3 X137.099 Y67.69 I0 J0.2
N21980 G1 X137.103 Y93.722
N21990 G3 X136.903 Y93.922 I-0.2 J0
N22000 G1 Z-3.01
N22010 X136.887
N22020 X136.222
N22030 G3 X135.903 Y93.603 I0 J-0.319
N22040 G1 Y85.023
N22050 G3 X136.222 Y84.704 I0.319 J0
N22060 G1 X136.89
N22070 G3 X137.09 Y84.904 I0 J0.2
N22080 G1 X137.099 Y95.287
N22090 G3 X136.899 Y95.487 I-0.2 J0
N22100 G1 X134.658
N22110 G3 X134.338 Y95.167 I0 J-0.319
N22120 G1 Y83.459
N22130 G3 X134.658 Y83.139 I0.319 J0
N22140 G1 X136.892
N22150 G3 X137.092 Y83.339 I0 J0.2
N22160 G1 X137.096 Y96.851
N22170 G3 X136.896 Y97.051 I-0.2 J0
N22180 G1 X133.093
N22190 G3 X132.774 Y96.732 I0 J-0.319
N22200 G1 Y81.894
N22210 G3 X133.093 Y81.575 I0.319 J0
N22220 G1 X136.894
N22230 G3 X137.094 Y81.775 I0 J0.2
N22240 G1 Y98.416
N22250 G3 X136.894 Y98.616 I-0.2 J0
N22260 G1 X131.529
N22270 G3 X131.209 Y98.296 I0 J-0.319
N22280 G1 Y80.33
N22290 G3 X131.529 Y80.01 I0.319 J0
N22300 G1 X136.896
N22310 G3 X137.096 Y80.21 I0 J0.2
N22320 G1 X137.092 Y99.98
N22330 G3 X136.892 Y100.18 I-0.2 J0
N22340 G1 X129.964
N22350 G3 X129.645 Y99.861 I0 J-0.319
N22360 G1 Y78.765
N22370 G3 X129.964 Y78.446 I0.319 J0
N22380 G1 X136.898
N22390 G3 X137.098 Y78.646 I0 J0.2
N22400 G1 X137.09 Y101.544
N22410 G3 X136.89 Y101.744 I-0.2 J0
N22420 G1 X128.4
N22430 G3 X128.081 Y101.425 I0 J-0.319
N22440 G1 Y77.201
N22450 G3 X128.4 Y76.882 I0.319 J0
N22460 G1 X136.9
N22470 G3 X137.1 Y77.082 I0 J0.2
N22480 G1 X137.088 Y103.109
N22490 G3 X136.888 Y103.309 I-0.2 J0
N22500 G1 X126.835
N22510 G3 X126.516 Y102.99 I0 J-0.319
N22520 G1 Y75.636
N22530 G3 X126.835 Y75.317 I0.319 J0
N22540 G1 X136.888
N22550 G3 X137.088 Y75.517 I0 J0.2
N22560 G1 X137.1 Y104.673
N22570 G3 X136.9 Y104.873 I-0.2 J0
N22580 G1 X125.271
N22590 G3 X124.952 Y104.554 I0 J-0.319
N22600 G1 Y74.072
N22610 G3 X125.271 Y73.753 I0.319 J0
N22620 G1 X136.89
N22630 G3 X137.09 Y73.953 I0 J0.2
N22640 G1 X137.098 Y106.238
N22650 G3 X136.898 Y106.438 I-0.2 J0
N22660 G1 X123.707
N22670 G3 X123.387 Y106.118 I0 J-0.319
N22680 G1 Y72.508
N22690 G3 X123.707 Y72.188 I0.319 J0
N22700 G1 X136.892
N22710 G2 X136.907 Y71.789 I0 J-0.2
N22720 G1 X126.541 Y71.023
N22730 G3 X126.556 Y70.624 I0.015 J-0.199
N22740 G1 X131.446
N22750 X132.563
N22760 X136.894
N22770 G3 X137.094 Y70.824 I0 J0.2
N22780 G1 X137.096 Y107.802
N22790 G3 X136.896 Y108.002 I-0.2 J0
N22800 G1 X132.564
N22810 X131.447
N22820 X126.557
N22830 X125.44
N22840 X122.142
N22850 G3 X121.823 Y107.683 I0 J-0.319
N22860 G1 Y70.943
N22870 G3 X122.142 Y70.624 I0.319 J0
N22880 G1 X125.439
N22890 X125.454
N22900 Z1
N22910 X136.902 Y109.567
N22920 Z-3.01
N22930 X136.894
N22940 X120.578
N22950 G3 X120.258 Y109.247 I0 J-0.319
N22960 G1 Y69.379
N22970 G3 X120.578 Y69.059 I0.319 J0
N22980 G1 X136.896
N22990 G3 X137.096 Y69.259 I0 J0.2
N23000 G1 X137.089 Y110.936
N23010 G3 X136.889 Y111.136 I-0.2 J0
N23020 G1 X118.749
N23030 G2 X118.687 Y111.138 I0 J0.99
N23040 X118.689 Y111.076 I-0.988 J-0.062
N23050 G1 Y67.55
N23060 G2 X118.687 Y67.488 I-0.99 J0
N23070 X118.749 Y67.49 I0.062 J-0.988
N23080 G1 X136
N23090 X136.899
N23100 G0 Z5
N23110 X117.759 Y66.5
N23120 G1 Z2.5 F80
N23130 Z-1.5
N23140 G2 X117.761 Y66.562 I0.99 J0 F500
N23150 X117.699 Y66.56 I-0.062 J0.988
N23160 G3 X117.657 Y66.458 I0 J-0.06
N23170 X117.759 Y66.5 I0.042 J0.042
N23180 G1 Z-3.01 F80
N23190 G2 X117.761 Y66.562 I0.99 J0 F500
N23200 X117.699 Y66.56 I-0.062 J0.988
N23210 G3 X117.657 Y66.458 I0 J-0.06
N23220 X117.759 Y66.5 I0.042 J0.042
N23230 G0 Z5
N23240 X117.699 Y112.066
N23250 G1 Z2.5 F80
N23260 Z-1.5
N23270 G2 X117.761 Y112.064 I0 J-0.99 F500
N23280 X117.759 Y112.126 I0.988 J0.062
N23290 G3 X117.639 I-0.06 J0
N23300 X117.699 Y112.066 I0.06 J0
N23310 G1 Z-3.01 F80
N23320 G2 X117.761 Y112.064 I0 J-0.99 F500
N23330 X117.759 Y112.126 I0.988 J0.062
N23340 G3 X117.639 I-0.06 J0
N23350 X117.699 Y112.066 I0.06 J0
N23360 G0 Z10

(2D ??6)
N23380 X104.679 Y93.264
N23390 Z10
N23400 Z5
N23410 G1 Z2.5 F80
N23420 Z-1.5
N23430 Y147.763 F500
N23440 G3 X104.417 Y148.438 I-1 J0
N23450 G2 X99.8 Y158.691 I13.282 J12.148
N23460 G3 X98.806 Y159.585 I-0.994 J-0.105
N23470 G1 X37.194
N23480 G3 X36.2 Y158.691 I0 J-1
N23490 G2 X31.583 Y148.438 I-17.9 J1.895
N23500 G3 X31.321 Y147.763 I0.738 J-0.675
N23510 G1 Y68.408
N23520 G3 X31.583 Y67.733 I1 J0
N23530 G2 X36.2 Y57.48 I-13.283 J-12.148
N23540 G3 X37.194 Y56.585 I0.994 J0.105
N23550 G1 X98.806
N23560 G3 X99.8 Y57.48 I0 J1
N23570 G2 X104.417 Y67.733 I17.9 J-1.895
N23580 G3 X104.679 Y68.408 I-0.738 J0.675
N23590 G1 Y93.264
N23600 Z-3 F80
N23610 Y147.763 F500
N23620 G3 X104.417 Y148.438 I-1 J0
N23630 G2 X99.8 Y158.691 I13.282 J12.148
N23640 G3 X98.806 Y159.585 I-0.994 J-0.105
N23650 G1 X37.194
N23660 G3 X36.2 Y158.691 I0 J-1
N23670 G2 X31.583 Y148.438 I-17.9 J1.895
N23680 G3 X31.321 Y147.763 I0.738 J-0.675
N23690 G1 Y68.408
N23700 G3 X31.583 Y67.733 I1 J0
N23710 G2 X36.2 Y57.48 I-13.283 J-12.148
N23720 G3 X37.194 Y56.585 I0.994 J0.105
N23730 G1 X98.806
N23740 G3 X99.8 Y57.48 I0 J1
N23750 G2 X104.417 Y67.733 I17.9 J-1.895
N23760 G3 X104.679 Y68.408 I-0.738 J0.675
N23770 G1 Y93.264
N23780 Z-4.5 F80
N23790 Y147.763 F500
N23800 G3 X104.417 Y148.438 I-1 J0
N23810 G2 X99.8 Y158.691 I13.282 J12.148
N23820 G3 X98.806 Y159.585 I-0.994 J-0.105
N23830 G1 X37.194
N23840 G3 X36.2 Y158.691 I0 J-1
N23850 G2 X31.583 Y148.438 I-17.9 J1.895
N23860 G3 X31.321 Y147.763 I0.738 J-0.675
N23870 G1 Y68.408
N23880 G3 X31.583 Y67.733 I1 J0
N23890 G2 X36.2 Y57.48 I-13.283 J-12.148
N23900 G3 X37.194 Y56.585 I0.994 J0.105
N23910 G1 X98.806
N23920 G3 X99.8 Y57.48 I0 J1
N23930 G2 X104.417 Y67.733 I17.9 J-1.895
N23940 G3 X104.679 Y68.408 I-0.738 J0.675
N23950 G1 Y93.264
N23960 Z-5.7 F80
N23970 Y147.763 F500
N23980 G3 X104.417 Y148.438 I-1 J0
N23990 G2 X99.8 Y158.691 I13.282 J12.148
N24000 G3 X98.806 Y159.585 I-0.994 J-0.105
N24010 G1 X37.194
N24020 G3 X36.2 Y158.691 I0 J-1
N24030 G2 X31.583 Y148.438 I-17.9 J1.895
N24040 G3 X31.321 Y147.763 I0.738 J-0.675
N24050 G1 Y68.408
N24060 G3 X31.583 Y67.733 I1 J0
N24070 G2 X36.2 Y57.48 I-13.283 J-12.148
N24080 G3 X37.194 Y56.585 I0.994 J0.105
N24090 G1 X98.806
N24100 G3 X99.8 Y57.48 I0 J1
N24110 G2 X104.417 Y67.733 I17.9 J-1.895
N24120 G3 X104.679 Y68.408 I-0.738 J0.675
N24130 G1 Y93.264
N24140 G0 Z5
N24150 X110.734 Y46.397
N24160 G1 Z2.5 F80
N24170 Z-1.5
N24180 G3 X110.649 Y46.362 I-0.035 J-0.035 F500
N24190 G2 X110.648 Y46.311 I-1 J0
N24200 X110.699 Y46.312 I0.051 J-0.999
N24210 G3 X110.734 Y46.397 I0 J0.05
N24220 G0 Z5
N24230 X109.699 Y40.362
N24240 G1 Z2.5 F80
N24250 Z-1.5
N24260 Y45.312 F500
N24270 G2 X109.7 Y45.363 I1 J0
N24280 X109.649 Y45.362 I-0.051 J0.999
N24290 G1 X88.749
N24300 G2 X88.698 Y45.363 I0 J1
N24310 X88.699 Y45.312 I-0.999 J-0.051
N24320 G1 Y35.412
N24330 G2 X88.698 Y35.361 I-1 J0
N24340 X88.749 Y35.362 I0.051 J-0.999
N24350 G1 X109.649
N24360 G2 X109.7 Y35.361 I0 J-1
N24370 X109.699 Y35.412 I0.999 J0.051
N24380 G1 Y40.362
N24390 Z-3 F80
N24400 Y45.312 F500
N24410 G2 X109.7 Y45.363 I1 J0
N24420 X109.649 Y45.362 I-0.051 J0.999
N24430 G1 X88.749
N24440 G2 X88.698 Y45.363 I0 J1
N24450 X88.699 Y45.312 I-0.999 J-0.051
N24460 G1 Y35.412
N24470 G2 X88.698 Y35.361 I-1 J0
N24480 X88.749 Y35.362 I0.051 J-0.999
N24490 G1 X109.649
N24500 G2 X109.7 Y35.361 I0 J-1
N24510 X109.699 Y35.412 I0.999 J0.051
N24520 G1 Y40.362
N24530 Z-4.5 F80
N24540 Y45.312 F500
N24550 G2 X109.7 Y45.363 I1 J0
N24560 X109.649 Y45.362 I-0.051 J0.999
N24570 G1 X88.749
N24580 G2 X88.698 Y45.363 I0 J1
N24590 X88.699 Y45.312 I-0.999 J-0.051
N24600 G1 Y35.412
N24610 G2 X88.698 Y35.361 I-1 J0
N24620 X88.749 Y35.362 I0.051 J-0.999
N24630 G1 X109.649
N24640 G2 X109.7 Y35.361 I0 J-1
N24650 X109.699 Y35.412 I0.999 J0.051
N24660 G1 Y40.362
N24670 Z-5.7 F80
N24680 Y45.312 F500
N24690 G2 X109.7 Y45.363 I1 J0
N24700 X109.649 Y45.362 I-0.051 J0.999
N24710 G1 X88.749
N24720 G2 X88.698 Y45.363 I0 J1
N24730 X88.699 Y45.312 I-0.999 J-0.051
N24740 G1 Y35.412
N24750 G2 X88.698 Y35.361 I-1 J0
N24760 X88.749 Y35.362 I0.051 J-0.999
N24770 G1 X109.649
N24780 G2 X109.7 Y35.361 I0 J-1
N24790 X109.699 Y35.412 I0.999 J0.051
N24800 G1 Y40.362
N24810 G0 Z5
N24820 X110.734 Y46.397
N24830 G1 Z1 F80
N24840 Z-3
N24850 G3 X110.649 Y46.362 I-0.035 J-0.035 F500
N24860 G2 X110.648 Y46.311 I-1 J0
N24870 X110.699 Y46.312 I0.051 J-0.999
N24880 G3 X110.734 Y46.397 I0 J0.05
N24890 G1 Z-4.5 F80
N24900 G3 X110.649 Y46.362 I-0.035 J-0.035 F500
N24910 G2 X110.648 Y46.311 I-1 J0
N24920 X110.699 Y46.312 I0.051 J-0.999
N24930 G3 X110.734 Y46.397 I0 J0.05
N24940 G1 Z-5.7 F80
N24950 G3 X110.649 Y46.362 I-0.035 J-0.035 F500
N24960 G2 X110.648 Y46.311 I-1 J0
N24970 X110.699 Y46.312 I0.051 J-0.999
N24980 G3 X110.734 Y46.397 I0 J0.05
N24990 G0 Z5
N25000 Y34.327
N25010 G1 Z2.5 F80
N25020 Z-1.5
N25030 G3 X110.699 Y34.412 I-0.035 J0.035 F500
N25040 G2 X110.648 Y34.413 I0 J1
N25050 X110.649 Y34.362 I-0.999 J-0.051
N25060 G3 X110.734 Y34.327 I0.05 J0
N25070 G1 Z-3 F80
N25080 G3 X110.699 Y34.412 I-0.035 J0.035 F500
N25090 G2 X110.648 Y34.413 I0 J1
N25100 X110.649 Y34.362 I-0.999 J-0.051
N25110 G3 X110.734 Y34.327 I0.05 J0
N25120 G1 Z-4.5 F80
N25130 G3 X110.699 Y34.412 I-0.035 J0.035 F500
N25140 G2 X110.648 Y34.413 I0 J1
N25150 X110.649 Y34.362 I-0.999 J-0.051
N25160 G3 X110.734 Y34.327 I0.05 J0
N25170 G1 Z-5.7 F80
N25180 G3 X110.699 Y34.412 I-0.035 J0.035 F500
N25190 G2 X110.648 Y34.413 I0 J1
N25200 X110.649 Y34.362 I-0.999 J-0.051
N25210 G3 X110.734 Y34.327 I0.05 J0
N25220 G0 Z5
N25230 X87.749 Y34.362
N25240 G1 Z2.5 F80
N25250 Z-1.5
N25260 G2 X87.751 Y34.413 I1 J0 F500
N25270 X87.699 Y34.412 I-0.051 J0.999
N25280 G3 Y34.312 I0 J-0.05
N25290 X87.749 Y34.362 I0 J0.05
N25300 G1 Z-3 F80
N25310 G2 X87.751 Y34.413 I1 J0 F500
N25320 X87.699 Y34.412 I-0.051 J0.999
N25330 G3 Y34.312 I0 J-0.05
N25340 X87.749 Y34.362 I0 J0.05
N25350 G1 Z-4.5 F80
N25360 G2 X87.751 Y34.413 I1 J0 F500
N25370 X87.699 Y34.412 I-0.051 J0.999
N25380 G3 Y34.312 I0 J-0.05
N25390 X87.749 Y34.362 I0 J0.05
N25400 G1 Z-5.7 F80
N25410 G2 X87.751 Y34.413 I1 J0 F500
N25420 X87.699 Y34.412 I-0.051 J0.999
N25430 G3 Y34.312 I0 J-0.05
N25440 X87.749 Y34.362 I0 J0.05
N25450 G0 Z5
N25460 Y46.362
N25470 G1 Z2.5 F80
N25480 Z-1.5
N25490 G3 X87.649 I-0.05 J0 F500
N25500 X87.699 Y46.312 I0.05 J0
N25510 G2 X87.751 Y46.311 I0 J-1
N25520 X87.749 Y46.362 I0.999 J0.051
N25530 G1 Z-3 F80
N25540 G3 X87.649 I-0.05 J0 F500
N25550 X87.699 Y46.312 I0.05 J0
N25560 G2 X87.751 Y46.311 I0 J-1
N25570 X87.749 Y46.362 I0.999 J0.051
N25580 G1 Z-4.5 F80
N25590 G3 X87.649 I-0.05 J0 F500
N25600 X87.699 Y46.312 I0.05 J0
N25610 G2 X87.751 Y46.311 I0 J-1
N25620 X87.749 Y46.362 I0.999 J0.051
N25630 G1 Z-5.7 F80
N25640 G3 X87.649 I-0.05 J0 F500
N25650 X87.699 Y46.312 I0.05 J0
N25660 G2 X87.751 Y46.311 I0 J-1
N25670 X87.749 Y46.362 I0.999 J0.051
N25680 G0 Z5
N25690 X75 Y39.746
N25700 G1 Z2.5 F80
N25710 Z-1.5
N25720 G3 X61 I-7 J0 F500
N25730 X75 I7 J0
N25740 G1 Z-3 F80
N25750 G3 X61 I-7 J0 F500
N25760 X75 I7 J0
N25770 G1 Z-4.5 F80
N25780 G3 X61 I-7 J0 F500
N25790 X75 I7 J0
N25800 G1 Z-5.7 F80
N25810 G3 X61 I-7 J0 F500
N25820 X75 I7 J0
N25830 G0 Z5
N25840 X48.351 Y34.362
N25850 G1 Z2.5 F80
N25860 Z-1.5
N25870 G3 X48.301 Y34.412 I-0.05 J0 F500
N25880 G2 X48.249 Y34.413 I0 J1
N25890 X48.251 Y34.362 I-0.999 J-0.051
N25900 G3 X48.351 I0.05 J0
N25910 G0 Z5
N25920 X47.301 Y40.362
N25930 G1 Z2.5 F80
N25940 Z-1.5
N25950 Y45.312 F500
N25960 G2 X47.302 Y45.363 I1 J0
N25970 X47.251 Y45.362 I-0.051 J0.999
N25980 G1 X26.351
N25990 G2 X26.299 Y45.363 I0 J1
N26000 X26.301 Y45.312 I-0.999 J-0.051
N26010 G1 Y35.412
N26020 G2 X26.299 Y35.361 I-1 J0
N26030 X26.351 Y35.362 I0.051 J-0.999
N26040 G1 X47.251
N26050 G2 X47.302 Y35.361 I0 J-1
N26060 X47.301 Y35.412 I0.999 J0.051
N26070 G1 Y40.362
N26080 Z-3 F80
N26090 Y45.312 F500
N26100 G2 X47.302 Y45.363 I1 J0
N26110 X47.251 Y45.362 I-0.051 J0.999
N26120 G1 X26.351
N26130 G2 X26.299 Y45.363 I0 J1
N26140 X26.301 Y45.312 I-0.999 J-0.051
N26150 G1 Y35.412
N26160 G2 X26.299 Y35.361 I-1 J0
N26170 X26.351 Y35.362 I0.051 J-0.999
N26180 G1 X47.251
N26190 G2 X47.302 Y35.361 I0 J-1
N26200 X47.301 Y35.412 I0.999 J0.051
N26210 G1 Y40.362
N26220 Z-4.5 F80
N26230 Y45.312 F500
N26240 G2 X47.302 Y45.363 I1 J0
N26250 X47.251 Y45.362 I-0.051 J0.999
N26260 G1 X26.351
N26270 G2 X26.299 Y45.363 I0 J1
N26280 X26.301 Y45.312 I-0.999 J-0.051
N26290 G1 Y35.412
N26300 G2 X26.299 Y35.361 I-1 J0
N26310 X26.351 Y35.362 I0.051 J-0.999
N26320 G1 X47.251
N26330 G2 X47.302 Y35.361 I0 J-1
N26340 X47.301 Y35.412 I0.999 J0.051
N26350 G1 Y40.362
N26360 Z-5.7 F80
N26370 Y45.312 F500
N26380 G2 X47.302 Y45.363 I1 J0
N26390 X47.251 Y45.362 I-0.051 J0.999
N26400 G1 X26.351
N26410 G2 X26.299 Y45.363 I0 J1
N26420 X26.301 Y45.312 I-0.999 J-0.051
N26430 G1 Y35.412
N26440 G2 X26.299 Y35.361 I-1 J0
N26450 X26.351 Y35.362 I0.051 J-0.999
N26460 G1 X47.251
N26470 G2 X47.302 Y35.361 I0 J-1
N26480 X47.301 Y35.412 I0.999 J0.051
N26490 G1 Y40.362
N26500 G0 Z5
N26510 X48.351 Y34.362
N26520 G1 Z1 F80
N26530 Z-3
N26540 G3 X48.301 Y34.412 I-0.05 J0 F500
N26550 G2 X48.249 Y34.413 I0 J1
N26560 X48.251 Y34.362 I-0.999 J-0.051
N26570 G3 X48.351 I0.05 J0
N26580 G1 Z-4.5 F80
N26590 G3 X48.301 Y34.412 I-0.05 J0 F500
N26600 G2 X48.249 Y34.413 I0 J1
N26610 X48.251 Y34.362 I-0.999 J-0.051
N26620 G3 X48.351 I0.05 J0
N26630 G1 Z-5.7 F80
N26640 G3 X48.301 Y34.412 I-0.05 J0 F500
N26650 G2 X48.249 Y34.413 I0 J1
N26660 X48.251 Y34.362 I-0.999 J-0.051
N26670 G3 X48.351 I0.05 J0
N26680 G0 Z5
N26690 X48.335 Y46.398
N26700 G1 Z2.5 F80
N26710 Z-1.5
N26720 G3 X48.251 Y46.362 I-0.034 J-0.036 F500
N26730 G2 X48.249 Y46.311 I-1 J0
N26740 X48.301 Y46.312 I0.051 J-0.999
N26750 G3 X48.335 Y46.398 I0 J0.05
N26760 G1 Z-3 F80
N26770 G3 X48.251 Y46.362 I-0.034 J-0.036 F500
N26780 G2 X48.249 Y46.311 I-1 J0
N26790 X48.301 Y46.312 I0.051 J-0.999
N26800 G3 X48.335 Y46.398 I0 J0.05
N26810 G1 Z-4.5 F80
N26820 G3 X48.251 Y46.362 I-0.034 J-0.036 F500
N26830 G2 X48.249 Y46.311 I-1 J0
N26840 X48.301 Y46.312 I0.051 J-0.999
N26850 G3 X48.335 Y46.398 I0 J0.05
N26860 G1 Z-5.7 F80
N26870 G3 X48.251 Y46.362 I-0.034 J-0.036 F500
N26880 G2 X48.249 Y46.311 I-1 J0
N26890 X48.301 Y46.312 I0.051 J-0.999
N26900 G3 X48.335 Y46.398 I0 J0.05
N26910 G0 Z5
N26920 X25.351 Y46.363
N26930 G1 Z2.5 F80
N26940 Z-1.5
N26950 G3 X25.251 Y46.361 I-0.05 J-0.001 F500
N26960 X25.301 Y46.312 I0.05 J0.001
N26970 G2 X25.352 Y46.311 I0 J-1
N26980 X25.351 Y46.362 I0.999 J0.051
N26990 G1 Y46.363
N27000 Z-3 F80
N27010 G3 X25.251 Y46.361 I-0.05 J-0.001 F500
N27020 X25.301 Y46.312 I0.05 J0.001
N27030 G2 X25.352 Y46.311 I0 J-1
N27040 X25.351 Y46.362 I0.999 J0.051
N27050 G1 Y46.363
N27060 Z-4.5 F80
N27070 G3 X25.251 Y46.361 I-0.05 J-0.001 F500
N27080 X25.301 Y46.312 I0.05 J0.001
N27090 G2 X25.352 Y46.311 I0 J-1
N27100 X25.351 Y46.362 I0.999 J0.051
N27110 G1 Y46.363
N27120 Z-5.7 F80
N27130 G3 X25.251 Y46.361 I-0.05 J-0.001 F500
N27140 X25.301 Y46.312 I0.05 J0.001
N27150 G2 X25.352 Y46.311 I0 J-1
N27160 X25.351 Y46.362 I0.999 J0.051
N27170 G1 Y46.363
N27180 G0 Z5
N27190 Y34.362
N27200 G1 Z2.5 F80
N27210 Z-1.5
N27220 G2 X25.352 Y34.413 I1 J0 F500
N27230 X25.301 Y34.412 I-0.051 J0.999
N27240 G3 Y34.312 I0 J-0.05
N27250 X25.351 Y34.362 I0 J0.05
N27260 G1 Z-3 F80
N27270 G2 X25.352 Y34.413 I1 J0 F500
N27280 X25.301 Y34.412 I-0.051 J0.999
N27290 G3 Y34.312 I0 J-0.05
N27300 X25.351 Y34.362 I0 J0.05
N27310 G1 Z-4.5 F80
N27320 G2 X25.352 Y34.413 I1 J0 F500
N27330 X25.301 Y34.412 I-0.051 J0.999
N27340 G3 Y34.312 I0 J-0.05
N27350 X25.351 Y34.362 I0 J0.05
N27360 G1 Z-5.7 F80
N27370 G2 X25.352 Y34.413 I1 J0 F500
N27380 X25.301 Y34.412 I-0.051 J0.999
N27390 G3 Y34.312 I0 J-0.05
N27400 X25.351 Y34.362 I0 J0.05
N27410 G0 Z10

(2D ??8)
N27430 X68 Y7
N27440 Z10
N27450 Z5
N27460 G1 Z2.5 F80
N27470 Z-1.5
N27480 X46.259 F500
N27490 X3.182 Y-0.983
N27500 G2 X2.008 Y-0.129 I-0.182 J0.983
N27510 G1 X-0.992 Y22.871
N27520 G2 X-1 Y23 I0.992 J0.129
N27530 G1 Y171.724
N27540 G2 X-0.992 Y171.853 I1 J0
N27550 G1 X2.001 Y194.793
N27560 G2 X3.177 Y195.647 I0.992 J-0.129
N27570 G1 X45.28 Y187.724
N27580 X90.72
N27590 X132.823 Y195.647
N27600 G2 X134 Y194.793 I0.185 J-0.983
N27610 G1 X136.992 Y171.853
N27620 G2 X137 Y171.724 I-0.992 J-0.129
N27630 G1 Y23
N27640 G2 X136.992 Y22.871 I-1 J0
N27650 G1 X133.992 Y-0.129
N27660 G2 X132.777 Y-0.975 I-0.992 J0.129
N27670 G1 X97.887 Y7
N27680 X68
N27690 Z-3 F80
N27700 X46.259 F500
N27710 X3.182 Y-0.983
N27720 G2 X2.008 Y-0.129 I-0.182 J0.983
N27730 G1 X-0.992 Y22.871
N27740 G2 X-1 Y23 I0.992 J0.129
N27750 G1 Y171.724
N27760 G2 X-0.992 Y171.853 I1 J0
N27770 G1 X2.001 Y194.793
N27780 G2 X3.177 Y195.647 I0.992 J-0.129
N27790 G1 X45.28 Y187.724
N27800 X90.72
N27810 X132.823 Y195.647
N27820 G2 X134 Y194.793 I0.185 J-0.983
N27830 G1 X136.992 Y171.853
N27840 G2 X137 Y171.724 I-0.992 J-0.129
N27850 G1 Y23
N27860 G2 X136.992 Y22.871 I-1 J0
N27870 G1 X133.992 Y-0.129
N27880 G2 X132.777 Y-0.975 I-0.992 J0.129
N27890 G1 X97.887 Y7
N27900 X68
N27910 Z-4.5 F80
N27920 X46.259 F500
N27930 X3.182 Y-0.983
N27940 G2 X2.008 Y-0.129 I-0.182 J0.983
N27950 G1 X-0.992 Y22.871
N27960 G2 X-1 Y23 I0.992 J0.129
N27970 G1 Y171.724
N27980 G2 X-0.992 Y171.853 I1 J0
N27990 G1 X2.001 Y194.793
N28000 G2 X3.177 Y195.647 I0.992 J-0.129
N28010 G1 X45.28 Y187.724
N28020 X90.72
N28030 X132.823 Y195.647
N28040 G2 X134 Y194.793 I0.185 J-0.983
N28050 G1 X136.992 Y171.853
N28060 G2 X137 Y171.724 I-0.992 J-0.129
N28070 G1 Y23
N28080 G2 X136.992 Y22.871 I-1 J0
N28090 G1 X133.992 Y-0.129
N28100 G2 X132.777 Y-0.975 I-0.992 J0.129
N28110 G1 X97.887 Y7
N28120 X68
N28130 Z-5.7 F80
N28140 X46.259 F500
N28150 X3.182 Y-0.983
N28160 G2 X2.008 Y-0.129 I-0.182 J0.983
N28170 G1 X-0.992 Y22.871
N28180 G2 X-1 Y23 I0.992 J0.129
N28190 G1 Y171.724
N28200 G2 X-0.992 Y171.853 I1 J0
N28210 G1 X2.001 Y194.793
N28220 G2 X3.177 Y195.647 I0.992 J-0.129
N28230 G1 X45.28 Y187.724
N28240 X90.72
N28250 X132.823 Y195.647
N28260 G2 X134 Y194.793 I0.185 J-0.983
N28270 G1 X136.992 Y171.853
N28280 G2 X137 Y171.724 I-0.992 J-0.129
N28290 G1 Y23
N28300 G2 X136.992 Y22.871 I-1 J0
N28310 G1 X133.992 Y-0.129
N28320 G2 X132.777 Y-0.975 I-0.992 J0.129
N28330 G1 X97.887 Y7
N28340 X68
N28350 G0 Z10
N28370 Z10
N28380 X0 Y0
N28390 M30
%
