%
( File Created by VCarve Pro )
T1 M6
G21 G90
G17
G0 Z 20.000
G0 X 0.000 Y 0.000
G0 X 11.810 Y 11.714 Z 6.000
G1   Z -1.450 F15000.0
G3 X 10.660 Y 12.864 I-1.150 J0.000 F39000.0
G3 X 9.510 Y 11.714 I0.000 J-1.150
G3 X 10.660 Y 10.564 I1.150 J0.000
G3 X 11.810 Y 11.714 I0.000 J1.150
G1   Z -2.900 F15000.0
G3 X 10.660 Y 12.864 I-1.150 J0.000 F39000.0
G3 X 9.510 Y 11.714 I0.000 J-1.150
G3 X 10.660 Y 10.564 I1.150 J0.000
G3 X 11.810 Y 11.714 I0.000 J1.150
G1   Z -4.350 F15000.0
G3 X 10.660 Y 12.864 I-1.150 J0.000 F39000.0
G3 X 9.510 Y 11.714 I0.000 J-1.150
G3 X 10.660 Y 10.564 I1.150 J0.000
G3 X 11.810 Y 11.714 I0.000 J1.150
G1   Z -5.800 F15000.0
G3 X 10.660 Y 12.864 I-1.150 J0.000 F39000.0
G3 X 9.510 Y 11.714 I0.000 J-1.150
G3 X 10.660 Y 10.564 I1.150 J0.000
G3 X 11.810 Y 11.714 I0.000 J1.150
G0   Z 6.000
G0 X 20.228 Y 6.714 
G1   Z -1.450 F15000.0
G3 X 19.078 Y 7.864 I-1.150 J0.000 F39000.0
G3 X 17.928 Y 6.714 I0.000 J-1.150
G3 X 19.078 Y 5.564 I1.150 J0.000
G3 X 20.228 Y 6.714 I0.000 J1.150
G1   Z -2.900 F15000.0
G3 X 19.078 Y 7.864 I-1.150 J0.000 F39000.0
G3 X 17.928 Y 6.714 I0.000 J-1.150
G3 X 19.078 Y 5.564 I1.150 J0.000
G3 X 20.228 Y 6.714 I0.000 J1.150
G1   Z -4.350 F15000.0
G3 X 19.078 Y 7.864 I-1.150 J0.000 F39000.0
G3 X 17.928 Y 6.714 I0.000 J-1.150
G3 X 19.078 Y 5.564 I1.150 J0.000
G3 X 20.228 Y 6.714 I0.000 J1.150
G1   Z -5.800 F15000.0
G3 X 19.078 Y 7.864 I-1.150 J0.000 F39000.0
G3 X 17.928 Y 6.714 I0.000 J-1.150
G3 X 19.078 Y 5.564 I1.150 J0.000
G3 X 20.228 Y 6.714 I0.000 J1.150
G0   Z 6.000
G0 X 6.965 Y 25.714 
G1   Z -1.450 F15000.0
G3 X 5.815 Y 26.864 I-1.150 J0.000 F39000.0
G3 X 4.665 Y 25.714 I0.000 J-1.150
G3 X 5.815 Y 24.564 I1.150 J0.000
G3 X 6.965 Y 25.714 I0.000 J1.150
G1   Z -2.900 F15000.0
G3 X 5.815 Y 26.864 I-1.150 J0.000 F39000.0
G3 X 4.665 Y 25.714 I0.000 J-1.150
G3 X 5.815 Y 24.564 I1.150 J0.000
G3 X 6.965 Y 25.714 I0.000 J1.150
G1   Z -4.350 F15000.0
G3 X 5.815 Y 26.864 I-1.150 J0.000 F39000.0
G3 X 4.665 Y 25.714 I0.000 J-1.150
G3 X 5.815 Y 24.564 I1.150 J0.000
G3 X 6.965 Y 25.714 I0.000 J1.150
G1   Z -5.800 F15000.0
G3 X 5.815 Y 26.864 I-1.150 J0.000 F39000.0
G3 X 4.665 Y 25.714 I0.000 J-1.150
G3 X 5.815 Y 24.564 I1.150 J0.000
G3 X 6.965 Y 25.714 I0.000 J1.150
G0   Z 6.000
G0  Y 39.714 
G1   Z -1.450 F15000.0
G3 X 5.815 Y 40.864 I-1.150 J0.000 F39000.0
G3 X 4.665 Y 39.714 I0.000 J-1.150
G3 X 5.815 Y 38.564 I1.150 J0.000
G3 X 6.965 Y 39.714 I0.000 J1.150
G1   Z -2.900 F15000.0
G3 X 5.815 Y 40.864 I-1.150 J0.000 F39000.0
G3 X 4.665 Y 39.714 I0.000 J-1.150
G3 X 5.815 Y 38.564 I1.150 J0.000
G3 X 6.965 Y 39.714 I0.000 J1.150
G1   Z -4.350 F15000.0
G3 X 5.815 Y 40.864 I-1.150 J0.000 F39000.0
G3 X 4.665 Y 39.714 I0.000 J-1.150
G3 X 5.815 Y 38.564 I1.150 J0.000
G3 X 6.965 Y 39.714 I0.000 J1.150
G1   Z -5.800 F15000.0
G3 X 5.815 Y 40.864 I-1.150 J0.000 F39000.0
G3 X 4.665 Y 39.714 I0.000 J-1.150
G3 X 5.815 Y 38.564 I1.150 J0.000
G3 X 6.965 Y 39.714 I0.000 J1.150
G0   Z 6.000
G0 X 20.443 Y 38.720 
G1   Z -1.450 F15000.0
G3 X 19.293 Y 39.870 I-1.150 J0.000 F39000.0
G3 X 18.143 Y 38.720 I0.000 J-1.150
G3 X 19.293 Y 37.570 I1.150 J0.000
G3 X 20.443 Y 38.720 I0.000 J1.150
G1   Z -2.900 F15000.0
G3 X 19.293 Y 39.870 I-1.150 J0.000 F39000.0
G3 X 18.143 Y 38.720 I0.000 J-1.150
G3 X 19.293 Y 37.570 I1.150 J0.000
G3 X 20.443 Y 38.720 I0.000 J1.150
G1   Z -4.350 F15000.0
G3 X 19.293 Y 39.870 I-1.150 J0.000 F39000.0
G3 X 18.143 Y 38.720 I0.000 J-1.150
G3 X 19.293 Y 37.570 I1.150 J0.000
G3 X 20.443 Y 38.720 I0.000 J1.150
G1   Z -5.800 F15000.0
G3 X 19.293 Y 39.870 I-1.150 J0.000 F39000.0
G3 X 18.143 Y 38.720 I0.000 J-1.150
G3 X 19.293 Y 37.570 I1.150 J0.000
G3 X 20.443 Y 38.720 I0.000 J1.150
G0   Z 6.000
G0 X 90.827 Y 42.364 
G1   Z -1.450 F15000.0
G3 X 89.677 Y 43.514 I-1.150 J0.000 F39000.0
G3 X 88.527 Y 42.364 I0.000 J-1.150
G3 X 89.677 Y 41.214 I1.150 J0.000
G3 X 90.827 Y 42.364 I0.000 J1.150
G1   Z -2.900 F15000.0
G3 X 89.677 Y 43.514 I-1.150 J0.000 F39000.0
G3 X 88.527 Y 42.364 I0.000 J-1.150
G3 X 89.677 Y 41.214 I1.150 J0.000
G3 X 90.827 Y 42.364 I0.000 J1.150
G1   Z -4.350 F15000.0
G3 X 89.677 Y 43.514 I-1.150 J0.000 F39000.0
G3 X 88.527 Y 42.364 I0.000 J-1.150
G3 X 89.677 Y 41.214 I1.150 J0.000
G3 X 90.827 Y 42.364 I0.000 J1.150
G1   Z -5.800 F15000.0
G3 X 89.677 Y 43.514 I-1.150 J0.000 F39000.0
G3 X 88.527 Y 42.364 I0.000 J-1.150
G3 X 89.677 Y 41.214 I1.150 J0.000
G3 X 90.827 Y 42.364 I0.000 J1.150
G0   Z 6.000
G0 X 111.327 Y 40.214 
G1   Z -1.450 F15000.0
G3 X 110.177 Y 41.364 I-1.150 J0.000 F39000.0
G3 X 109.027 Y 40.214 I0.000 J-1.150
G3 X 110.177 Y 39.064 I1.150 J0.000
G3 X 111.327 Y 40.214 I0.000 J1.150
G1   Z -2.900 F15000.0
G3 X 110.177 Y 41.364 I-1.150 J0.000 F39000.0
G3 X 109.027 Y 40.214 I0.000 J-1.150
G3 X 110.177 Y 39.064 I1.150 J0.000
G3 X 111.327 Y 40.214 I0.000 J1.150
G1   Z -4.350 F15000.0
G3 X 110.177 Y 41.364 I-1.150 J0.000 F39000.0
G3 X 109.027 Y 40.214 I0.000 J-1.150
G3 X 110.177 Y 39.064 I1.150 J0.000
G3 X 111.327 Y 40.214 I0.000 J1.150
G1   Z -5.800 F15000.0
G3 X 110.177 Y 41.364 I-1.150 J0.000 F39000.0
G3 X 109.027 Y 40.214 I0.000 J-1.150
G3 X 110.177 Y 39.064 I1.150 J0.000
G3 X 111.327 Y 40.214 I0.000 J1.150
G0   Z 6.000
G0 X 141.327  
G1   Z -1.450 F15000.0
G3 X 140.177 Y 41.364 I-1.150 J0.000 F39000.0
G3 X 139.027 Y 40.214 I0.000 J-1.150
G3 X 140.177 Y 39.064 I1.150 J0.000
G3 X 141.327 Y 40.214 I0.000 J1.150
G1   Z -2.900 F15000.0
G3 X 140.177 Y 41.364 I-1.150 J0.000 F39000.0
G3 X 139.027 Y 40.214 I0.000 J-1.150
G3 X 140.177 Y 39.064 I1.150 J0.000
G3 X 141.327 Y 40.214 I0.000 J1.150
G1   Z -4.350 F15000.0
G3 X 140.177 Y 41.364 I-1.150 J0.000 F39000.0
G3 X 139.027 Y 40.214 I0.000 J-1.150
G3 X 140.177 Y 39.064 I1.150 J0.000
G3 X 141.327 Y 40.214 I0.000 J1.150
G1   Z -5.800 F15000.0
G3 X 140.177 Y 41.364 I-1.150 J0.000 F39000.0
G3 X 139.027 Y 40.214 I0.000 J-1.150
G3 X 140.177 Y 39.064 I1.150 J0.000
G3 X 141.327 Y 40.214 I0.000 J1.150
G0   Z 6.000
G0 X 185.689 Y 39.714 
G1   Z -1.450 F15000.0
G3 X 184.539 Y 40.864 I-1.150 J0.000 F39000.0
G3 X 183.389 Y 39.714 I0.000 J-1.150
G3 X 184.539 Y 38.564 I1.150 J0.000
G3 X 185.689 Y 39.714 I0.000 J1.150
G1   Z -2.900 F15000.0
G3 X 184.539 Y 40.864 I-1.150 J0.000 F39000.0
G3 X 183.389 Y 39.714 I0.000 J-1.150
G3 X 184.539 Y 38.564 I1.150 J0.000
G3 X 185.689 Y 39.714 I0.000 J1.150
G1   Z -4.350 F15000.0
G3 X 184.539 Y 40.864 I-1.150 J0.000 F39000.0
G3 X 183.389 Y 39.714 I0.000 J-1.150
G3 X 184.539 Y 38.564 I1.150 J0.000
G3 X 185.689 Y 39.714 I0.000 J1.150
G1   Z -5.800 F15000.0
G3 X 184.539 Y 40.864 I-1.150 J0.000 F39000.0
G3 X 183.389 Y 39.714 I0.000 J-1.150
G3 X 184.539 Y 38.564 I1.150 J0.000
G3 X 185.689 Y 39.714 I0.000 J1.150
G0   Z 6.000
G0  Y 25.714 
G1   Z -1.450 F15000.0
G3 X 184.539 Y 26.864 I-1.150 J0.000 F39000.0
G3 X 183.389 Y 25.714 I0.000 J-1.150
G3 X 184.539 Y 24.564 I1.150 J0.000
G3 X 185.689 Y 25.714 I0.000 J1.150
G1   Z -2.900 F15000.0
G3 X 184.539 Y 26.864 I-1.150 J0.000 F39000.0
G3 X 183.389 Y 25.714 I0.000 J-1.150
G3 X 184.539 Y 24.564 I1.150 J0.000
G3 X 185.689 Y 25.714 I0.000 J1.150
G1   Z -4.350 F15000.0
G3 X 184.539 Y 26.864 I-1.150 J0.000 F39000.0
G3 X 183.389 Y 25.714 I0.000 J-1.150
G3 X 184.539 Y 24.564 I1.150 J0.000
G3 X 185.689 Y 25.714 I0.000 J1.150
G1   Z -5.800 F15000.0
G3 X 184.539 Y 26.864 I-1.150 J0.000 F39000.0
G3 X 183.389 Y 25.714 I0.000 J-1.150
G3 X 184.539 Y 24.564 I1.150 J0.000
G3 X 185.689 Y 25.714 I0.000 J1.150
G0   Z 6.000
G0 X 180.845 Y 11.714 
G1   Z -1.450 F15000.0
G3 X 179.695 Y 12.864 I-1.150 J0.000 F39000.0
G3 X 178.545 Y 11.714 I0.000 J-1.150
G3 X 179.695 Y 10.564 I1.150 J0.000
G3 X 180.845 Y 11.714 I0.000 J1.150
G1   Z -2.900 F15000.0
G3 X 179.695 Y 12.864 I-1.150 J0.000 F39000.0
G3 X 178.545 Y 11.714 I0.000 J-1.150
G3 X 179.695 Y 10.564 I1.150 J0.000
G3 X 180.845 Y 11.714 I0.000 J1.150
G1   Z -4.350 F15000.0
G3 X 179.695 Y 12.864 I-1.150 J0.000 F39000.0
G3 X 178.545 Y 11.714 I0.000 J-1.150
G3 X 179.695 Y 10.564 I1.150 J0.000
G3 X 180.845 Y 11.714 I0.000 J1.150
G1   Z -5.800 F15000.0
G3 X 179.695 Y 12.864 I-1.150 J0.000 F39000.0
G3 X 178.545 Y 11.714 I0.000 J-1.150
G3 X 179.695 Y 10.564 I1.150 J0.000
G3 X 180.845 Y 11.714 I0.000 J1.150
G0   Z 6.000
G0 X 172.427 Y 6.714 
G1   Z -1.450 F15000.0
G3 X 171.277 Y 7.864 I-1.150 J0.000 F39000.0
G3 X 170.127 Y 6.714 I0.000 J-1.150
G3 X 171.277 Y 5.564 I1.150 J0.000
G3 X 172.427 Y 6.714 I0.000 J1.150
G1   Z -2.900 F15000.0
G3 X 171.277 Y 7.864 I-1.150 J0.000 F39000.0
G3 X 170.127 Y 6.714 I0.000 J-1.150
G3 X 171.277 Y 5.564 I1.150 J0.000
G3 X 172.427 Y 6.714 I0.000 J1.150
G1   Z -4.350 F15000.0
G3 X 171.277 Y 7.864 I-1.150 J0.000 F39000.0
G3 X 170.127 Y 6.714 I0.000 J-1.150
G3 X 171.277 Y 5.564 I1.150 J0.000
G3 X 172.427 Y 6.714 I0.000 J1.150
G1   Z -5.800 F15000.0
G3 X 171.277 Y 7.864 I-1.150 J0.000 F39000.0
G3 X 170.127 Y 6.714 I0.000 J-1.150
G3 X 171.277 Y 5.564 I1.150 J0.000
G3 X 172.427 Y 6.714 I0.000 J1.150
G0   Z 6.000
G0 X -1.000 Y 46.714 Z 6.000
G1   Z -1.450 F15000.0
G2 X -0.000 Y 47.714 I1.000 J0.000 F39000.0
G1 X 190.355   
G2 X 191.355 Y 46.714 I0.000 J-1.000 
G1  Y 16.714  
G2 X 190.971 Y 15.926 I-1.000 J0.000 
G1 X 185.694 Y 11.802  
G2 X 177.257 Y 6.232 I-5.999 J-0.087 
G2 X 167.667 Y 1.921 I-5.981 J0.483
G2 X 170.124 Y 12.603 I3.610 J4.793
G1 X 175.385 Y 21.714  
X 165.281 Y 39.214 
X 146.094  
G2 X 140.177 Y 34.214 I-5.916 J1.000 
G2 X 134.261 Y 39.214 I0.000 J6.000
G1 X 116.094   
G2 X 110.177 Y 34.214 I-5.916 J1.000 
G2 X 104.261 Y 39.214 I0.000 J6.000
G1 X 94.713   
X 94.068 Y 38.292 
G2 X 93.248 Y 37.864 I-0.820 J0.573 
G1 X 86.107   
G2 X 85.287 Y 38.292 I0.000 J1.000 
G1 X 84.642 Y 39.214  
X 25.074  
X 14.970 Y 21.714 
X 20.231 Y 12.603 
G2 X 22.688 Y 1.921 I-1.152 J-5.888 
G2 X 13.098 Y 6.232 I-3.609 J4.793
G2 X 4.661 Y 11.802 I-2.437 J5.483
G1 X -0.616 Y 15.926  
G2 X -1.000 Y 16.714 I0.616 J0.788 
G1  Y 46.714  
G1   Z -2.900 F15000.0
G2 X -0.000 Y 47.714 I1.000 J0.000 F39000.0
G1 X 190.355   
G2 X 191.355 Y 46.714 I0.000 J-1.000 
G1  Y 16.714  
G2 X 190.971 Y 15.926 I-1.000 J0.000 
G1 X 185.694 Y 11.802  
G2 X 177.257 Y 6.232 I-5.999 J-0.087 
G2 X 167.667 Y 1.921 I-5.981 J0.483
G2 X 170.124 Y 12.603 I3.610 J4.793
G1 X 175.385 Y 21.714  
X 165.281 Y 39.214 
X 146.094  
G2 X 140.177 Y 34.214 I-5.916 J1.000 
G2 X 134.261 Y 39.214 I0.000 J6.000
G1 X 116.094   
G2 X 110.177 Y 34.214 I-5.916 J1.000 
G2 X 104.261 Y 39.214 I0.000 J6.000
G1 X 94.713   
X 94.068 Y 38.292 
G2 X 93.248 Y 37.864 I-0.820 J0.573 
G1 X 86.107   
G2 X 85.287 Y 38.292 I0.000 J1.000 
G1 X 84.642 Y 39.214  
X 25.074  
X 14.970 Y 21.714 
X 20.231 Y 12.603 
G2 X 22.688 Y 1.921 I-1.152 J-5.888 
G2 X 13.098 Y 6.232 I-3.609 J4.793
G2 X 4.661 Y 11.802 I-2.437 J5.483
G1 X -0.616 Y 15.926  
G2 X -1.000 Y 16.714 I0.616 J0.788 
G1  Y 46.714  
G1   Z -4.350 F15000.0
G2 X -0.000 Y 47.714 I1.000 J0.000 F39000.0
G1 X 190.355   
G2 X 191.355 Y 46.714 I0.000 J-1.000 
G1  Y 16.714  
G2 X 190.971 Y 15.926 I-1.000 J0.000 
G1 X 185.694 Y 11.802  
G2 X 177.257 Y 6.232 I-5.999 J-0.087 
G2 X 167.667 Y 1.921 I-5.981 J0.483
G2 X 170.124 Y 12.603 I3.610 J4.793
G1 X 175.385 Y 21.714  
X 165.281 Y 39.214 
X 146.094  
G2 X 140.177 Y 34.214 I-5.916 J1.000 
G2 X 134.261 Y 39.214 I0.000 J6.000
G1 X 116.094   
G2 X 110.177 Y 34.214 I-5.916 J1.000 
G2 X 104.261 Y 39.214 I0.000 J6.000
G1 X 94.713   
X 94.068 Y 38.292 
G2 X 93.248 Y 37.864 I-0.820 J0.573 
G1 X 86.107   
G2 X 85.287 Y 38.292 I0.000 J1.000 
G1 X 84.642 Y 39.214  
X 25.074  
X 14.970 Y 21.714 
X 20.231 Y 12.603 
G2 X 22.688 Y 1.921 I-1.152 J-5.888 
G2 X 13.098 Y 6.232 I-3.609 J4.793
G2 X 4.661 Y 11.802 I-2.437 J5.483
G1 X -0.616 Y 15.926  
G2 X -1.000 Y 16.714 I0.616 J0.788 
G1  Y 46.714  
G1   Z -5.800 F15000.0
G2 X -0.000 Y 47.714 I1.000 J0.000 F39000.0
G1 X 190.355   
G2 X 191.355 Y 46.714 I0.000 J-1.000 
G1  Y 16.714  
G2 X 190.971 Y 15.926 I-1.000 J0.000 
G1 X 185.694 Y 11.802  
G2 X 177.257 Y 6.232 I-5.999 J-0.087 
G2 X 167.667 Y 1.921 I-5.981 J0.483
G2 X 170.124 Y 12.603 I3.610 J4.793
G1 X 175.385 Y 21.714  
X 165.281 Y 39.214 
X 146.094  
G2 X 140.177 Y 34.214 I-5.916 J1.000 
G2 X 134.261 Y 39.214 I0.000 J6.000
G1 X 116.094   
G2 X 110.177 Y 34.214 I-5.916 J1.000 
G2 X 104.261 Y 39.214 I0.000 J6.000
G1 X 94.713   
X 94.068 Y 38.292 
G2 X 93.248 Y 37.864 I-0.820 J0.573 
G1 X 86.107   
G2 X 85.287 Y 38.292 I0.000 J1.000 
G1 X 84.642 Y 39.214  
X 25.074  
X 14.970 Y 21.714 
X 20.231 Y 12.603 
G2 X 22.688 Y 1.921 I-1.152 J-5.888 
G2 X 13.098 Y 6.232 I-3.609 J4.793
G2 X 4.661 Y 11.802 I-2.437 J5.483
G1 X -0.616 Y 15.926  
G2 X -1.000 Y 16.714 I0.616 J0.788 
G1  Y 46.714  
G0   Z 6.000
G0 Z 20.000
G0 X 0.000 Y 0.000
(END OF PROGRAM)
%
