%
(1001)
(T1 D=2 CR=0 - ZMIN=-5.7 - flat end mill)
N10 G90 G94
N20 G17
N30 G21
N40 M9
N50 G0 Z10
N60 X0 Y0

(2D ??2)
N70 T1 M6
N80 S8000 M3
N90 G54
N110 G0 X72.959 Y97.321
N120 G43 Z10
N130 Z5
N140 G1 Z2.5 F80
N150 Z-1.5
N160 G3 X64.959 Y105.321 I-8 J0 F500
N170 Y89.321 I0 J-8
N180 X72.959 Y97.321 I0 J8
N190 G1 Z-3 F80
N200 G3 X64.959 Y105.321 I-8 J0 F500
N210 Y89.321 I0 J-8
N220 X72.959 Y97.321 I0 J8
N230 G1 Z-4.5 F80
N240 G3 X64.959 Y105.321 I-8 J0 F500
N250 Y89.321 I0 J-8
N260 X72.959 Y97.321 I0 J8
N270 G1 Z-5.7 F80
N280 G3 X64.959 Y105.321 I-8 J0 F500
N290 Y89.321 I0 J-8
N300 X72.959 Y97.321 I0 J8
N310 G0 Z5
N320 X73.5 Y112.362
N330 G1 Z2.5 F80
N340 Z-1.5
N350 G3 X72.3 I-0.6 J0 F500
N360 X73.5 I0.6 J0
N370 G1 Z-3 F80
N380 G3 X72.3 I-0.6 J0 F500
N390 X73.5 I0.6 J0
N400 G1 Z-4.5 F80
N410 G3 X72.3 I-0.6 J0 F500
N420 X73.5 I0.6 J0
N430 G1 Z-5.7 F80
N440 G3 X72.3 I-0.6 J0 F500
N450 X73.5 I0.6 J0
N460 G0 Z5
N470 Y142.377
N480 G1 Z2.5 F80
N490 Z-1.5
N500 G3 X72.3 Y142.347 I-0.6 J-0.015 F500
N510 X73.5 Y142.362 I0.6 J0.015
N520 Y142.377 I-0.6 J0
N530 G1 Z-3 F80
N540 G3 X72.3 Y142.347 I-0.6 J-0.015 F500
N550 X73.5 Y142.362 I0.6 J0.015
N560 Y142.377 I-0.6 J0
N570 G1 Z-4.5 F80
N580 G3 X72.3 Y142.347 I-0.6 J-0.015 F500
N590 X73.5 Y142.362 I0.6 J0.015
N600 Y142.377 I-0.6 J0
N610 G1 Z-5.7 F80
N620 G3 X72.3 Y142.347 I-0.6 J-0.015 F500
N630 X73.5 Y142.362 I0.6 J0.015
N640 Y142.377 I-0.6 J0
N650 G0 Z5
N660 X73.322 Y156.976
N670 G1 Z2.5 F80
N680 Z-1.5
N690 Y166.966 F500
N700 G2 X72.958 Y167.761 I0.736 J0.817
N710 G1 Y167.77
N720 G3 X56.959 Y167.683 I-8 J-0.087
N730 G2 X56.934 Y167.461 I-1 J0
N740 G1 Y161.993
N750 G2 X53.934 Y158.993 I-3 J0
N760 G1 X43.294
N770 Y148.22
N780 X73.322
N790 Y156.976
N800 Z-3 F80
N810 Y166.966 F500
N820 G2 X72.958 Y167.761 I0.736 J0.817
N830 G1 Y167.77
N840 G3 X56.959 Y167.683 I-8 J-0.087
N850 G2 X56.934 Y167.461 I-1 J0
N860 G1 Y161.993
N870 G2 X53.934 Y158.993 I-3 J0
N880 G1 X43.294
N890 Y148.22
N900 X73.322
N910 Y156.976
N920 Z-4.5 F80
N930 Y166.966 F500
N940 G2 X72.958 Y167.761 I0.736 J0.817
N950 G1 Y167.77
N960 G3 X56.959 Y167.683 I-8 J-0.087
N970 G2 X56.934 Y167.461 I-1 J0
N980 G1 Y161.993
N990 G2 X53.934 Y158.993 I-3 J0
N1000 G1 X43.294
N1010 Y148.22
N1020 X73.322
N1030 Y156.976
N1040 Z-5.7 F80
N1050 Y166.966 F500
N1060 G2 X72.958 Y167.761 I0.736 J0.817
N1070 G1 Y167.77
N1080 G3 X56.959 Y167.683 I-8 J-0.087
N1090 G2 X56.934 Y167.461 I-1 J0
N1100 G1 Y161.993
N1110 G2 X53.934 Y158.993 I-3 J0
N1120 G1 X43.294
N1130 Y148.22
N1140 X73.322
N1150 Y156.976
N1160 G0 Z5
N1170 X84.589 Y163.382
N1180 G1 Z2.5 F80
N1190 Z-1.5
N1200 G3 X83.389 I-0.6 J0 F500
N1210 X84.589 I0.6 J0
N1220 G1 Z-3 F80
N1230 G3 X83.389 I-0.6 J0 F500
N1240 X84.589 I0.6 J0
N1250 G1 Z-4.5 F80
N1260 G3 X83.389 I-0.6 J0 F500
N1270 X84.589 I0.6 J0
N1280 G1 Z-5.7 F80
N1290 G3 X83.389 I-0.6 J0 F500
N1300 X84.589 I0.6 J0
N1310 G0 Z5
N1320 X84.265 Y169.338
N1330 G1 Z2.5 F80
N1340 Z-1.5
N1350 X99.476 F500
N1360 Y179.95
N1370 X78.959
N1380 Y169.338
N1390 X84.265
N1400 Z-3 F80
N1410 X99.476 F500
N1420 Y179.95
N1430 X78.959
N1440 Y169.338
N1450 X84.265
N1460 Z-4.5 F80
N1470 X99.476 F500
N1480 Y179.95
N1490 X78.959
N1500 Y169.338
N1510 X84.265
N1520 Z-5.7 F80
N1530 X99.476 F500
N1540 Y179.95
N1550 X78.959
N1560 Y169.338
N1570 X84.265
N1580 G0 Z5
N1590 X79.15 Y186.752
N1600 G1 Z2.5 F80
N1610 Z-1.5
N1620 G3 X76.85 Y186.696 I-1.15 J-0.028 F500
N1630 X79.15 Y186.724 I1.15 J0.028
N1640 Y186.752 I-1.15 J0
N1650 G1 Z-3 F80
N1660 G3 X76.85 Y186.696 I-1.15 J-0.028 F500
N1670 X79.15 Y186.724 I1.15 J0.028
N1680 Y186.752 I-1.15 J0
N1690 G1 Z-4.5 F80
N1700 G3 X76.85 Y186.696 I-1.15 J-0.028 F500
N1710 X79.15 Y186.724 I1.15 J0.028
N1720 Y186.752 I-1.15 J0
N1730 G1 Z-5.7 F80
N1740 G3 X76.85 Y186.696 I-1.15 J-0.028 F500
N1750 X79.15 Y186.724 I1.15 J0.028
N1760 Y186.752 I-1.15 J0
N1770 G0 Z5
N1780 X93.15 Y186.724
N1790 G1 Z2.5 F80
N1800 Z-1.5
N1810 G3 X90.85 I-1.15 J0 F500
N1820 X93.15 I1.15 J0
N1830 G1 Z-3 F80
N1840 G3 X90.85 I-1.15 J0 F500
N1850 X93.15 I1.15 J0
N1860 G1 Z-4.5 F80
N1870 G3 X90.85 I-1.15 J0 F500
N1880 X93.15 I1.15 J0
N1890 G1 Z-5.7 F80
N1900 G3 X90.85 I-1.15 J0 F500
N1910 X93.15 I1.15 J0
N1920 G0 Z5
N1930 X122.6
N1940 G1 Z2.5 F80
N1950 Z-1.5
N1960 G3 X121.4 I-0.6 J0 F500
N1970 X122.6 I0.6 J0
N1980 G1 Z-3 F80
N1990 G3 X121.4 I-0.6 J0 F500
N2000 X122.6 I0.6 J0
N2010 G1 Z-4.5 F80
N2020 G3 X121.4 I-0.6 J0 F500
N2030 X122.6 I0.6 J0
N2040 G1 Z-5.7 F80
N2050 G3 X121.4 I-0.6 J0 F500
N2060 X122.6 I0.6 J0
N2070 G0 Z5
N2080 Y147.724
N2090 G1 Z2.5 F80
N2100 Z-1.5
N2110 G3 X121.4 I-0.6 J0 F500
N2120 X122.6 I0.6 J0
N2130 G1 Z-3 F80
N2140 G3 X121.4 I-0.6 J0 F500
N2150 X122.6 I0.6 J0
N2160 G1 Z-4.5 F80
N2170 G3 X121.4 I-0.6 J0 F500
N2180 X122.6 I0.6 J0
N2190 G1 Z-5.7 F80
N2200 G3 X121.4 I-0.6 J0 F500
N2210 X122.6 I0.6 J0
N2220 G0 Z5
N2230 X97.289 Y150.682
N2240 G1 Z2.5 F80
N2250 Z-1.5
N2260 G3 X96.089 I-0.6 J0 F500
N2270 X97.289 I0.6 J0
N2280 G1 Z-3 F80
N2290 G3 X96.089 I-0.6 J0 F500
N2300 X97.289 I0.6 J0
N2310 G1 Z-4.5 F80
N2320 G3 X96.089 I-0.6 J0 F500
N2330 X97.289 I0.6 J0
N2340 G1 Z-5.7 F80
N2350 G3 X96.089 I-0.6 J0 F500
N2360 X97.289 I0.6 J0
N2370 G0 Z5
N2380 X53.15 Y186.724
N2390 G1 Z2.5 F80
N2400 Z-1.5
N2410 G3 X50.85 I-1.15 J0 F500
N2420 X53.15 I1.15 J0
N2430 G1 Z-3 F80
N2440 G3 X50.85 I-1.15 J0 F500
N2450 X53.15 I1.15 J0
N2460 G1 Z-4.5 F80
N2470 G3 X50.85 I-1.15 J0 F500
N2480 X53.15 I1.15 J0
N2490 G1 Z-5.7 F80
N2500 G3 X50.85 I-1.15 J0 F500
N2510 X53.15 I1.15 J0
N2520 G0 Z5
N2530 X39.15 Y186.752
N2540 G1 Z2.5 F80
N2550 Z-1.5
N2560 G3 X36.85 Y186.696 I-1.15 J-0.028 F500
N2570 X39.15 Y186.724 I1.15 J0.028
N2580 Y186.752 I-1.15 J0
N2590 G1 Z-3 F80
N2600 G3 X36.85 Y186.696 I-1.15 J-0.028 F500
N2610 X39.15 Y186.724 I1.15 J0.028
N2620 Y186.752 I-1.15 J0
N2630 G1 Z-4.5 F80
N2640 G3 X36.85 Y186.696 I-1.15 J-0.028 F500
N2650 X39.15 Y186.724 I1.15 J0.028
N2660 Y186.752 I-1.15 J0
N2670 G1 Z-5.7 F80
N2680 G3 X36.85 Y186.696 I-1.15 J-0.028 F500
N2690 X39.15 Y186.724 I1.15 J0.028
N2700 Y186.752 I-1.15 J0
N2710 G0 Z5
N2720 X8.6 Y186.739
N2730 G1 Z2.5 F80
N2740 Z-1.5
N2750 G3 X7.4 Y186.709 I-0.6 J-0.015 F500
N2760 X8.6 Y186.724 I0.6 J0.015
N2770 Y186.739 I-0.6 J0
N2780 G1 Z-3 F80
N2790 G3 X7.4 Y186.709 I-0.6 J-0.015 F500
N2800 X8.6 Y186.724 I0.6 J0.015
N2810 Y186.739 I-0.6 J0
N2820 G1 Z-4.5 F80
N2830 G3 X7.4 Y186.709 I-0.6 J-0.015 F500
N2840 X8.6 Y186.724 I0.6 J0.015
N2850 Y186.739 I-0.6 J0
N2860 G1 Z-5.7 F80
N2870 G3 X7.4 Y186.709 I-0.6 J-0.015 F500
N2880 X8.6 Y186.724 I0.6 J0.015
N2890 Y186.739 I-0.6 J0
N2900 G0 Z5
N2910 X35.1 Y142.362
N2920 G1 Z2.5 F80
N2930 Z-1.5
N2940 G3 X33.9 I-0.6 J0 F500
N2950 X35.1 I0.6 J0
N2960 G1 Z-3 F80
N2970 G3 X33.9 I-0.6 J0 F500
N2980 X35.1 I0.6 J0
N2990 G1 Z-4.5 F80
N3000 G3 X33.9 I-0.6 J0 F500
N3010 X35.1 I0.6 J0
N3020 G1 Z-5.7 F80
N3030 G3 X33.9 I-0.6 J0 F500
N3040 X35.1 I0.6 J0
N3050 G0 Z5
N3060 Y112.362
N3070 G1 Z2.5 F80
N3080 Z-1.5
N3090 G3 X33.9 I-0.6 J0 F500
N3100 X35.1 I0.6 J0
N3110 G1 Z-3 F80
N3120 G3 X33.9 I-0.6 J0 F500
N3130 X35.1 I0.6 J0
N3140 G1 Z-4.5 F80
N3150 G3 X33.9 I-0.6 J0 F500
N3160 X35.1 I0.6 J0
N3170 G1 Z-5.7 F80
N3180 G3 X33.9 I-0.6 J0 F500
N3190 X35.1 I0.6 J0
N3200 G0 Z5
N3210 X57.7 Y82.362
N3220 G1 Z2.5 F80
N3230 Z-1.5
N3240 G3 X56.5 I-0.6 J0 F500
N3250 X57.7 I0.6 J0
N3260 G1 Z-3 F80
N3270 G3 X56.5 I-0.6 J0 F500
N3280 X57.7 I0.6 J0
N3290 G1 Z-4.5 F80
N3300 G3 X56.5 I-0.6 J0 F500
N3310 X57.7 I0.6 J0
N3320 G1 Z-5.7 F80
N3330 G3 X56.5 I-0.6 J0 F500
N3340 X57.7 I0.6 J0
N3350 G0 Z5
N3360 Y52.362
N3370 G1 Z2.5 F80
N3380 Z-1.5
N3390 G3 X56.5 I-0.6 J0 F500
N3400 X57.7 I0.6 J0
N3410 G1 Z-3 F80
N3420 G3 X56.5 I-0.6 J0 F500
N3430 X57.7 I0.6 J0
N3440 G1 Z-4.5 F80
N3450 G3 X56.5 I-0.6 J0 F500
N3460 X57.7 I0.6 J0
N3470 G1 Z-5.7 F80
N3480 G3 X56.5 I-0.6 J0 F500
N3490 X57.7 I0.6 J0
N3500 G0 Z5
N3510 X42.547 Y33.526
N3520 G1 Z2.5 F80
N3530 Z-1.5
N3540 G2 X42.5 Y33.829 I0.953 J0.303 F500
N3550 G1 Y37.106
N3560 X29.331
N3570 Y26.831
N3580 X43.5
N3590 X44.697
N3600 G2 X45.697 Y25.831 I0 J-1
N3610 G1 Y25.161
N3620 X92.959
N3630 Y32.829
N3640 X43.5
N3650 G2 X42.547 Y33.526 I0 J1
N3660 G1 Z-3 F80
N3670 G2 X42.5 Y33.829 I0.953 J0.303 F500
N3680 G1 Y37.106
N3690 X29.331
N3700 Y26.831
N3710 X43.5
N3720 X44.697
N3730 G2 X45.697 Y25.831 I0 J-1
N3740 G1 Y25.161
N3750 X92.959
N3760 Y32.829
N3770 X43.5
N3780 G2 X42.547 Y33.526 I0 J1
N3790 G1 Z-4.5 F80
N3800 G2 X42.5 Y33.829 I0.953 J0.303 F500
N3810 G1 Y37.106
N3820 X29.331
N3830 Y26.831
N3840 X43.5
N3850 X44.697
N3860 G2 X45.697 Y25.831 I0 J-1
N3870 G1 Y25.161
N3880 X92.959
N3890 Y32.829
N3900 X43.5
N3910 G2 X42.547 Y33.526 I0 J1
N3920 G1 Z-5.7 F80
N3930 G2 X42.5 Y33.829 I0.953 J0.303 F500
N3940 G1 Y37.106
N3950 X29.331
N3960 Y26.831
N3970 X43.5
N3980 X44.697
N3990 G2 X45.697 Y25.831 I0 J-1
N4000 G1 Y25.161
N4010 X92.959
N4020 Y32.829
N4030 X43.5
N4040 G2 X42.547 Y33.526 I0 J1
N4050 G0 Z5
N4060 X36.898 Y47.551
N4070 G1 Z2.5 F80
N4080 Z-1.5
N4090 G3 X35.698 I-0.6 J0 F500
N4100 X36.898 I0.6 J0
N4110 G1 Z-3 F80
N4120 G3 X35.698 I-0.6 J0 F500
N4130 X36.898 I0.6 J0
N4140 G1 Z-4.5 F80
N4150 G3 X35.698 I-0.6 J0 F500
N4160 X36.898 I0.6 J0
N4170 G1 Z-5.7 F80
N4180 G3 X35.698 I-0.6 J0 F500
N4190 X36.898 I0.6 J0
N4200 G0 Z5
N4210 X39.15 Y8
N4220 G1 Z2.5 F80
N4230 Z-1.5
N4240 G3 X36.85 I-1.15 J0 F500
N4250 X39.15 I1.15 J0
N4260 G1 Z-3 F80
N4270 G3 X36.85 I-1.15 J0 F500
N4280 X39.15 I1.15 J0
N4290 G1 Z-4.5 F80
N4300 G3 X36.85 I-1.15 J0 F500
N4310 X39.15 I1.15 J0
N4320 G1 Z-5.7 F80
N4330 G3 X36.85 I-1.15 J0 F500
N4340 X39.15 I1.15 J0
N4350 G0 Z5
N4360 X44.518 Y4.371
N4370 G1 Z2.5 F80
N4380 Z-1.5
N4390 G3 X43.318 I-0.6 J0 F500
N4400 X44.518 I0.6 J0
N4410 G1 Z-3 F80
N4420 G3 X43.318 I-0.6 J0 F500
N4430 X44.518 I0.6 J0
N4440 G1 Z-4.5 F80
N4450 G3 X43.318 I-0.6 J0 F500
N4460 X44.518 I0.6 J0
N4470 G1 Z-5.7 F80
N4480 G3 X43.318 I-0.6 J0 F500
N4490 X44.518 I0.6 J0
N4500 G0 Z5
N4510 X53.15 Y8
N4520 G1 Z2.5 F80
N4530 Z-1.5
N4540 G3 X50.85 I-1.15 J0 F500
N4550 X53.15 I1.15 J0
N4560 G1 Z-3 F80
N4570 G3 X50.85 I-1.15 J0 F500
N4580 X53.15 I1.15 J0
N4590 G1 Z-4.5 F80
N4600 G3 X50.85 I-1.15 J0 F500
N4610 X53.15 I1.15 J0
N4620 G1 Z-5.7 F80
N4630 G3 X50.85 I-1.15 J0 F500
N4640 X53.15 I1.15 J0
N4650 G0 Z5
N4660 X79.15
N4670 G1 Z2.5 F80
N4680 Z-1.5
N4690 G3 X76.85 I-1.15 J0 F500
N4700 X79.15 I1.15 J0
N4710 G1 Z-3 F80
N4720 G3 X76.85 I-1.15 J0 F500
N4730 X79.15 I1.15 J0
N4740 G1 Z-4.5 F80
N4750 G3 X76.85 I-1.15 J0 F500
N4760 X79.15 I1.15 J0
N4770 G1 Z-5.7 F80
N4780 G3 X76.85 I-1.15 J0 F500
N4790 X79.15 I1.15 J0
N4800 G0 Z5
N4810 X93.15 Y8.028
N4820 G1 Z2.5 F80
N4830 Z-1.5
N4840 G3 X90.85 Y7.972 I-1.15 J-0.028 F500
N4850 X93.15 Y8 I1.15 J0.028
N4860 Y8.028 I-1.15 J0
N4870 G1 Z-3 F80
N4880 G3 X90.85 Y7.972 I-1.15 J-0.028 F500
N4890 X93.15 Y8 I1.15 J0.028
N4900 Y8.028 I-1.15 J0
N4910 G1 Z-4.5 F80
N4920 G3 X90.85 Y7.972 I-1.15 J-0.028 F500
N4930 X93.15 Y8 I1.15 J0.028
N4940 Y8.028 I-1.15 J0
N4950 G1 Z-5.7 F80
N4960 G3 X90.85 Y7.972 I-1.15 J-0.028 F500
N4970 X93.15 Y8 I1.15 J0.028
N4980 Y8.028 I-1.15 J0
N4990 G0 Z5
N5000 X122.6 Y8
N5010 G1 Z2.5 F80
N5020 Z-1.5
N5030 G3 X121.4 I-0.6 J0 F500
N5040 X122.6 I0.6 J0
N5050 G1 Z-3 F80
N5060 G3 X121.4 I-0.6 J0 F500
N5070 X122.6 I0.6 J0
N5080 G1 Z-4.5 F80
N5090 G3 X121.4 I-0.6 J0 F500
N5100 X122.6 I0.6 J0
N5110 G1 Z-5.7 F80
N5120 G3 X121.4 I-0.6 J0 F500
N5130 X122.6 I0.6 J0
N5140 G0 Z5
N5150 X96.1 Y52.362
N5160 G1 Z2.5 F80
N5170 Z-1.5
N5180 G3 X94.9 I-0.6 J0 F500
N5190 X96.1 I0.6 J0
N5200 G1 Z-3 F80
N5210 G3 X94.9 I-0.6 J0 F500
N5220 X96.1 I0.6 J0
N5230 G1 Z-4.5 F80
N5240 G3 X94.9 I-0.6 J0 F500
N5250 X96.1 I0.6 J0
N5260 G1 Z-5.7 F80
N5270 G3 X94.9 I-0.6 J0 F500
N5280 X96.1 I0.6 J0
N5290 G0 Z5
N5300 Y82.362
N5310 G1 Z2.5 F80
N5320 Z-1.5
N5330 G3 X94.9 I-0.6 J0 F500
N5340 X96.1 I0.6 J0
N5350 G1 Z-3 F80
N5360 G3 X94.9 I-0.6 J0 F500
N5370 X96.1 I0.6 J0
N5380 G1 Z-4.5 F80
N5390 G3 X94.9 I-0.6 J0 F500
N5400 X96.1 I0.6 J0
N5410 G1 Z-5.7 F80
N5420 G3 X94.9 I-0.6 J0 F500
N5430 X96.1 I0.6 J0
N5440 G0 Z5
N5450 X8.6 Y8
N5460 G1 Z2.5 F80
N5470 Z-1.5
N5480 G3 X7.4 I-0.6 J0 F500
N5490 X8.6 I0.6 J0
N5500 G1 Z-3 F80
N5510 G3 X7.4 I-0.6 J0 F500
N5520 X8.6 I0.6 J0
N5530 G1 Z-4.5 F80
N5540 G3 X7.4 I-0.6 J0 F500
N5550 X8.6 I0.6 J0
N5560 G1 Z-5.7 F80
N5570 G3 X7.4 I-0.6 J0 F500
N5580 X8.6 I0.6 J0
N5590 G0 Z10

(2D ??1)
N5610 X-1 Y0
N5620 Z10
N5630 Z5
N5640 G1 Z2.5 F80
N5650 Z-1.5
N5660 Y194.724 F500
N5670 G2 X0 Y195.724 I1 J0
N5680 G1 X130
N5690 G2 X131 Y194.724 I0 J-1
N5700 G1 Y0
N5710 G2 X130 Y-1 I-1 J0
N5720 G1 X0
N5730 G2 X-1 Y0 I0 J1
N5740 G1 Z-3 F80
N5750 Y194.724 F500
N5760 G2 X0 Y195.724 I1 J0
N5770 G1 X130
N5780 G2 X131 Y194.724 I0 J-1
N5790 G1 Y0
N5800 G2 X130 Y-1 I-1 J0
N5810 G1 X0
N5820 G2 X-1 Y0 I0 J1
N5830 G1 Z-4.5 F80
N5840 Y194.724 F500
N5850 G2 X0 Y195.724 I1 J0
N5860 G1 X130
N5870 G2 X131 Y194.724 I0 J-1
N5880 G1 Y0
N5890 G2 X130 Y-1 I-1 J0
N5900 G1 X0
N5910 G2 X-1 Y0 I0 J1
N5920 G1 Z-5.7 F80
N5930 Y194.724 F500
N5940 G2 X0 Y195.724 I1 J0
N5950 G1 X130
N5960 G2 X131 Y194.724 I0 J-1
N5970 G1 Y0
N5980 G2 X130 Y-1 I-1 J0
N5990 G1 X0
N6000 G2 X-1 Y0 I0 J1
N6010 G0 Z10
N6030 Z10
N6040 X0 Y0
N6050 M30
%
