%
(1001)
(T1 D=2 CR=0 - ZMIN=-4.2 - flat end mill)
N10 G90 G94
N20 G17
N30 G21
N40 M9
N50 G0 Z10
N60 X0 Y0

(2D ????1)
N70 T1 M6
N80 S8000 M3
N90 G54
N110 G0 X63.132 Y56.27
N120 G43 Z10
N130 Z5
N140 G1 Z2.5 F500
N150 Z-1.5 F80
N160 G3 X62.93 Y55.629 I1.885 J-0.948 F500
N170 X63.675 Y53.724 I2.041 J-0.3
N180 X64.07 Y53.814 I0.162 J0.201
N190 G1 X65.613 Y57.06
N200 G3 X65.433 Y57.424 I-0.233 J0.111
N210 X64.789 Y57.439 I-0.36 J-1.702
N220 X64.171 Y57.256 I0.424 J-2.562
N230 X63.132 Y56.27 I0.846 J-1.933
N240 G2 X62.14 Y55.62 I-1.057 J0.532
N250 G3 X61.402 Y54.69 I0.043 J-0.791
N260 X64.427 Y51.729 I3.586 J0.637
N270 X64.95 Y52.005 I0.076 J0.488
N280 G1 X67.568 Y57.514
N290 G3 X67.448 Y58.108 I-0.456 J0.217
N300 X65.581 Y58.971 I-2.358 J-2.647
N310 X63.543 Y58.691 I-0.523 J-3.742
N320 X61.374 Y54.878 I1.471 J-3.36
N330 X61.402 Y54.69 I3.614 J0.449
N340 G2 X60.929 Y53.447 I-1.274 J-0.226
N350 G3 X60.761 Y52.128 I0.586 J-0.745
N360 X64.364 Y50.065 I4.241 J3.23
N370 X64.919 Y50.001 I5.751 J47.899
N380 X65.477 Y50.008 I0.252 J2.328
N390 X66.084 Y50.45 I-0.103 J0.78
N400 G1 X69.496 Y57.628
N410 G3 X69.437 Y58.389 I-0.692 J0.329
N420 X66.485 Y60.5 I-4.36 J-2.977
N430 X62.865 Y60.241 I-1.446 J-5.227
N440 X60.761 Y52.128 I2.138 J-4.884
N450 G2 X60.903 Y50.682 I-1.101 J-0.838
N460 G3 X61.31 Y49.287 I0.969 J-0.474
N470 X66.632 Y48.434 I3.7 J6.054
N480 X67.328 Y48.997 I-0.239 J1.007
N490 G1 X71.406 Y57.576
N500 G3 X71.402 Y58.473 I-0.935 J0.444
N510 X67.461 Y62.017 I-6.332 J-3.08
N520 X62.164 Y61.841 I-2.429 J-6.727
N530 X61.31 Y49.287 I2.845 J-6.5
N540 G2 X61.96 Y47.986 I-0.715 J-1.171
N550 G3 X62.795 Y46.796 I1.115 J-0.106
N560 X63.945 Y46.58 I2.205 J8.566
N570 G2 X64.497 Y46.496 I-1.061 J-8.834
N580 G3 X65.607 Y46.503 I0.538 J2.921
N590 G2 X66.157 Y46.593 I1.714 J-8.731
N600 G3 X67.029 Y46.73 I-2.373 J17.988
N610 X67.883 Y46.953 I-1.048 J5.767
N620 X68.64 Y47.628 I-0.424 J1.236
N630 G1 X73.296 Y57.424
N640 G3 X73.341 Y58.439 I-1.181 J0.561
N650 X61.453 Y63.465 I-8.308 J-3.081
N660 X62.795 Y46.796 I3.547 J-8.103
N670 G2 X63.831 Y45.655 I-0.349 J-1.357
N680 G3 X64.995 Y44.646 I1.18 J0.184
N690 X65.062 Y44.645 I0.047 J3.57
N700 X65.729 Y44.712 I-0.021 J3.57
N710 G2 X66.391 Y44.821 I2.06 J-10.496
N720 G3 X67.82 Y45.086 I-1.813 J13.747
N730 X69.199 Y45.545 I-2.003 J8.328
N740 X69.992 Y46.308 I-0.616 J1.432
N750 G1 X75.17 Y57.201
N760 G3 X75.261 Y58.317 I-1.429 J0.679
N770 X60.736 Y65.103 I-10.219 J-2.934
N780 X63.732 Y44.805 I4.264 J-9.741
N790 G2 X64.395 Y44.704 I-1.275 J-10.619
N800 G3 X64.995 Y44.646 I0.647 J3.511
N810 G2 X66.282 Y43.859 I-0.019 J-1.477
N820 G3 X67.648 Y43.222 I1.104 J0.584
N830 X68.643 Y43.477 I-2.721 J12.697
N840 X70.575 Y44.203 I-4.271 J14.299
N850 X71.326 Y44.942 I-0.64 J1.401
N860 G1 X77.023 Y56.928
N870 G3 X77.155 Y58.142 I-1.677 J0.797
N880 X60.018 Y66.743 I-12.129 J-2.794
N890 X57.993 Y45.103 I4.982 J-11.381
N900 G2 X58.401 Y44.804 I-4.315 J-6.317
N910 G3 X58.82 Y44.522 I2.122 J2.704
N920 X61.095 Y43.54 I5.569 J9.768
N930 X63.519 Y43.027 I4.087 J13.339
N940 G2 X64.293 Y42.909 I-1.49 J-12.407
N950 G3 X65.073 Y42.84 I0.756 J4.102
N960 X65.852 Y42.918 I-0.024 J4.171
N970 G2 X66.625 Y43.045 I2.407 J-12.264
N980 G3 X67.648 Y43.222 I-1.698 J12.874
N990 G2 X69.075 Y42.689 I0.297 J-1.384
N1000 G3 X70.538 Y42.261 I1.018 J0.766
N1010 X71.687 Y42.73 I-7.007 J18.825
N1020 X72.767 Y43.783 I-0.883 J1.987
N1030 G1 X78.867 Y56.616
N1040 G3 X79.04 Y57.908 I-1.926 J0.916
N1050 X76.53 Y63.754 I-13.854 J-2.487
N1060 X71.722 Y67.922 I-11.597 J-8.519
N1070 X59.297 Y68.392 I-6.694 J-12.508
N1080 X56.977 Y43.617 I5.704 J-13.03
N1090 G2 X57.444 Y43.274 I-4.587 J-6.716
N1100 G3 X57.924 Y42.949 I2.364 J2.981
N1110 X58.447 Y42.701 I1.884 J3.305
N1120 G2 X58.981 Y42.475 I-2.909 J-7.595
N1130 G3 X61.824 Y41.515 I5.709 J12.224
N1140 X64.784 Y41.017 I6.746 J31.035
N1150 X65.383 Y41.021 I0.286 J2.378
N1160 X68.596 Y41.649 I-3.462 J26.244
N1170 X70.538 Y42.261 I-5.065 J19.437
N1180 G2 X72.03 Y41.873 I0.469 J-1.26
N1190 G3 X73.57 Y41.777 I0.816 J0.694
N1200 X74.233 Y42.674 I-1.967 J2.148
N1210 G1 X80.696 Y56.272
N1220 G3 X80.905 Y57.647 I-2.176 J1.034
N1230 X58.575 Y70.041 I-15.864 J-2.27
N1240 X55.962 Y42.131 I6.425 J-14.679
N1250 G2 X56.487 Y41.742 I-4.792 J-7.015
N1260 G3 X57.026 Y41.375 I2.588 J3.226
N1270 X57.617 Y41.098 I2.048 J3.593
N1280 G2 X58.219 Y40.844 I-2.993 J-7.95
N1290 G3 X61.442 Y39.762 I6.38 J13.658
N1300 X64.795 Y39.203 I7.785 J36.352
N1310 X65.394 Y39.206 I0.286 J2.378
N1320 X68.65 Y39.781 I-4.984 J37.78
N1330 X71.781 Y40.844 I-3.271 J14.771
N1340 G2 X72.081 Y40.974 I2.33 J-4.988
N1350 G3 X72.383 Y41.101 I-2.923 J7.372
N1360 G2 X72.857 Y41.308 I15.665 J-35.193
N1370 G3 X73.307 Y41.563 I-0.93 J2.168
N1380 X73.57 Y41.777 I-1.704 J2.362
N1390 G2 X74.957 Y42.123 I1.013 J-1.106
N1400 G3 X76.252 Y42.729 I0.28 J1.088
N1410 G1 X82.514 Y55.903
N1420 G3 X82.758 Y57.353 I-2.425 J1.153
N1430 X57.853 Y71.69 I-17.716 J-1.975
N1440 X54.947 Y40.645 I7.147 J-16.328
N1450 G2 X55.529 Y40.21 I-4.933 J-7.221
N1460 G3 X56.128 Y39.8 I2.792 J3.436
N1470 X56.787 Y39.493 I2.193 J3.846
N1480 G2 X57.457 Y39.213 I-3.031 J-8.204
N1490 G3 X60.457 Y38.13 I7.474 J16.001
N1500 X63.59 Y37.535 I5.919 J22.602
N1510 X66.617 Y37.552 I1.443 J12.02
N1520 X69.644 Y38.156 I-3.073 J23.296
N1530 X72.543 Y39.213 I-4.599 J17.112
N1540 X73.658 Y39.739 I-67.905 J145.381
N1550 X74.723 Y40.361 I-3.173 J6.66
N1560 X75.647 Y41.455 I-1.615 J2.301
N1570 G1 X76.252 Y42.729
N1580 G2 X77.645 Y43.562 I1.321 J-0.628
N1590 G3 X79.037 Y44.395 I0.072 J1.461
N1600 G1 X84.321 Y55.512
N1610 G3 X84.598 Y57.034 I-2.675 J1.271
N1620 X57.131 Y73.339 I-19.555 J-1.655
N1630 X53.909 Y39.125 I7.88 J-18.001
N1640 G2 X53.965 Y39.084 I-0.587 J-0.859
N1650 G3 X54.021 Y39.042 I0.733 J0.941
N1660 X56.551 Y37.6 I9.683 J14.046
N1670 X60.002 Y36.384 I8.19 J17.733
N1680 X63.601 Y35.72 I7.077 J28.3
N1690 X66.628 Y35.738 I1.443 J12.02
N1700 X70.037 Y36.403 I-3.705 J28.088
N1710 X73.306 Y37.579 I-4.771 J18.389
N1720 G2 X73.912 Y37.832 I3.358 J-7.19
N1730 G3 X74.522 Y38.072 I-5.399 J14.595
N1740 X75.027 Y38.36 I-0.925 J2.209
N1750 G2 X76.08 Y39.112 I19.304 J-25.937
N1760 G3 X77.084 Y40.285 I-1.672 J2.445
N1770 G1 X79.037 Y44.395
N1780 G2 X80.429 Y45.228 I1.321 J-0.628
N1790 G3 X81.822 Y46.061 I0.072 J1.461
N1800 G1 X86.12 Y55.104
N1810 G3 X86.427 Y56.695 I-2.924 J1.39
N1820 X56.409 Y74.988 I-21.395 J-1.333
N1830 X52.897 Y37.644 I8.6 J-19.646
N1840 G2 X53.045 Y37.535 I-1.513 J-2.216
N1850 G3 X53.193 Y37.426 I2.015 J2.556
N1860 X55.581 Y36.064 I8.478 J12.097
N1870 X59.514 Y34.678 I10.001 J22.101
N1880 X63.612 Y33.906 I7.829 J30.302
N1890 X66.638 Y33.924 I1.443 J12.02
N1900 X70.43 Y34.653 I-4.289 J32.516
N1910 X74.066 Y35.952 I-5.067 J19.932
N1920 G2 X74.733 Y36.229 I3.554 J-7.61
N1930 G3 X75.406 Y36.49 I-6.407 J17.498
N1940 X75.938 Y36.794 I-0.91 J2.215
N1950 G1 X76.438 Y37.171
N1960 G2 X77.101 Y37.647 I10.417 J-13.803
N1970 X77.3 Y37.775 I2.588 J-3.789
N1980 G3 X77.497 Y37.906 I-1.671 J2.74
N1990 X78.536 Y39.149 I-1.885 J2.633
N2000 G1 X81.822 Y46.061
N2010 G2 X83.214 Y46.894 I1.321 J-0.628
N2020 G3 X84.607 Y47.727 I0.072 J1.461
N2030 G1 X87.911 Y54.679
N2040 G3 X88.249 Y56.328 I-3.174 J1.509
N2050 X86.594 Y64 I-22.856 J-0.916
N2060 X55.688 Y76.637 I-21.563 J-8.626
N2070 X51.886 Y36.164 I9.319 J-21.29
N2080 G2 X52.126 Y35.987 I-2.31 J-3.381
N2090 G3 X52.364 Y35.807 I3.564 J4.479
N2100 X54.611 Y34.527 I7.386 J10.346
N2110 X58.338 Y33.132 I13.836 J31.298
N2120 X62.231 Y32.303 I6.527 J21.112
N2130 G2 X62.927 Y32.198 I-1.342 J-11.179
N2140 G3 X63.622 Y32.092 I2.038 J11.075
N2150 X66.649 Y32.11 I1.443 J12.02
N2160 X70.823 Y32.902 I-4.927 J37.349
N2170 X74.828 Y34.321 I-5.327 J21.399
N2180 G2 X75.554 Y34.623 I3.938 J-8.432
N2190 G3 X76.288 Y34.906 I-9.094 J24.728
N2200 X76.852 Y35.227 I-0.893 J2.222
N2210 X77.473 Y35.709 I-39.739 J51.844
N2220 G2 X78.107 Y36.174 I7.281 J-9.266
N2230 X78.522 Y36.445 I6.636 J-9.716
N2240 G3 X78.931 Y36.725 I-3.033 J4.868
N2250 X79.997 Y38.028 I-2.109 J2.812
N2260 G1 X84.607 Y47.727
N2270 G2 X85.999 Y48.559 I1.321 J-0.628
N2280 G3 X87.391 Y49.392 I0.072 J1.461
N2290 G1 X89.696 Y54.24
N2300 G3 X90.062 Y55.952 I-3.424 J1.627
N2310 X78.488 Y76.466 I-24.954 J-0.557
N2320 X54.966 Y78.286 I-13.46 J-21.062
N2330 X50.875 Y34.683 I10.039 J-22.935
N2340 G2 X51.206 Y34.437 I-2.995 J-4.384
N2350 G3 X51.534 Y34.187 I5.487 J6.826
N2360 X53.639 Y32.987 I6.397 J8.776
N2370 X57.739 Y31.451 I18.036 J41.915
N2380 X62.017 Y30.517 I7.017 J21.878
N2390 G2 X62.825 Y30.397 I-1.767 J-14.719
N2400 G3 X63.633 Y30.278 I2.576 J14.601
N2410 X66.659 Y30.295 I1.443 J12.02
N2420 X71.22 Y31.142 I-5.8 J43.971
N2430 X75.598 Y32.673 I-5.394 J22.454
N2440 G2 X75.978 Y32.833 I2.247 J-4.811
N2450 G3 X76.361 Y32.987 I-3.079 J8.199
N2460 X78.466 Y34.187 I-4.293 J9.976
N2470 G2 X79.422 Y34.864 I25.637 J-35.169
N2480 G3 X80.368 Y35.557 I-11.396 J16.552
N2490 X81.464 Y36.921 I-2.328 J2.992
N2500 G1 X87.391 Y49.392
N2510 G2 X88.784 Y50.225 I1.321 J-0.628
N2520 G3 X90.176 Y51.058 I0.072 J1.461
N2530 G1 X91.474 Y53.789
N2540 G3 X91.868 Y55.572 I-3.673 J1.746
N2550 X54.244 Y79.935 I-26.856 J-0.241
N2560 X49.864 Y33.203 I10.759 J-24.58
N2570 G2 X50.286 Y32.887 I-3.57 J-5.226
N2580 G3 X50.703 Y32.563 I8.03 J9.876
N2590 X52.665 Y31.444 I5.504 J7.373
N2600 X53.156 Y31.251 I4.898 J11.748
N2610 G2 X53.643 Y31.048 I-2.191 J-5.937
N2620 G3 X58.541 Y29.358 I10.491 J22.46
N2630 X63.643 Y28.464 I10.819 J46.712
N2640 X66.67 Y28.481 I1.443 J12.02
N2650 X71.612 Y29.394 I-6.392 J48.456
N2660 X76.357 Y31.048 I-5.751 J24.127
N2670 G2 X76.844 Y31.251 I2.678 J-5.734
N2680 G3 X77.335 Y31.444 I-4.407 J11.941
N2690 X79.297 Y32.563 I-3.541 J8.492
N2700 G2 X80.558 Y33.469 I25.849 J-34.63
N2710 G3 X81.803 Y34.396 I-12.749 J18.425
N2720 X82.936 Y35.827 I-2.54 J3.176
N2730 G1 X90.176 Y51.058
N2740 G2 X91.569 Y51.891 I1.321 J-0.628
N2750 G3 X92.961 Y52.724 I0.072 J1.461
N2760 G1 X93.248 Y53.327
N2770 G3 X93.668 Y55.153 I-3.922 J1.864
N2780 X92.104 Y64.671 I-28.227 J0.247
N2790 X53.522 Y81.584 I-27.074 J-9.298
N2800 X48.852 Y31.723 I11.479 J-26.224
N2810 G2 X49.366 Y31.336 I-4.034 J-5.905
N2820 G3 X49.869 Y30.936 I11.718 J14.221
N2830 X51.69 Y29.898 I4.698 J6.125
N2840 X52.291 Y29.669 I6.868 J17.099
N2850 G2 X52.885 Y29.424 I-2.432 J-6.725
N2860 G3 X58.159 Y27.608 I11.212 J24.004
N2870 X63.654 Y26.649 I11.74 J51.052
N2880 X66.681 Y26.667 I1.443 J12.02
N2890 X72.004 Y27.646 I-6.987 J52.963
N2900 X77.115 Y29.424 I-6.11 J25.803
N2910 G2 X77.709 Y29.669 I3.026 J-6.479
N2920 G3 X78.31 Y29.898 I-6.268 J17.328
N2930 X80.131 Y30.936 I-2.877 J7.163
N2940 G2 X81.708 Y32.086 I23.928 J-31.196
N2950 G3 X83.264 Y33.265 I-12.662 J18.324
N2960 X84.414 Y34.743 I-2.772 J3.343
N2970 G1 X92.961 Y52.724
N2980 G2 X94.287 Y53.491 I1.221 J-0.58
N2990 G3 X95.45 Y54.488 I0.084 J1.079
N3000 X95.462 Y54.736 I-4.607 J0.35
N3010 X93.938 Y64.861 I-29.997 J0.662
N3020 X52.801 Y83.232 I-28.909 J-9.489
N3030 X47.84 Y30.24 I12.2 J-27.87
N3040 G2 X48.445 Y29.783 I-4.528 J-6.629
N3050 G3 X49.034 Y29.306 I20.075 J24.137
N3060 X50.712 Y28.349 I3.973 J5.019
N3070 X51.424 Y28.085 I11.254 J29.308
N3080 G2 X52.125 Y27.797 I-2.696 J-7.562
N3090 G3 X61.373 Y25.156 I12.875 J27.565
N3100 G2 X62.519 Y24.995 I-3.545 J-29.525
N3110 G3 X63.664 Y24.835 I4.692 J29.37
N3120 X66.691 Y24.853 I1.443 J12.02
N3130 X67.835 Y25.026 I-3.89 J29.489
N3140 G2 X68.979 Y25.2 I5.034 J-29.315
N3150 G3 X77.875 Y27.797 I-3.979 J30.162
N3160 G2 X78.576 Y28.085 I3.398 J-7.274
N3170 G3 X79.288 Y28.349 I-10.543 J29.571
N3180 X80.966 Y29.306 I-2.295 J5.976
N3190 X81.555 Y29.784 I-19.505 J24.638
N3200 G2 X82.16 Y30.24 I5.135 J-6.174
N3210 G3 X83.466 Y31.155 I-38.621 J56.54
N3220 X84.721 Y32.137 I-11.189 J15.589
N3230 X85.897 Y33.67 I-2.996 J3.517
N3240 G1 X95.016 Y52.855
N3250 G3 X95.45 Y54.488 I-4.172 J1.983
N3260 G2 X96.377 Y55.746 I1.469 J-0.112
N3270 G3 X97.221 Y57.062 I-0.492 J1.244
N3280 X52.079 Y84.881 I-32.216 J-1.74
N3290 X46.824 Y28.754 I12.922 J-29.519
N3300 G2 X47.522 Y28.227 I-5.156 J-7.548
N3310 G3 X48.196 Y27.669 I77.867 J93.396
N3320 X49.731 Y26.794 I3.324 J4.045
N3330 X50.554 Y26.498 I41.52 J114.285
N3340 G2 X51.363 Y26.166 I-3.059 J-8.613
N3350 G3 X61.158 Y23.369 I13.637 J29.196
N3360 G2 X62.417 Y23.195 I-4.274 J-35.595
N3370 G3 X63.675 Y23.021 I5.533 J35.428
N3380 X66.702 Y23.039 I1.443 J12.02
N3390 X67.958 Y23.227 I-4.69 J35.551
N3400 G2 X69.214 Y23.415 I5.946 J-35.363
N3410 G3 X78.637 Y26.166 I-4.214 J31.946
N3420 G2 X79.446 Y26.498 I3.868 J-8.282
N3430 G3 X80.269 Y26.794 I-40.699 J114.585
N3440 X81.804 Y27.669 I-1.788 J4.921
N3450 X82.478 Y28.227 I-77.362 J94.158
N3460 G2 X83.176 Y28.754 I5.854 J-7.022
N3470 G3 X84.706 Y29.839 I-30.441 J44.565
N3480 X86.171 Y31.01 I-13.812 J18.785
N3490 X87.384 Y32.606 I-3.207 J3.698
N3500 G1 X96.78 Y52.374
N3510 G3 X97.252 Y54.324 I-4.421 J2.101
N3520 X97.221 Y57.062 I-32.247 J0.998
N3530 X97.16 Y57.195 I-0.2 J-0.011
N3540 G1 X64.022 Y89.329
N3550 G3 X63.876 Y89.385 I-0.139 J-0.144
N3560 X51.357 Y86.53 I1.169 J-34.005
N3570 X45.809 Y27.268 I13.643 J-31.168
N3580 G2 X46.598 Y26.668 I-5.562 J-8.142
N3590 X47.353 Y26.026 I-64.895 J-77.072
N3600 G3 X48.746 Y25.232 I2.744 J3.195
N3610 G2 X49.684 Y24.909 I-32.323 J-95.431
N3620 X50.601 Y24.536 I-3.255 J-9.308
N3630 G3 X60.944 Y21.581 I14.398 J30.826
N3640 G2 X62.315 Y21.394 I-5.071 J-42.231
N3650 G3 X63.686 Y21.207 I6.443 J42.053
N3660 X66.712 Y21.224 I1.443 J12.02
N3670 X68.081 Y21.428 I-5.564 J42.18
N3680 G2 X69.45 Y21.631 I6.933 J-41.978
N3690 G3 X79.399 Y24.536 I-4.45 J33.731
N3700 G2 X80.316 Y24.909 I4.173 J-8.934
N3710 X81.254 Y25.232 I33.26 J-95.106
N3720 G3 X82.647 Y26.026 I-1.351 J3.989
N3730 G2 X83.402 Y26.668 I65.576 J-76.344
N3740 X84.191 Y27.268 I6.352 J-7.544
N3750 G1 X87.645 Y29.909
N3760 G3 X88.876 Y31.55 I-3.44 J3.862
N3770 G1 X98.541 Y51.884
N3780 G3 X99.036 Y53.875 I-4.671 J2.22
N3790 X66.15 Y89.387 I-33.991 J1.505
N3800 G1 X60.258 Y90.859
N3810 G3 X60.183 Y90.863 I-0.049 J-0.194
N3820 X50.635 Y88.179 I4.834 J-35.523
N3830 X44.794 Y25.781 I14.365 J-32.817
N3840 G2 X45.674 Y25.107 I-5.734 J-8.394
N3850 X46.506 Y24.373 I-25.637 J-29.92
N3860 G3 X47.756 Y23.661 I2.229 J2.458
N3870 G2 X48.811 Y23.319 I-11.631 J-37.646
N3880 X49.84 Y22.905 I-3.273 J-9.624
N3890 G3 X60.729 Y19.794 I15.16 J32.457
N3900 G2 X62.213 Y19.593 I-5.936 J-49.435
N3910 G3 X63.696 Y19.393 I7.421 J49.245
N3920 X66.723 Y19.41 I1.443 J12.02
N3930 X68.204 Y19.628 I-6.513 J49.376
N3940 G2 X69.685 Y19.846 I7.995 J-49.159
N3950 G3 X80.16 Y22.905 I-4.685 J35.516
N3960 G2 X81.189 Y23.319 I4.302 J-9.21
N3970 X82.244 Y23.661 I12.686 J-37.303
N3980 G3 X83.494 Y24.373 I-0.98 J3.171
N3990 G2 X86.302 Y26.589 I17.561 J-19.364
N4000 G3 X89.11 Y28.806 I-14.743 J21.568
N4010 X90.371 Y30.502 I-3.66 J4.035
N4020 G1 X100.297 Y51.386
N4030 G3 X100.817 Y53.436 I-4.92 J2.339
N4040 X69.825 Y90.867 I-35.8 J1.904
N4050 G1 X58.676 Y92.438
N4060 G3 X58.614 Y92.437 I-0.028 J-0.198
N4070 X49.913 Y89.828 I6.388 J-37.118
N4080 X43.779 Y24.295 I15.087 J-34.466
N4090 G2 X44.749 Y23.541 I-5.679 J-8.313
N4100 X45.652 Y22.707 I-16.53 J-18.792
N4110 G3 X46.757 Y22.077 I1.775 J1.828
N4120 G2 X47.935 Y21.725 I-6.572 J-24.15
N4130 X49.078 Y21.274 I-3.117 J-9.573
N4140 G3 X60.515 Y18.007 I15.922 J34.088
N4150 G2 X62.111 Y17.793 I-6.869 J-57.205
N4160 G3 X63.707 Y17.578 I8.467 J57.005
N4170 X66.733 Y17.596 I1.443 J12.02
N4180 X68.327 Y17.829 I-7.537 J57.138
N4190 G2 X69.92 Y18.062 I9.131 J-56.906
N4200 G3 X80.922 Y21.274 I-4.92 J37.3
N4210 G2 X82.065 Y21.725 I4.261 J-9.122
N4220 X83.243 Y22.077 I7.75 J-23.798
N4230 G3 X84.348 Y22.707 I-0.669 J2.459
N4240 G2 X85.251 Y23.541 I17.43 J-17.956
N4250 X86.222 Y24.295 I6.649 J-7.56
N4260 G3 X88.464 Y25.924 I-26.976 J39.492
N4270 X90.582 Y27.713 I-19.192 J24.87
N4280 X91.869 Y29.461 I-3.883 J4.206
N4290 G1 X102.05 Y50.882
N4300 G3 X102.594 Y52.985 I-5.17 J2.457
N4310 X71.383 Y92.438 I-37.592 J2.334
N4320 G1 X57.7 Y94.091
N4330 G3 X57.638 Y94.089 I-0.024 J-0.199
N4340 X49.192 Y91.477 I7.362 J-38.772
N4350 X42.763 Y22.809 I15.809 J-36.115
N4360 G2 X43.823 Y21.969 I-5.418 J-7.931
N4370 X44.787 Y21.021 I-12.228 J-13.388
N4380 G3 X45.747 Y20.473 I1.376 J1.298
N4390 G2 X47.054 Y20.127 I-3.984 J-17.689
N4400 X48.316 Y19.643 I-2.803 J-9.187
N4410 G3 X60.3 Y16.22 I16.684 J35.719
N4420 G2 X62.009 Y15.992 I-7.87 J-65.543
N4430 G3 X63.717 Y15.764 I9.581 J65.332
N4440 X66.744 Y15.782 I1.443 J12.02
N4450 X68.45 Y16.03 I-8.636 J65.467
N4460 G2 X70.156 Y16.277 I10.342 J-65.221
N4470 G3 X81.684 Y19.643 I-5.156 J39.085
N4480 G2 X82.946 Y20.127 I4.065 J-8.702
N4490 X84.253 Y20.473 I5.291 J-17.343
N4500 G3 X85.213 Y21.021 I-0.416 J1.846
N4510 G2 X86.177 Y21.969 I13.191 J-12.439
N4520 X87.237 Y22.809 I6.478 J-7.092
N4530 G3 X89.722 Y24.626 I-27.133 J39.723
N4540 X92.06 Y26.63 I-20.823 J26.649
N4550 X93.37 Y28.427 I-4.109 J4.373
N4560 G1 X103.8 Y50.371
N4570 G3 X104.366 Y52.522 I-5.42 J2.576
N4580 X72.358 Y94.09 I-39.366 J2.795
N4590 G1 X57.148 Y95.812
N4600 G3 X57.087 Y95.809 I-0.022 J-0.199
N4610 X48.474 Y93.117 I7.927 J-40.473
N4620 X41.754 Y21.331 I16.526 J-37.754
N4630 G2 X42.901 Y20.397 I-4.981 J-7.292
N4640 X43.91 Y19.314 I-9.57 J-9.929
N4650 G3 X44.725 Y18.85 I1.032 J0.863
N4660 G2 X46.171 Y18.533 I-2.223 J-13.61
N4670 X47.559 Y18.022 I-2.349 J-8.513
N4680 G3 X60.087 Y14.443 I17.441 J37.34
N4690 G2 X61.907 Y14.202 I-8.933 J-74.394
N4700 G3 X63.728 Y13.961 I10.756 J74.173
N4710 X66.754 Y13.978 I1.443 J12.02
N4720 X68.572 Y14.241 I-9.802 J74.309
N4730 G2 X70.39 Y14.503 I11.62 J-74.048
N4740 G3 X82.441 Y18.022 I-5.39 J40.859
N4750 G2 X83.829 Y18.533 I3.737 J-8.001
N4760 X85.275 Y18.85 I3.668 J-13.294
N4770 G3 X86.09 Y19.314 I-0.217 J1.327
N4780 G2 X87.099 Y20.397 I10.579 J-8.846
N4790 X88.246 Y21.331 I6.129 J-6.358
N4800 G3 X90.978 Y23.339 I-27.614 J40.426
N4810 X93.536 Y25.564 I-22.203 J28.109
N4820 X94.865 Y27.404 I-4.336 J4.533
N4830 G1 X105.538 Y49.857
N4840 G3 X106.125 Y52.05 I-5.665 J2.693
N4850 X72.912 Y95.815 I-41.111 J3.286
N4860 G1 X57.009 Y97.593
N4870 G3 X56.949 Y97.591 I-0.022 J-0.199
N4880 X47.766 Y94.734 I8.095 J-42.212
N4890 X40.758 Y19.873 I17.234 J-39.372
N4900 G2 X41.991 Y18.828 I-4.405 J-6.449
N4910 X43.018 Y17.579 I-7.667 J-7.348
N4920 G3 X43.686 Y17.197 I0.738 J0.518
N4930 G2 X45.284 Y16.95 I-0.819 J-10.588
N4940 X46.812 Y16.422 I-1.777 J-7.605
N4950 G3 X59.7 Y12.711 I18.188 J38.94
N4960 G1 X70.405 Y12.724
N4970 G2 X70.621 Y12.752 I11.242 J-83.557
N4980 G3 X83.188 Y16.422 I-5.621 J42.61
N4990 G2 X84.716 Y16.95 I3.305 J-7.076
N5000 X86.314 Y17.197 I2.417 J-10.341
N5010 G3 X86.982 Y17.579 I-0.07 J0.899
N5020 G2 X88.009 Y18.828 I8.694 J-6.099
N5030 X89.242 Y19.873 I5.638 J-5.404
N5040 G3 X92.221 Y22.073 I-28.329 J41.473
N5050 X94.998 Y24.521 I-23.308 J29.238
N5060 X96.344 Y26.401 I-4.566 J4.689
N5070 G1 X107.249 Y49.344
N5080 G3 X107.857 Y51.575 I-5.911 J2.81
N5090 X73.063 Y97.606 I-42.813 J3.804
N5100 G1 X57.242 Y99.37
N5110 G3 X57.185 Y99.369 I-0.022 J-0.199
N5120 X47.074 Y96.315 I7.795 J-44.08
N5130 X39.784 Y18.448 I17.926 J-40.953
N5140 G2 X41.102 Y17.259 I-3.727 J-5.457
N5150 X42.093 Y15.786 I-6.176 J-5.224
N5160 G3 X42.614 Y15.488 I0.492 J0.258
N5170 G2 X44.386 Y15.386 I0.423 J-8.078
N5180 X46.081 Y14.858 I-1.102 J-6.516
N5190 G3 X59.67 Y10.976 I18.919 J40.504
N5200 G2 X59.697 Y10.973 I-11.2 J-93.278
N5210 G1 X70.914 Y11.05
N5220 G3 X83.919 Y14.858 I-5.914 J44.312
N5230 G2 X85.614 Y15.386 I2.796 J-5.987
N5240 X87.386 Y15.488 I1.349 J-7.976
N5250 G3 X87.907 Y15.786 I0.029 J0.555
N5260 G2 X88.898 Y17.259 I7.167 J-3.751
N5270 X90.216 Y18.448 I5.045 J-4.267
N5280 G3 X93.426 Y20.832 I-28.555 J41.804
N5290 X96.413 Y23.49 I-25.55 J31.707
N5300 X97.791 Y25.425 I-4.773 J4.859
N5310 G1 X108.919 Y48.838
N5320 G3 X109.55 Y51.129 I-6.151 J2.924
N5330 X72.81 Y99.362 I-44.57 J4.16
N5340 G1 X57.933 Y101.176
N5350 G3 X57.878 Y101.175 I-0.024 J-0.199
N5360 X46.412 Y97.826 I7.149 J-45.777
N5370 X38.854 Y17.085 I18.588 J-42.464
N5380 G2 X40.263 Y15.667 I-2.995 J-4.384
N5390 X41.087 Y13.844 I-4.959 J-3.339
N5400 G3 X41.456 Y13.634 I0.288 J0.075
N5410 G2 X43.444 Y13.853 I1.641 J-5.749
N5420 X45.383 Y13.363 I-0.308 J-5.3
N5430 G3 X59.474 Y9.338 I19.617 J41.999
N5440 G2 X59.69 Y9.312 I-12.361 J-102.94
N5450 G1 X70.907 Y9.385
N5460 G2 X71.062 Y9.406 I13.72 J-102.81
N5470 G3 X84.617 Y13.363 I-6.062 J45.956
N5480 G2 X86.556 Y13.853 I2.247 J-4.81
N5490 X88.544 Y13.634 I0.347 J-5.968
N5500 G3 X88.913 Y13.844 I0.082 J0.286
N5510 G2 X89.737 Y15.667 I5.783 J-1.516
N5520 X91.146 Y17.086 I4.404 J-2.965
N5530 G3 X94.596 Y19.655 I-29.567 J43.286
N5540 X97.791 Y22.535 I-26.055 J32.131
N5550 X99.176 Y24.497 I-4.995 J4.995
N5560 G1 X110.514 Y48.35
N5570 G3 X111.161 Y50.663 I-6.38 J3.032
N5580 X92.347 Y92.818 I-46.074 J4.713
N5590 X72.11 Y101.186 I-27.32 J-37.42
N5600 G1 X59.028 Y102.821
N5610 G3 X45.819 Y99.183 I5.976 J-47.497
N5620 X38.019 Y15.863 I19.182 J-43.82
N5630 G2 X38.283 Y9.18 I-2.35 J-3.44
N5640 G3 X38.324 Y8.843 I0.126 J-0.156
N5650 G1 X38.593 Y8.718
N5660 G3 X38.875 Y8.87 I0.084 J0.181
N5670 G2 X44.757 Y12.022 I4.119 J-0.622
N5680 G3 X59.297 Y7.869 I20.243 J43.34
N5690 G2 X59.689 Y7.821 I-13.91 J-115.848
N5700 G1 X70.914 Y7.893
N5710 G2 X71.256 Y7.938 I15.608 J-115.681
N5720 G3 X85.243 Y12.022 I-6.256 J47.424
N5730 G2 X91.125 Y8.872 I1.763 J-3.774
N5740 G3 X91.399 Y8.717 I0.198 J0.03
N5750 G1 X91.703 Y8.842
N5760 G3 X91.751 Y9.184 I-0.076 J0.185
N5770 G2 X91.981 Y15.863 I2.587 J3.255
N5780 G3 X95.644 Y18.604 I-29.879 J43.742
N5790 X99.029 Y21.682 I-27.828 J34.017
N5800 X100.41 Y23.648 I-5.083 J5.038
N5810 G1 X111.952 Y47.929
N5820 G3 X112.605 Y50.242 I-6.464 J3.072
N5830 X70.97 Y102.822 I-47.6 J5.082
N5840 G1 X61.092 Y104.403
N5850 G3 X45.273 Y100.428 I3.92 J-49.069
N5860 X37.252 Y14.74 I19.727 J-45.066
N5870 G2 X36.977 Y9.941 I-1.583 J-2.317
N5880 G3 X36.913 Y6.094 I1.023 J-1.941
N5890 X40.192 Y8.109 I1.087 J1.906
N5900 G2 X44.181 Y10.79 I2.802 J0.139
N5910 G3 X50.818 Y8.256 I20.819 J44.572
N5920 G1 X53.156 Y7.615
N5930 G3 X59.135 Y6.518 I11.844 J47.747
N5940 G1 X59.689 Y6.446
N5950 X70.901 Y6.515
N5960 X71.434 Y6.59
N5970 G3 X76.838 Y7.613 I-6.434 J48.772
N5980 G1 X79.189 Y8.258
N5990 G3 X85.819 Y10.79 I-14.189 J47.104
N6000 G2 X89.808 Y8.109 I1.187 J-2.542
N6010 G3 X94.006 Y7.047 I2.205 J-0.11
N6020 G2 X94.143 Y7.314 I4.343 J-2.064
N6030 G3 X94.28 Y7.581 I-4.205 J2.331
N6040 Y8.419 I-0.882 J0.419
N6050 X93.775 Y9.282 I-5.248 J-2.494
N6060 X93.023 Y9.941 I-1.753 J-1.241
N6070 G2 X92.748 Y14.74 I1.308 J2.482
N6080 G3 X96.595 Y17.626 I-30.599 J44.797
N6090 X100.142 Y20.872 I-28.734 J34.962
N6100 X101.566 Y22.908 I-5.35 J5.256
N6110 G1 X113.255 Y47.5
N6120 G3 X113.935 Y49.89 I-6.773 J3.219
N6130 X68.916 Y104.404 I-48.923 J5.443
N6140 G1 X67.919 Y104.483
N6150 G0 Z5
N6160 X70.88 Y4.697
N6170 G1 Z2.5 F80
N6180 Z-1.5 F500
N6190 G3 X70.904 Y4.699 I-0.016 J0.298
N6200 G1 X71.67 Y4.8
N6210 G3 X86.583 Y9.154 I-6.67 J50.562
N6220 G2 X88.005 Y8.198 I0.423 J-0.906
N6230 G3 X95.613 Y6.283 I3.995 J-0.198
N6240 G1 X96.429 Y8
N6250 X95.613 Y9.717
N6260 G3 X93.865 Y11.539 I-3.613 J-1.717
N6270 G2 X93.767 Y13.249 I0.466 J0.885
N6280 G3 X102.523 Y20.822 I-28.766 J42.113
N6290 G1 X115.477 Y48.075
N6300 G3 X44.549 Y102.082 I-50.477 J7.287
N6310 X36.233 Y13.249 I20.451 J-46.72
N6320 G2 X36.135 Y11.539 I-0.564 J-0.826
N6330 G3 X36.019 Y4.525 I1.865 J-3.539
N6340 X41.995 Y8.198 I1.981 J3.475
N6350 G2 X43.417 Y9.154 I0.999 J0.05
N6360 G3 X58.92 Y4.726 I21.583 J46.208
N6370 G1 X59.691 Y4.633
N6380 G0 Z10

(2D ??2)
N6400 X73 Y97.362
N6410 Z10
N6420 Z5
N6430 G1 Z2.5 F80
N6440 Z-1.5
N6450 G3 X57 I-8 J0 F500
N6460 X73 I8 J0
N6470 G1 Z-3 F80
N6480 G3 X57 I-8 J0 F500
N6490 X73 I8 J0
N6500 G1 Z-4.2 F80
N6510 G3 X57 I-8 J0 F500
N6520 X73 I8 J0
N6530 G0 Z5
N6540 X122.6 Y82
N6550 G1 Z2.5 F80
N6560 Z-1.5
N6570 G3 X121.4 I-0.6 J0 F500
N6580 X122.6 I0.6 J0
N6590 G1 Z-3 F80
N6600 G3 X121.4 I-0.6 J0 F500
N6610 X122.6 I0.6 J0
N6620 G1 Z-4.2 F80
N6630 G3 X121.4 I-0.6 J0 F500
N6640 X122.6 I0.6 J0
N6650 G0 Z5
N6660 X112.304 Y23.015
N6670 G1 Z2.5 F80
N6680 Z-1.5
N6690 G3 X111.104 Y22.985 I-0.6 J-0.015 F500
N6700 X112.304 Y23 I0.6 J0.015
N6710 Y23.015 I-0.6 J0
N6720 G1 Z-3 F80
N6730 G3 X111.104 Y22.985 I-0.6 J-0.015 F500
N6740 X112.304 Y23 I0.6 J0.015
N6750 Y23.015 I-0.6 J0
N6760 G1 Z-4.2 F80
N6770 G3 X111.104 Y22.985 I-0.6 J-0.015 F500
N6780 X112.304 Y23 I0.6 J0.015
N6790 Y23.015 I-0.6 J0
N6800 G0 Z5
N6810 X101.016 Y4.352
N6820 G1 Z2.5 F80
N6830 Z-1.5
N6840 X106.516 F500
N6850 Y11.352
N6860 X97.516
N6870 Y4.352
N6880 X101.016
N6890 Z-3 F80
N6900 X106.516 F500
N6910 Y11.352
N6920 X97.516
N6930 Y4.352
N6940 X101.016
N6950 Z-4.2 F80
N6960 X106.516 F500
N6970 Y11.352
N6980 X97.516
N6990 Y4.352
N7000 X101.016
N7010 G0 Z5
N7020 X93.15 Y8
N7030 G1 Z2.5 F80
N7040 Z-1.5
N7050 G3 X90.85 I-1.15 J0 F500
N7060 X93.15 I1.15 J0
N7070 G1 Z-3 F80
N7080 G3 X90.85 I-1.15 J0 F500
N7090 X93.15 I1.15 J0
N7100 G1 Z-4.2 F80
N7110 G3 X90.85 I-1.15 J0 F500
N7120 X93.15 I1.15 J0
N7130 G0 Z5
N7140 X79.15
N7150 G1 Z2.5 F80
N7160 Z-1.5
N7170 G3 X76.85 I-1.15 J0 F500
N7180 X79.15 I1.15 J0
N7190 G1 Z-3 F80
N7200 G3 X76.85 I-1.15 J0 F500
N7210 X79.15 I1.15 J0
N7220 G1 Z-4.2 F80
N7230 G3 X76.85 I-1.15 J0 F500
N7240 X79.15 I1.15 J0
N7250 G0 Z5
N7260 X53.15
N7270 G1 Z2.5 F80
N7280 Z-1.5
N7290 G3 X50.85 I-1.15 J0 F500
N7300 X53.15 I1.15 J0
N7310 G1 Z-3 F80
N7320 G3 X50.85 I-1.15 J0 F500
N7330 X53.15 I1.15 J0
N7340 G1 Z-4.2 F80
N7350 G3 X50.85 I-1.15 J0 F500
N7360 X53.15 I1.15 J0
N7370 G0 Z5
N7380 X39.15
N7390 G1 Z2.5 F80
N7400 Z-1.5
N7410 G3 X36.85 I-1.15 J0 F500
N7420 X39.15 I1.15 J0
N7430 G1 Z-3 F80
N7440 G3 X36.85 I-1.15 J0 F500
N7450 X39.15 I1.15 J0
N7460 G1 Z-4.2 F80
N7470 G3 X36.85 I-1.15 J0 F500
N7480 X39.15 I1.15 J0
N7490 G0 Z5
N7500 X18.896 Y23
N7510 G1 Z2.5 F80
N7520 Z-1.5
N7530 G3 X17.696 I-0.6 J0 F500
N7540 X18.896 I0.6 J0
N7550 G1 Z-3 F80
N7560 G3 X17.696 I-0.6 J0 F500
N7570 X18.896 I0.6 J0
N7580 G1 Z-4.2 F80
N7590 G3 X17.696 I-0.6 J0 F500
N7600 X18.896 I0.6 J0
N7610 G0 Z5
N7620 X8.6 Y8.015
N7630 G1 Z2.5 F80
N7640 Z-1.5
N7650 G3 X7.4 Y7.985 I-0.6 J-0.015 F500
N7660 X8.6 Y8 I0.6 J0.015
N7670 Y8.015 I-0.6 J0
N7680 G1 Z-3 F80
N7690 G3 X7.4 Y7.985 I-0.6 J-0.015 F500
N7700 X8.6 Y8 I0.6 J0.015
N7710 Y8.015 I-0.6 J0
N7720 G1 Z-4.2 F80
N7730 G3 X7.4 Y7.985 I-0.6 J-0.015 F500
N7740 X8.6 Y8 I0.6 J0.015
N7750 Y8.015 I-0.6 J0
N7760 G0 Z5
N7770 Y82
N7780 G1 Z2.5 F80
N7790 Z-1.5
N7800 G3 X7.4 I-0.6 J0 F500
N7810 X8.6 I0.6 J0
N7820 G1 Z-3 F80
N7830 G3 X7.4 I-0.6 J0 F500
N7840 X8.6 I0.6 J0
N7850 G1 Z-4.2 F80
N7860 G3 X7.4 I-0.6 J0 F500
N7870 X8.6 I0.6 J0
N7880 G0 Z5
N7890 X33.514 Y186.924
N7900 G1 Z2.5 F80
N7910 Z-1.5
N7920 Y190.424 F500
N7930 X23.514
N7940 Y183.424
N7950 X33.514
N7960 Y186.924
N7970 Z-3 F80
N7980 Y190.424 F500
N7990 X23.514
N8000 Y183.424
N8010 X33.514
N8020 Y186.924
N8030 Z-4.2 F80
N8040 Y190.424 F500
N8050 X23.514
N8060 Y183.424
N8070 X33.514
N8080 Y186.924
N8090 G0 Z5
N8100 X39.15 Y186.752
N8110 G1 Z2.5 F80
N8120 Z-1.5
N8130 G3 X36.85 Y186.696 I-1.15 J-0.028 F500
N8140 X39.15 Y186.724 I1.15 J0.028
N8150 Y186.752 I-1.15 J0
N8160 G1 Z-3 F80
N8170 G3 X36.85 Y186.696 I-1.15 J-0.028 F500
N8180 X39.15 Y186.724 I1.15 J0.028
N8190 Y186.752 I-1.15 J0
N8200 G1 Z-4.2 F80
N8210 G3 X36.85 Y186.696 I-1.15 J-0.028 F500
N8220 X39.15 Y186.724 I1.15 J0.028
N8230 Y186.752 I-1.15 J0
N8240 G0 Z5
N8250 X53.15
N8260 G1 Z2.5 F80
N8270 Z-1.5
N8280 G3 X50.85 Y186.696 I-1.15 J-0.028 F500
N8290 X53.15 Y186.752 I1.15 J0.028
N8300 G1 Z-3 F80
N8310 G3 X50.85 Y186.696 I-1.15 J-0.028 F500
N8320 X53.15 Y186.752 I1.15 J0.028
N8330 G1 Z-4.2 F80
N8340 G3 X50.85 Y186.696 I-1.15 J-0.028 F500
N8350 X53.15 Y186.752 I1.15 J0.028
N8360 G0 Z5
N8370 X79.15
N8380 G1 Z2.5 F80
N8390 Z-1.5
N8400 G3 X76.85 Y186.696 I-1.15 J-0.028 F500
N8410 X79.15 Y186.724 I1.15 J0.028
N8420 Y186.752 I-1.15 J0
N8430 G1 Z-3 F80
N8440 G3 X76.85 Y186.696 I-1.15 J-0.028 F500
N8450 X79.15 Y186.724 I1.15 J0.028
N8460 Y186.752 I-1.15 J0
N8470 G1 Z-4.2 F80
N8480 G3 X76.85 Y186.696 I-1.15 J-0.028 F500
N8490 X79.15 Y186.724 I1.15 J0.028
N8500 Y186.752 I-1.15 J0
N8510 G0 Z5
N8520 X93.15
N8530 G1 Z2.5 F80
N8540 Z-1.5
N8550 G3 X90.85 Y186.696 I-1.15 J-0.028 F500
N8560 X93.15 Y186.752 I1.15 J0.028
N8570 G1 Z-3 F80
N8580 G3 X90.85 Y186.696 I-1.15 J-0.028 F500
N8590 X93.15 Y186.752 I1.15 J0.028
N8600 G1 Z-4.2 F80
N8610 G3 X90.85 Y186.696 I-1.15 J-0.028 F500
N8620 X93.15 Y186.752 I1.15 J0.028
N8630 G0 Z5
N8640 X122.6 Y186.724
N8650 G1 Z2.5 F80
N8660 Z-1.5
N8670 G3 X121.4 I-0.6 J0 F500
N8680 X122.6 I0.6 J0
N8690 G1 Z-3 F80
N8700 G3 X121.4 I-0.6 J0 F500
N8710 X122.6 I0.6 J0
N8720 G1 Z-4.2 F80
N8730 G3 X121.4 I-0.6 J0 F500
N8740 X122.6 I0.6 J0
N8750 G0 Z5
N8760 X8.6
N8770 G1 Z2.5 F80
N8780 Z-1.5
N8790 G3 X7.4 I-0.6 J0 F500
N8800 X8.6 I0.6 J0
N8810 G1 Z-3 F80
N8820 G3 X7.4 I-0.6 J0 F500
N8830 X8.6 I0.6 J0
N8840 G1 Z-4.2 F80
N8850 G3 X7.4 I-0.6 J0 F500
N8860 X8.6 I0.6 J0
N8870 G0 Z5
N8880 X122.6 Y8.015
N8890 G1 Z2.5 F80
N8900 Z-1.5
N8910 G3 X121.4 Y7.985 I-0.6 J-0.015 F500
N8920 X122.6 Y8 I0.6 J0.015
N8930 Y8.015 I-0.6 J0
N8940 G1 Z-3 F80
N8950 G3 X121.4 Y7.985 I-0.6 J-0.015 F500
N8960 X122.6 Y8 I0.6 J0.015
N8970 Y8.015 I-0.6 J0
N8980 G1 Z-4.2 F80
N8990 G3 X121.4 Y7.985 I-0.6 J-0.015 F500
N9000 X122.6 Y8 I0.6 J0.015
N9010 Y8.015 I-0.6 J0
N9020 G0 Z10

(2D ??3)
N9040 X46.447 Y176.724
N9050 Z10
N9060 Z5
N9070 G1 Z2.5 F80
N9080 Z-1.5
N9090 X18.989 F500
N9100 X15 Y175.824
N9110 Y117.888
N9120 G3 X17.025 Y112.201 I9 J0.001
N9130 X22.97 Y106.7 I22.475 J18.326
N9140 X33.254 I5.142 J7.43
N9150 G2 X33.298 Y106.729 I0.569 J-0.822
N9160 X65 Y115.724 I31.702 J-51.367
N9170 G1 X130
N9180 G2 X131 Y114.724 I0 J-1
N9190 G1 Y0
N9200 G2 X130 Y-1 I-1 J0
N9210 G1 X71.801
N9220 G2 X70.801 Y0 I0 J1
N9230 G1 Y12.622
N9240 X59.801
N9250 Y0
N9260 G2 X58.801 Y-1 I-1 J0
N9270 G1 X0
N9280 G2 X-1 Y0 I0 J1
N9290 G1 Y194.724
N9300 G2 X0 Y195.724 I1 J0
N9310 G1 X58.801
N9320 G2 X59.801 Y194.724 I0 J-1
N9330 G1 Y183.769
N9340 X70.801
N9350 Y194.724
N9360 G2 X71.801 Y195.724 I1 J0
N9370 G1 X130
N9380 G2 X131 Y194.724 I0 J-1
N9390 G1 Y177.724
N9400 G2 X130 Y176.724 I-1 J0
N9410 G1 X64.827
N9420 X46.447
N9430 Z-3 F80
N9440 X18.989 F500
N9450 X15 Y175.824
N9460 Y117.888
N9470 G3 X17.025 Y112.201 I9 J0.001
N9480 X22.97 Y106.7 I22.475 J18.326
N9490 X33.254 I5.142 J7.43
N9500 G2 X33.298 Y106.729 I0.569 J-0.822
N9510 X65 Y115.724 I31.702 J-51.367
N9520 G1 X130
N9530 G2 X131 Y114.724 I0 J-1
N9540 G1 Y0
N9550 G2 X130 Y-1 I-1 J0
N9560 G1 X71.801
N9570 G2 X70.801 Y0 I0 J1
N9580 G1 Y12.622
N9590 X59.801
N9600 Y0
N9610 G2 X58.801 Y-1 I-1 J0
N9620 G1 X0
N9630 G2 X-1 Y0 I0 J1
N9640 G1 Y194.724
N9650 G2 X0 Y195.724 I1 J0
N9660 G1 X58.801
N9670 G2 X59.801 Y194.724 I0 J-1
N9680 G1 Y183.769
N9690 X70.801
N9700 Y194.724
N9710 G2 X71.801 Y195.724 I1 J0
N9720 G1 X130
N9730 G2 X131 Y194.724 I0 J-1
N9740 G1 Y177.724
N9750 G2 X130 Y176.724 I-1 J0
N9760 G1 X64.827
N9770 X46.447
N9780 Z-4.2 F80
N9790 X18.989 F500
N9800 X15 Y175.824
N9810 Y117.888
N9820 G3 X17.025 Y112.201 I9 J0.001
N9830 X22.97 Y106.7 I22.475 J18.326
N9840 X33.254 I5.142 J7.43
N9850 G2 X33.298 Y106.729 I0.569 J-0.822
N9860 X65 Y115.724 I31.702 J-51.367
N9870 G1 X130
N9880 G2 X131 Y114.724 I0 J-1
N9890 G1 Y0
N9900 G2 X130 Y-1 I-1 J0
N9910 G1 X71.801
N9920 G2 X70.801 Y0 I0 J1
N9930 G1 Y12.622
N9940 X59.801
N9950 Y0
N9960 G2 X58.801 Y-1 I-1 J0
N9970 G1 X0
N9980 G2 X-1 Y0 I0 J1
N9990 G1 Y194.724
N10000 G2 X0 Y195.724 I1 J0
N10010 G1 X58.801
N10020 G2 X59.801 Y194.724 I0 J-1
N10030 G1 Y183.769
N10040 X70.801
N10050 Y194.724
N10060 G2 X71.801 Y195.724 I1 J0
N10070 G1 X130
N10080 G2 X131 Y194.724 I0 J-1
N10090 G1 Y177.724
N10100 G2 X130 Y176.724 I-1 J0
N10110 G1 X64.827
N10120 X46.447
N10130 G0 Z10
N10150 Z10
N10160 X0 Y0
N10170 M30
%
