%
(1001)
(T1 D=2 CR=0 - ZMIN=-4.2 - flat end mill)
N10 G90 G94
N20 G17
N30 G21
N40 M9
N50 G0 Z10
N60 X0 Y0

(2D ??2)
N70 T1 M6
N80 S8000 M3
N90 G54
N110 G0 X73 Y97.362
N120 G43 Z10
N130 Z6
N140 G1 Z-4.2 F80
N150 G3 X57 I-8 J0 F500
N160 X73 I8 J0
N170 G0 Z6
N180 X122.6 Y82
N190 G1 Z-4.2 F80
N200 G3 X121.4 I-0.6 J0 F500
N210 X122.6 I0.6 J0
N220 G0 Z6
N230 X112.304 Y23.015
N240 G1 Z-4.2 F80
N250 G3 X111.104 Y22.985 I-0.6 J-0.015 F500
N260 X112.304 Y23 I0.6 J0.015
N270 Y23.015 I-0.6 J0
N280 G0 Z6
N290 X101.016 Y12.396
N300 G1 Z-4.2 F80
N310 X97.516 F500
N320 Y5.396
N330 X106.516
N340 Y12.396
N350 X101.016
N360 G0 Z6
N370 X93.15 Y8
N380 G1 Z-4.2 F80
N390 G3 X90.85 I-1.15 J0 F500
N400 X93.15 I1.15 J0
N410 G0 Z6
N420 X79.15
N430 G1 Z-4.2 F80
N440 G3 X76.85 I-1.15 J0 F500
N450 X79.15 I1.15 J0
N460 G0 Z6
N470 X53.15
N480 G1 Z-4.2 F80
N490 G3 X50.85 I-1.15 J0 F500
N500 X53.15 I1.15 J0
N510 G0 Z6
N520 X39.15
N530 G1 Z-4.2 F80
N540 G3 X36.85 I-1.15 J0 F500
N550 X39.15 I1.15 J0
N560 G0 Z6
N570 X18.896 Y23
N580 G1 Z-4.2 F80
N590 G3 X17.696 I-0.6 J0 F500
N600 X18.896 I0.6 J0
N610 G0 Z6
N620 X8.6 Y8.015
N630 G1 Z-4.2 F80
N640 G3 X7.4 Y7.985 I-0.6 J-0.015 F500
N650 X8.6 Y8 I0.6 J0.015
N660 Y8.015 I-0.6 J0
N670 G0 Z6
N680 Y82
N690 G1 Z-4.2 F80
N700 G3 X7.4 I-0.6 J0 F500
N710 X8.6 I0.6 J0
N720 G0 Z6
N730 X32.97 Y187.903
N740 G1 Z-4.2 F80
N750 Y191.403 F500
N760 X22.97
N770 Y184.403
N780 X32.97
N790 Y187.903
N800 G0 Z6
N810 X39.15 Y186.752
N820 G1 Z-4.2 F80
N830 G3 X36.85 Y186.696 I-1.15 J-0.028 F500
N840 X39.15 Y186.752 I1.15 J0.028
N850 G0 Z6
N860 X53.15
N870 G1 Z-4.2 F80
N880 G3 X50.85 Y186.696 I-1.15 J-0.028 F500
N890 X53.15 Y186.752 I1.15 J0.028
N900 G0 Z6
N910 X79.15
N920 G1 Z-4.2 F80
N930 G3 X76.85 Y186.696 I-1.15 J-0.028 F500
N940 X79.15 Y186.724 I1.15 J0.028
N950 Y186.752 I-1.15 J0
N960 G0 Z6
N970 X93.15
N980 G1 Z-4.2 F80
N990 G3 X90.85 Y186.696 I-1.15 J-0.028 F500
N1000 X93.15 Y186.724 I1.15 J0.028
N1010 Y186.752 I-1.15 J0
N1020 G0 Z6
N1030 X122.6 Y186.724
N1040 G1 Z-4.2 F80
N1050 G3 X121.4 I-0.6 J0 F500
N1060 X122.6 I0.6 J0
N1070 G0 Z6
N1080 X8.6
N1090 G1 Z-4.2 F80
N1100 G3 X7.4 I-0.6 J0 F500
N1110 X8.6 I0.6 J0
N1120 G0 Z6
N1130 X122.6 Y8.015
N1140 G1 Z-4.2 F80
N1150 G3 X121.4 Y7.985 I-0.6 J-0.015 F500
N1160 X122.6 Y8 I0.6 J0.015
N1170 Y8.015 I-0.6 J0
N1180 G0 Z10

(2D ??3)
N1200 X130 Y115.724
N1210 Z10
N1220 Z5
N1230 G1 Z2.5 F80
N1240 Z-1.5
N1250 G2 X131 Y114.724 I0 J-1 F500
N1260 G1 Y0
N1270 G2 X130 Y-1 I-1 J0
N1280 G1 X71.801
N1290 G2 X70.801 Y0 I0 J1
N1300 G1 Y12.622
N1310 X59.801
N1320 Y0
N1330 G2 X58.801 Y-1 I-1 J0
N1340 G1 X0
N1350 G2 X-1 Y0 I0 J1
N1360 G1 Y194.724
N1370 G2 X0 Y195.724 I1 J0
N1380 G1 X58.801
N1390 G2 X59.801 Y194.724 I0 J-1
N1400 G1 Y183.769
N1410 X70.801
N1420 Y194.724
N1430 G2 X71.801 Y195.724 I1 J0
N1440 G1 X130
N1450 G2 X131 Y194.724 I0 J-1
N1460 G1 Y177.724
N1470 G2 X130 Y176.724 I-1 J0
N1480 G1 X18.989
N1490 X15 Y175.824
N1500 Y121.138
N1510 X20.414 Y115.724
N1520 X130
N1530 Z-3 F80
N1540 G2 X131 Y114.724 I0 J-1 F500
N1550 G1 Y0
N1560 G2 X130 Y-1 I-1 J0
N1570 G1 X71.801
N1580 G2 X70.801 Y0 I0 J1
N1590 G1 Y12.622
N1600 X59.801
N1610 Y0
N1620 G2 X58.801 Y-1 I-1 J0
N1630 G1 X0
N1640 G2 X-1 Y0 I0 J1
N1650 G1 Y194.724
N1660 G2 X0 Y195.724 I1 J0
N1670 G1 X58.801
N1680 G2 X59.801 Y194.724 I0 J-1
N1690 G1 Y183.769
N1700 X70.801
N1710 Y194.724
N1720 G2 X71.801 Y195.724 I1 J0
N1730 G1 X130
N1740 G2 X131 Y194.724 I0 J-1
N1750 G1 Y177.724
N1760 G2 X130 Y176.724 I-1 J0
N1770 G1 X18.989
N1780 X15 Y175.824
N1790 Y121.138
N1800 X20.414 Y115.724
N1810 X130
N1820 Z-4.2 F80
N1830 G2 X131 Y114.724 I0 J-1 F500
N1840 G1 Y0
N1850 G2 X130 Y-1 I-1 J0
N1860 G1 X71.801
N1870 G2 X70.801 Y0 I0 J1
N1880 G1 Y12.622
N1890 X59.801
N1900 Y0
N1910 G2 X58.801 Y-1 I-1 J0
N1920 G1 X0
N1930 G2 X-1 Y0 I0 J1
N1940 G1 Y194.724
N1950 G2 X0 Y195.724 I1 J0
N1960 G1 X58.801
N1970 G2 X59.801 Y194.724 I0 J-1
N1980 G1 Y183.769
N1990 X70.801
N2000 Y194.724
N2010 G2 X71.801 Y195.724 I1 J0
N2020 G1 X130
N2030 G2 X131 Y194.724 I0 J-1
N2040 G1 Y177.724
N2050 G2 X130 Y176.724 I-1 J0
N2060 G1 X18.989
N2070 X15 Y175.824
N2080 Y121.138
N2090 X20.414 Y115.724
N2100 X130
N2110 G0 Z10
N2130 Z10
N2140 X0 Y0
N2150 M30
%
