%
(1001)
(T1 D=2 CR=0 - ZMIN=-5.7 - flat end mill)
N10 G90 G94
N20 G17
N30 G21
N40 M9
N50 G0 Z10
N60 X0 Y0

(2D ????2)
N70 T1 M6
N80 S8000 M3
N90 G54
N110 G0 X136.902 Y159.637
N120 G43 Z10
N130 Z5
N140 G1 Z2.5 F500
N150 Z-1.5
N160 X136.895
N170 X130.106
N180 G3 X129.787 Y159.318 I0 J-0.319
N190 G1 Y158.63
N200 G3 X130.106 Y158.311 I0.319 J0
N210 G1 X136.89
N220 G3 X137.09 Y158.51 I0 J0.2
N230 G1 X137.093 Y161.002
N240 G3 X136.893 Y161.202 I-0.2 J0
N250 G1 X128.542
N260 G3 X128.222 Y160.882 I0 J-0.319
N270 G1 Y157.066
N280 G3 X128.542 Y156.746 I0.319 J0
N290 G1 X136.892
N300 G3 X137.092 Y156.946 I0 J0.2
N310 G1 X137.1 Y162.562
N320 G3 X136.9 Y162.762 I-0.2 J0
N330 G1 X126.981
N340 G3 X126.662 Y162.443 I0 J-0.319
N350 X126.734 Y158.965 I83.824 J0
N360 G2 X126.597 Y155.489 I-21.518 J-0.893
N370 G3 X126.869 Y155.183 I0.272 J-0.033
N380 G1 X136.895 Y155.184
N390 G3 X137.094 Y155.384 I0 J0.2
N400 G1 X137.099 Y164.06
N410 G3 X136.899 Y164.26 I-0.2 J0
N420 G1 X125.483
N430 G3 X125.164 Y163.941 I0 J-0.319
N440 G1 X125.209 Y156.564
N450 G2 X125.07 Y155.246 I-6.299 J0
N460 X124.7 Y153.974 I-9.028 J1.932
N470 G3 X124.901 Y153.685 I0.201 J-0.074
N480 G1 X136.888 Y153.686
N490 G3 X137.088 Y153.886 I0 J0.2
N500 G1 X137.089 Y165.46
N510 G3 X136.889 Y165.66 I-0.2 J0
N520 G1 X124.077
N530 G3 X123.764 Y165.347 I0 J-0.313
N540 G1 X123.808 Y156.564
N550 G2 X123.391 Y154.406 I-5.786 J0
N560 X122.234 Y152.537 I-5.957 J2.394
N570 G3 X122.347 Y152.285 I0.113 J-0.101
N580 G1 X136.895 Y152.286
N590 G3 X137.095 Y152.486 I0 J0.2
N600 G1 X137.089 Y166.692
N610 G3 X136.889 Y166.892 I-0.2 J0
N620 G1 X122.852
N630 G3 X122.532 Y166.572 I0 J-0.319
N640 G1 X122.577 Y156.564
N650 G2 X117.7 Y151.687 I-4.877 J0
N660 G1 X116.501 Y151.688
N670 G3 X116.301 Y151.48 I0 J-0.2
N680 G1 X116.309 Y151.28
N690 G3 X116.509 Y151.088 I0.2 J0.008
N700 G1 X127.398 Y151.101
N710 X136.892 Y151.09
N720 G3 X137.067 Y151.265 I0 J0.175
N730 X136.893 Y151.44 I-0.175 J0
N740 G1 X126.7 Y151.45
N750 X116.509 Y151.263
N760 G3 X116.496 Y150.915 I0.003 J-0.175
N770 G1 X121.859 Y150.396
N780 X127.398 Y150.403
N790 X131.348 Y150.398
N800 X132.656 Y150.397
N810 X136.892 Y150.392
N820 G3 X137.092 Y150.592 I0 J0.2
N830 G1 Y167.39
N840 G3 X136.892 Y167.59 I-0.2 J0
N850 G1 X132.67
N860 X131.335
N870 X122.153
N880 G3 X121.834 Y167.271 I0 J-0.319
N890 G1 X121.879 Y156.564
N900 G2 X117.7 Y152.385 I-4.179 J0
N910 G1 X116.501 Y152.387
N920 G3 X116.301 Y152.186 I0 J-0.2
N930 G1 X116.305 Y150.59
N940 G3 X116.505 Y150.39 I0.2 J0.001
N950 G1 X120.537 Y150.395
N960 G3 X120.538 Y151.177 I0 J0.391
N970 G1 X118.596 Y151.182
N980 G3 X118.521 Y151.175 I-0.001 J-0.391
N990 G1 X116.505 Y150.781
N1000 G3 X116.19 Y150.421 I0.075 J-0.384
N1010 G1 X116.117 Y149.241
N1020 G3 X116.508 Y148.826 I0.39 J-0.024
N1030 G1 X127.398 Y148.838
N1040 X136.892 Y148.828
N1050 G3 X137.092 Y149.028 I0 J0.2
N1060 G1 X137.09 Y168.955
N1070 G3 X136.89 Y169.155 I-0.2 J0
N1080 G1 X120.589
N1090 G3 X120.269 Y168.835 I0 J-0.319
N1100 G1 X120.314 Y156.564
N1110 G2 X117.7 Y153.95 I-2.614 J0
N1120 G1 X116.501 Y153.951
N1130 G3 X116.301 Y153.751 I0 J-0.2
N1140 G1 X116.299 Y147.421
N1150 G3 X116.499 Y147.221 I0.2 J0
N1160 G1 X127.321
N1170 G2 X127.398 Y147.224 I0.077 J-0.997
N1180 G1 X136
N1190 X136.899
N1200 G3 X137.099 Y147.424 I0 J0.2
N1210 G1 Y170.524
N1220 G3 X136.899 Y170.724 I-0.2 J0
N1230 G1 X118.7
N1240 Y156.564
N1250 G2 X117.7 Y155.564 I-1 J0
N1260 G1 X116.499
N1270 G3 X116.451 Y154.687 I0 J-0.44
N1280 G1 X117.622 Y154.558
N1290 G3 X117.778 Y154.569 I0.048 J0.437
N1300 G1 X136.699 Y159.376
N1310 X136.937 Y159.506
N1320 G3 X136.902 Y159.637 I-0.034 J0.061
N1330 G1 Z-2.5
N1340 X136.895
N1350 X130.106
N1360 G3 X129.787 Y159.318 I0 J-0.319
N1370 G1 Y158.63
N1380 G3 X130.106 Y158.311 I0.319 J0
N1390 G1 X136.89
N1400 G3 X137.09 Y158.51 I0 J0.2
N1410 G1 X137.093 Y161.002
N1420 G3 X136.893 Y161.202 I-0.2 J0
N1430 G1 X128.542
N1440 G3 X128.222 Y160.882 I0 J-0.319
N1450 G1 Y157.066
N1460 G3 X128.542 Y156.746 I0.319 J0
N1470 G1 X136.892
N1480 G3 X137.092 Y156.946 I0 J0.2
N1490 G1 X137.1 Y162.562
N1500 G3 X136.9 Y162.762 I-0.2 J0
N1510 G1 X126.981
N1520 G3 X126.662 Y162.443 I0 J-0.319
N1530 X126.734 Y158.965 I83.824 J0
N1540 G2 X126.597 Y155.489 I-21.518 J-0.893
N1550 G3 X126.869 Y155.183 I0.272 J-0.033
N1560 G1 X136.895 Y155.184
N1570 G3 X137.094 Y155.384 I0 J0.2
N1580 G1 X137.099 Y164.06
N1590 G3 X136.899 Y164.26 I-0.2 J0
N1600 G1 X125.483
N1610 G3 X125.164 Y163.941 I0 J-0.319
N1620 G1 X125.209 Y156.564
N1630 G2 X125.07 Y155.246 I-6.299 J0
N1640 X124.7 Y153.974 I-9.028 J1.932
N1650 G3 X124.901 Y153.685 I0.201 J-0.074
N1660 G1 X136.888 Y153.686
N1670 G3 X137.088 Y153.886 I0 J0.2
N1680 G1 X137.089 Y165.46
N1690 G3 X136.889 Y165.66 I-0.2 J0
N1700 G1 X124.077
N1710 G3 X123.764 Y165.347 I0 J-0.313
N1720 G1 X123.808 Y156.564
N1730 G2 X123.391 Y154.406 I-5.786 J0
N1740 X122.234 Y152.537 I-5.957 J2.394
N1750 G3 X122.347 Y152.285 I0.113 J-0.101
N1760 G1 X136.895 Y152.286
N1770 G3 X137.095 Y152.486 I0 J0.2
N1780 G1 X137.089 Y166.692
N1790 G3 X136.889 Y166.892 I-0.2 J0
N1800 G1 X122.852
N1810 G3 X122.532 Y166.572 I0 J-0.319
N1820 G1 X122.577 Y156.564
N1830 G2 X117.7 Y151.687 I-4.877 J0
N1840 G1 X116.501 Y151.688
N1850 G3 X116.301 Y151.48 I0 J-0.2
N1860 G1 X116.309 Y151.28
N1870 G3 X116.509 Y151.088 I0.2 J0.008
N1880 G1 X127.398 Y151.101
N1890 X136.892 Y151.09
N1900 G3 X137.067 Y151.265 I0 J0.175
N1910 X136.893 Y151.44 I-0.175 J0
N1920 G1 X126.7 Y151.45
N1930 X116.509 Y151.263
N1940 G3 X116.496 Y150.915 I0.003 J-0.175
N1950 G1 X121.859 Y150.396
N1960 X127.398 Y150.403
N1970 X131.348 Y150.398
N1980 X132.656 Y150.397
N1990 X136.892 Y150.392
N2000 G3 X137.092 Y150.592 I0 J0.2
N2010 G1 Y167.39
N2020 G3 X136.892 Y167.59 I-0.2 J0
N2030 G1 X132.67
N2040 X131.335
N2050 X122.153
N2060 G3 X121.834 Y167.271 I0 J-0.319
N2070 G1 X121.879 Y156.564
N2080 G2 X117.7 Y152.385 I-4.179 J0
N2090 G1 X116.501 Y152.387
N2100 G3 X116.301 Y152.186 I0 J-0.2
N2110 G1 X116.305 Y150.59
N2120 G3 X116.505 Y150.39 I0.2 J0.001
N2130 G1 X120.537 Y150.395
N2140 G3 X120.538 Y151.177 I0 J0.391
N2150 G1 X118.596 Y151.182
N2160 G3 X118.521 Y151.175 I-0.001 J-0.391
N2170 G1 X116.505 Y150.781
N2180 G3 X116.19 Y150.421 I0.075 J-0.384
N2190 G1 X116.117 Y149.241
N2200 G3 X116.508 Y148.826 I0.39 J-0.024
N2210 G1 X127.398 Y148.838
N2220 X136.892 Y148.828
N2230 G3 X137.092 Y149.028 I0 J0.2
N2240 G1 X137.09 Y168.955
N2250 G3 X136.89 Y169.155 I-0.2 J0
N2260 G1 X120.589
N2270 G3 X120.269 Y168.835 I0 J-0.319
N2280 G1 X120.314 Y156.564
N2290 G2 X117.7 Y153.95 I-2.614 J0
N2300 G1 X116.501 Y153.951
N2310 G3 X116.301 Y153.751 I0 J-0.2
N2320 G1 X116.299 Y147.421
N2330 G3 X116.499 Y147.221 I0.2 J0
N2340 G1 X127.321
N2350 G2 X127.398 Y147.224 I0.077 J-0.997
N2360 G1 X136
N2370 X136.899
N2380 G3 X137.099 Y147.424 I0 J0.2
N2390 G1 Y170.524
N2400 G3 X136.899 Y170.724 I-0.2 J0
N2410 G1 X118.7
N2420 Y156.564
N2430 G2 X117.7 Y155.564 I-1 J0
N2440 G1 X116.499
N2450 G0 Z10
N2460 X56.214 Y187.631
N2470 Z5
N2480 G1 Z2.5 F500
N2490 Z-1.5
N2500 Y187.623
N2510 Y186.957
N2520 G3 X56.533 Y186.638 I0.319 J0
N2530 G1 X71.634
N2540 G3 X71.953 Y186.957 I0 J0.319
N2550 G1 Y187.611
N2560 G3 X71.753 Y187.811 I-0.2 J0
N2570 G1 X54.849 Y187.821
N2580 G3 X54.649 Y187.621 I0 J-0.2
N2590 G1 Y185.393
N2600 G3 X54.969 Y185.073 I0.319 J0
N2610 G1 X73.198
N2620 G3 X73.517 Y185.393 I0 J0.319
N2630 G1 Y187.613
N2640 G3 X73.317 Y187.813 I-0.2 J0
N2650 G1 X53.285 Y187.819
N2660 G3 X53.085 Y187.619 I0 J-0.2
N2670 G1 Y183.828
N2680 G3 X53.404 Y183.509 I0.319 J0
N2690 G1 X74.762
N2700 G3 X75.082 Y183.828 I0 J0.319
N2710 G1 Y187.615
N2720 G3 X74.882 Y187.815 I-0.2 J0
N2730 G1 X51.72 Y187.817
N2740 G3 X51.52 Y187.617 I0 J-0.2
N2750 G1 Y182.264
N2760 G3 X51.84 Y181.944 I0.319 J0
N2770 G1 X76.327
N2780 G3 X76.646 Y182.264 I0 J0.319
N2790 G1 Y187.617
N2800 G3 X76.446 Y187.817 I-0.2 J0
N2810 G1 X50.156 Y187.815
N2820 G3 X49.956 Y187.615 I0 J-0.2
N2830 G1 Y180.699
N2840 G3 X50.275 Y180.38 I0.319 J0
N2850 G1 X77.891
N2860 G3 X78.211 Y180.699 I0 J0.319
N2870 G1 Y187.619
N2880 G3 X78.011 Y187.819 I-0.2 J0
N2890 G1 X48.592 Y187.813
N2900 G3 X48.392 Y187.613 I0 J-0.2
N2910 G1 Y179.135
N2920 G3 X48.711 Y178.816 I0.319 J0
N2930 G1 X79.456
N2940 G3 X79.775 Y179.135 I0 J0.319
N2950 G1 Y187.621
N2960 G3 X79.575 Y187.821 I-0.2 J0
N2970 G1 X47.027 Y187.811
N2980 G3 X46.827 Y187.611 I0 J-0.2
N2990 G1 Y177.57
N3000 G3 X47.146 Y177.251 I0.319 J0
N3010 G1 X81.02
N3020 G3 X81.34 Y177.57 I0 J0.319
N3030 G1 Y187.623
N3040 G3 X81.14 Y187.823 I-0.2 J0
N3050 G1 X45.463 Y187.822
N3060 G3 X45.263 Y187.622 I0 J-0.2
N3070 G1 Y176.006
N3080 G3 X45.582 Y175.687 I0.319 J0
N3090 G1 X82.585
N3100 G3 X82.904 Y176.006 I0 J0.319
N3110 G1 Y187.612
N3120 G3 X82.704 Y187.812 I-0.2 J0
N3130 G1 X43.898 Y187.82
N3140 G3 X43.698 Y187.62 I0 J-0.2
N3150 G1 Y174.442
N3160 G3 X44.018 Y174.122 I0.319 J0
N3170 G1 X84.149
N3180 G3 X84.468 Y174.442 I0 J0.319
N3190 G1 Y187.614
N3200 G3 X84.268 Y187.814 I-0.2 J0
N3210 G1 X42.334 Y187.818
N3220 G3 X42.134 Y187.618 I0 J-0.2
N3230 G1 Y182.728
N3240 Y181.42
N3250 Y173.724
N3260 X42.243 Y172.736
N3270 G3 X42.422 Y172.559 I0.199 J0.022
N3280 X42.453 Y172.558 I0.031 J0.318
N3290 G1 X85.713
N3300 G3 X86.033 Y172.877 I0 J0.319
N3310 G1 Y187.616
N3320 G3 X85.833 Y187.816 I-0.2 J0
N3330 G1 X40.769
N3340 G3 X40.569 Y187.616 I0 J-0.2
N3350 G1 Y171.313
N3360 G3 X40.889 Y170.993 I0.319 J0
N3370 G1 X87.278
N3380 G3 X87.597 Y171.313 I0 J0.319
N3390 G1 Y187.618
N3400 G3 X87.397 Y187.818 I-0.2 J0
N3410 G1 X39.2 Y187.811
N3420 G3 X39 Y187.611 I0 J-0.2
N3430 G1 Y169.424
N3440 X89.167
N3450 Y186.724
N3460 Y187.623
N3470 G3 X88.967 Y187.823 I-0.2 J0
N3480 G1 X56.414 Y187.831
N3490 G3 X56.214 Y187.631 I0 J-0.2
N3500 G1 Z-2.5
N3510 Y187.623
N3520 Y186.957
N3530 G3 X56.533 Y186.638 I0.319 J0
N3540 G1 X71.634
N3550 G3 X71.953 Y186.957 I0 J0.319
N3560 G1 Y187.611
N3570 G3 X71.753 Y187.811 I-0.2 J0
N3580 G1 X54.849 Y187.821
N3590 G3 X54.649 Y187.621 I0 J-0.2
N3600 G1 Y185.393
N3610 G3 X54.969 Y185.073 I0.319 J0
N3620 G1 X73.198
N3630 G3 X73.517 Y185.393 I0 J0.319
N3640 G1 Y187.613
N3650 G3 X73.317 Y187.813 I-0.2 J0
N3660 G1 X53.285 Y187.819
N3670 G3 X53.085 Y187.619 I0 J-0.2
N3680 G1 Y183.828
N3690 G3 X53.404 Y183.509 I0.319 J0
N3700 G1 X74.762
N3710 G3 X75.082 Y183.828 I0 J0.319
N3720 G1 Y187.615
N3730 G3 X74.882 Y187.815 I-0.2 J0
N3740 G1 X51.72 Y187.817
N3750 G3 X51.52 Y187.617 I0 J-0.2
N3760 G1 Y182.264
N3770 G3 X51.84 Y181.944 I0.319 J0
N3780 G1 X76.327
N3790 G3 X76.646 Y182.264 I0 J0.319
N3800 G1 Y187.617
N3810 G3 X76.446 Y187.817 I-0.2 J0
N3820 G1 X50.156 Y187.815
N3830 G3 X49.956 Y187.615 I0 J-0.2
N3840 G1 Y180.699
N3850 G3 X50.275 Y180.38 I0.319 J0
N3860 G1 X77.891
N3870 G3 X78.211 Y180.699 I0 J0.319
N3880 G1 Y187.619
N3890 G3 X78.011 Y187.819 I-0.2 J0
N3900 G1 X48.592 Y187.813
N3910 G3 X48.392 Y187.613 I0 J-0.2
N3920 G1 Y179.135
N3930 G3 X48.711 Y178.816 I0.319 J0
N3940 G1 X79.456
N3950 G3 X79.775 Y179.135 I0 J0.319
N3960 G1 Y187.621
N3970 G3 X79.575 Y187.821 I-0.2 J0
N3980 G1 X47.027 Y187.811
N3990 G3 X46.827 Y187.611 I0 J-0.2
N4000 G1 Y177.57
N4010 G3 X47.146 Y177.251 I0.319 J0
N4020 G1 X81.02
N4030 G3 X81.34 Y177.57 I0 J0.319
N4040 G1 Y187.623
N4050 G3 X81.14 Y187.823 I-0.2 J0
N4060 G1 X45.463 Y187.822
N4070 G3 X45.263 Y187.622 I0 J-0.2
N4080 G1 Y176.006
N4090 G3 X45.582 Y175.687 I0.319 J0
N4100 G1 X82.585
N4110 G3 X82.904 Y176.006 I0 J0.319
N4120 G1 Y187.612
N4130 G3 X82.704 Y187.812 I-0.2 J0
N4140 G1 X43.898 Y187.82
N4150 G3 X43.698 Y187.62 I0 J-0.2
N4160 G1 Y174.442
N4170 G3 X44.018 Y174.122 I0.319 J0
N4180 G1 X84.149
N4190 G3 X84.468 Y174.442 I0 J0.319
N4200 G1 Y187.614
N4210 G3 X84.268 Y187.814 I-0.2 J0
N4220 G1 X42.334 Y187.818
N4230 G3 X42.134 Y187.618 I0 J-0.2
N4240 G1 Y182.728
N4250 Y181.42
N4260 Y173.724
N4270 X42.243 Y172.736
N4280 G3 X42.422 Y172.559 I0.199 J0.022
N4290 X42.453 Y172.558 I0.031 J0.318
N4300 G1 X85.713
N4310 G3 X86.033 Y172.877 I0 J0.319
N4320 G1 Y187.616
N4330 G3 X85.833 Y187.816 I-0.2 J0
N4340 G1 X40.769
N4350 G3 X40.569 Y187.616 I0 J-0.2
N4360 G1 Y171.313
N4370 G3 X40.889 Y170.993 I0.319 J0
N4380 G1 X87.278
N4390 G3 X87.597 Y171.313 I0 J0.319
N4400 G1 Y187.618
N4410 G3 X87.397 Y187.818 I-0.2 J0
N4420 G1 X39.2 Y187.811
N4430 G3 X39 Y187.611 I0 J-0.2
N4440 G1 Y169.424
N4450 X89.167
N4460 Y186.724
N4470 Y187.623
N4480 G0 Z10
N4490 X-0.901 Y158.3
N4500 Z5
N4510 G1 Z2.5 F500
N4520 Z-1.5
N4530 X-0.893
N4540 X5.904
N4550 G3 X6.224 Y158.62 I0 J0.319
N4560 G1 Y159.328
N4570 G3 X5.904 Y159.648 I-0.319 J0
N4580 G1 X-0.893
N4590 G3 X-1.093 Y159.448 I0 J-0.2
N4600 G1 X-1.091 Y156.936
N4610 G3 X-0.891 Y156.736 I0.2 J0
N4620 G1 X7.469
N4630 G3 X7.788 Y157.055 I0 J0.319
N4640 G1 Y160.893
N4650 G3 X7.469 Y161.212 I-0.319 J0
N4660 G1 X-0.895
N4670 G3 X-1.095 Y161.012 I0 J-0.2
N4680 G1 X-1.098 Y155.376
N4690 G3 X-0.898 Y155.176 I0.2 J0
N4700 G1 X9.142
N4710 G3 X9.414 Y155.482 I0 J0.273
N4720 G2 X9.275 Y158.967 I21.273 J2.59
N4730 G3 X9.348 Y162.453 I-83.457 J3.486
N4740 X9.029 Y162.772 I-0.319 J0
N4750 G1 X-0.888
N4760 G3 X-1.088 Y162.572 I0 J-0.2
N4770 G1 X-1.097 Y153.879
N4780 G3 X-0.897 Y153.678 I0.2 J0
N4790 G1 X11.112
N4800 G3 X11.313 Y153.967 I0 J0.214
N4810 G2 X10.941 Y155.243 I8.629 J3.207
N4820 X10.801 Y156.564 I6.157 J1.321
N4830 X10.823 Y160.257 I303.101 J0
N4840 G3 X10.846 Y163.95 I-303.078 J3.693
N4850 X10.526 Y164.27 I-0.319 J0
N4860 G1 X-0.889
N4870 G3 X-1.089 Y164.07 I0 J-0.2
N4880 G1 X-1.099 Y152.48
N4890 G3 X-0.899 Y152.28 I0.2 J0
N4900 G1 X13.668
N4910 G3 X13.781 Y152.532 I0 J0.151
N4920 G2 X12.619 Y154.402 I4.783 J4.267
N4930 X12.2 Y156.564 I5.361 J2.162
N4940 X12.222 Y160.959 I438.093 J0
N4950 G3 X12.244 Y165.355 I-438.071 J4.395
N4960 X11.931 Y165.668 I-0.313 J0
N4970 G1 X-0.887
N4980 G3 X-1.087 Y165.468 I0 J-0.2
N4990 G1 X-1.091 Y151.255
N5000 G3 X-0.891 Y151.055 I0.2 J0
N5010 G1 X19.255
N5020 G3 X19.455 Y151.261 I0 J0.2
N5030 G1 X19.449 Y151.494
N5040 G3 X19.249 Y151.689 I-0.2 J-0.005
N5050 G1 X18.3 Y151.688
N5060 G2 X13.424 Y156.564 I0 J4.876
N5070 G1 X13.469 Y166.573
N5080 G3 X13.149 Y166.893 I-0.319 J0
N5090 G1 X-0.895
N5100 G3 X-1.095 Y166.693 I0 J-0.2
N5110 G1 X-1.094 Y150.558
N5120 G3 X-0.894 Y150.358 I0.2 J0
N5130 G1 X3.329
N5140 X4.664
N5150 X14.131
N5160 X15.466
N5170 X19.252
N5180 G3 X19.452 Y150.558 I0 J0.2
N5190 G1 Y152.187
N5200 G3 X19.252 Y152.387 I-0.2 J0
N5210 G1 X18.3 Y152.385
N5220 G2 X14.121 Y156.564 I0 J4.179
N5230 G1 X14.166 Y167.271
N5240 G3 X13.847 Y167.59 I-0.319 J0
N5250 G1 X4.666
N5260 X3.331
N5270 X-0.892
N5280 G3 X-1.092 Y167.39 I0 J-0.2
N5290 G1 Y148.993
N5300 G3 X-0.892 Y148.793 I0.2 J0
N5310 G1 X19.254
N5320 G3 X19.454 Y148.994 I0 J0.2
N5330 G1 X19.45 Y153.751
N5340 G3 X19.25 Y153.951 I-0.2 J0
N5350 G1 X18.3 Y153.95
N5360 G2 X15.686 Y156.564 I0 J2.614
N5370 G1 X15.731 Y168.835
N5380 G3 X15.411 Y169.155 I-0.319 J0
N5390 G1 X-0.894
N5400 G3 X-1.094 Y168.955 I0 J-0.2
N5410 G1 X-1.087 Y147.424
N5420 G3 X-0.887 Y147.224 I0.2 J0
N5430 G1 X19.257
N5440 G3 X19.457 Y147.424 I0 J0.2
N5450 G1 X19.445 Y155.364
N5460 G3 X19.245 Y155.564 I-0.2 J0
N5470 G1 X18.358
N5480 X18.3
N5490 G2 X17.3 Y156.564 I0 J1
N5500 G1 Y170.724
N5510 X0
N5520 X-0.899
N5530 G3 X-1.099 Y170.524 I0 J-0.2
N5540 G1 X-1.101 Y158.5
N5550 G3 X-0.901 Y158.3 I0.2 J0
N5560 G1 Z-2.5
N5570 X-0.893
N5580 X5.904
N5590 G3 X6.224 Y158.62 I0 J0.319
N5600 G1 Y159.328
N5610 G3 X5.904 Y159.648 I-0.319 J0
N5620 G1 X-0.893
N5630 G3 X-1.093 Y159.448 I0 J-0.2
N5640 G1 X-1.091 Y156.936
N5650 G3 X-0.891 Y156.736 I0.2 J0
N5660 G1 X7.469
N5670 G3 X7.788 Y157.055 I0 J0.319
N5680 G1 Y160.893
N5690 G3 X7.469 Y161.212 I-0.319 J0
N5700 G1 X-0.895
N5710 G3 X-1.095 Y161.012 I0 J-0.2
N5720 G1 X-1.098 Y155.376
N5730 G3 X-0.898 Y155.176 I0.2 J0
N5740 G1 X9.142
N5750 G3 X9.414 Y155.482 I0 J0.273
N5760 G2 X9.275 Y158.967 I21.273 J2.59
N5770 G3 X9.348 Y162.453 I-83.457 J3.486
N5780 X9.029 Y162.772 I-0.319 J0
N5790 G1 X-0.888
N5800 G3 X-1.088 Y162.572 I0 J-0.2
N5810 G1 X-1.097 Y153.879
N5820 G3 X-0.897 Y153.678 I0.2 J0
N5830 G1 X11.112
N5840 G3 X11.313 Y153.967 I0 J0.214
N5850 G2 X10.941 Y155.243 I8.629 J3.207
N5860 X10.801 Y156.564 I6.157 J1.321
N5870 X10.823 Y160.257 I303.101 J0
N5880 G3 X10.846 Y163.95 I-303.078 J3.693
N5890 X10.526 Y164.27 I-0.319 J0
N5900 G1 X-0.889
N5910 G3 X-1.089 Y164.07 I0 J-0.2
N5920 G1 X-1.099 Y152.48
N5930 G3 X-0.899 Y152.28 I0.2 J0
N5940 G1 X13.668
N5950 G3 X13.781 Y152.532 I0 J0.151
N5960 G2 X12.619 Y154.402 I4.783 J4.267
N5970 X12.2 Y156.564 I5.361 J2.162
N5980 X12.222 Y160.959 I438.093 J0
N5990 G3 X12.244 Y165.355 I-438.071 J4.395
N6000 X11.931 Y165.668 I-0.313 J0
N6010 G1 X-0.887
N6020 G3 X-1.087 Y165.468 I0 J-0.2
N6030 G1 X-1.091 Y151.255
N6040 G3 X-0.891 Y151.055 I0.2 J0
N6050 G1 X19.255
N6060 G3 X19.455 Y151.261 I0 J0.2
N6070 G1 X19.449 Y151.494
N6080 G3 X19.249 Y151.689 I-0.2 J-0.005
N6090 G1 X18.3 Y151.688
N6100 G2 X13.424 Y156.564 I0 J4.876
N6110 G1 X13.469 Y166.573
N6120 G3 X13.149 Y166.893 I-0.319 J0
N6130 G1 X-0.895
N6140 G3 X-1.095 Y166.693 I0 J-0.2
N6150 G1 X-1.094 Y150.558
N6160 G3 X-0.894 Y150.358 I0.2 J0
N6170 G1 X3.329
N6180 X4.664
N6190 X14.131
N6200 X15.466
N6210 X19.252
N6220 G3 X19.452 Y150.558 I0 J0.2
N6230 G1 Y152.187
N6240 G3 X19.252 Y152.387 I-0.2 J0
N6250 G1 X18.3 Y152.385
N6260 G2 X14.121 Y156.564 I0 J4.179
N6270 G1 X14.166 Y167.271
N6280 G3 X13.847 Y167.59 I-0.319 J0
N6290 G1 X4.666
N6300 X3.331
N6310 X-0.892
N6320 G3 X-1.092 Y167.39 I0 J-0.2
N6330 G1 Y148.993
N6340 G3 X-0.892 Y148.793 I0.2 J0
N6350 G1 X19.254
N6360 G3 X19.454 Y148.994 I0 J0.2
N6370 G1 X19.45 Y153.751
N6380 G3 X19.25 Y153.951 I-0.2 J0
N6390 G1 X18.3 Y153.95
N6400 G2 X15.686 Y156.564 I0 J2.614
N6410 G1 X15.731 Y168.835
N6420 G3 X15.411 Y169.155 I-0.319 J0
N6430 G1 X-0.894
N6440 G3 X-1.094 Y168.955 I0 J-0.2
N6450 G1 X-1.087 Y147.424
N6460 G3 X-0.887 Y147.224 I0.2 J0
N6470 G1 X19.257
N6480 G3 X19.457 Y147.424 I0 J0.2
N6490 G1 X19.445 Y155.364
N6500 G3 X19.245 Y155.564 I-0.2 J0
N6510 G1 X18.358
N6520 X18.3
N6530 G2 X17.3 Y156.564 I0 J1
N6540 G1 Y170.724
N6550 X0
N6560 X-0.899
N6570 G0 Z10
N6580 X-0.905 Y34.956
N6590 Z5
N6600 G1 Z2.5 F500
N6610 Z-1.5
N6620 X-0.897
N6630 X6.025
N6640 G3 X6.344 Y35.275 I0 J0.319
N6650 G1 Y36.225
N6660 G3 X6.025 Y36.544 I-0.319 J0
N6670 G1 X-0.895
N6680 G3 X-1.095 Y36.344 I0 J-0.2
N6690 G1 Y33.592
N6700 G3 X-0.895 Y33.392 I0.2 J0
N6710 G1 X7.589
N6720 G3 X7.908 Y33.711 I0 J0.319
N6730 G1 Y37.789
N6740 G3 X7.589 Y38.108 I-0.319 J0
N6750 G1 X-0.897
N6760 G3 X-1.097 Y37.908 I0 J-0.2
N6770 G1 X-1.093 Y32.027
N6780 G3 X-0.893 Y31.827 I0.2 J0
N6790 G1 X9.154
N6800 G3 X9.473 Y32.146 I0 J0.319
N6810 G1 Y39.354
N6820 G3 X9.154 Y39.673 I-0.319 J0
N6830 G1 X-0.899
N6840 G3 X-1.099 Y39.473 I0 J-0.2
N6850 G1 X-1.091 Y30.463
N6860 G3 X-0.891 Y30.263 I0.2 J0
N6870 G1 X10.718
N6880 G3 X11.037 Y30.582 I0 J0.319
N6890 G1 Y40.918
N6900 G3 X10.718 Y41.237 I-0.319 J0
N6910 G1 X-0.888
N6920 G3 X-1.088 Y41.037 I0 J-0.2
N6930 G1 X-1.089 Y28.898
N6940 G3 X-0.889 Y28.698 I0.2 J0
N6950 G1 X12.282
N6960 G3 X12.602 Y29.018 I0 J0.319
N6970 G1 Y42.482
N6980 G3 X12.282 Y42.802 I-0.319 J0
N6990 G1 X-0.89
N7000 G3 X-1.09 Y42.602 I0 J-0.2
N7010 G1 X-1.087 Y27.334
N7020 G3 X-0.887 Y27.134 I0.2 J0
N7030 G1 X3.336
N7040 X4.671
N7050 X13.847
N7060 G3 X14.166 Y27.453 I0 J0.319
N7070 G1 Y44.047
N7080 G3 X13.847 Y44.366 I-0.319 J0
N7090 G1 X4.666
N7100 X3.331
N7110 X-0.892
N7120 G3 X-1.092 Y44.166 I0 J-0.2
N7130 G1 X-1.099 Y25.77
N7140 G3 X-0.899 Y25.569 I0.2 J0
N7150 G1 X15.411
N7160 G3 X15.731 Y25.889 I0 J0.319
N7170 G1 Y45.611
N7180 G3 X15.411 Y45.931 I-0.319 J0
N7190 G1 X-0.894
N7200 G3 X-1.094 Y45.731 I0 J-0.2
N7210 G1 Y24.2
N7220 G3 X-0.894 Y24 I0.2 J0
N7230 G1 X17.3
N7240 Y47.5
N7250 X0
N7260 X-0.899
N7270 G3 X-1.099 Y47.3 I0 J-0.2
N7280 G1 X-1.105 Y35.156
N7290 G3 X-0.905 Y34.956 I0.2 J0
N7300 G1 Z-2.5
N7310 X-0.897
N7320 X6.025
N7330 G3 X6.344 Y35.275 I0 J0.319
N7340 G1 Y36.225
N7350 G3 X6.025 Y36.544 I-0.319 J0
N7360 G1 X-0.895
N7370 G3 X-1.095 Y36.344 I0 J-0.2
N7380 G1 Y33.592
N7390 G3 X-0.895 Y33.392 I0.2 J0
N7400 G1 X7.589
N7410 G3 X7.908 Y33.711 I0 J0.319
N7420 G1 Y37.789
N7430 G3 X7.589 Y38.108 I-0.319 J0
N7440 G1 X-0.897
N7450 G3 X-1.097 Y37.908 I0 J-0.2
N7460 G1 X-1.093 Y32.027
N7470 G3 X-0.893 Y31.827 I0.2 J0
N7480 G1 X9.154
N7490 G3 X9.473 Y32.146 I0 J0.319
N7500 G1 Y39.354
N7510 G3 X9.154 Y39.673 I-0.319 J0
N7520 G1 X-0.899
N7530 G3 X-1.099 Y39.473 I0 J-0.2
N7540 G1 X-1.091 Y30.463
N7550 G3 X-0.891 Y30.263 I0.2 J0
N7560 G1 X10.718
N7570 G3 X11.037 Y30.582 I0 J0.319
N7580 G1 Y40.918
N7590 G3 X10.718 Y41.237 I-0.319 J0
N7600 G1 X-0.888
N7610 G3 X-1.088 Y41.037 I0 J-0.2
N7620 G1 X-1.089 Y28.898
N7630 G3 X-0.889 Y28.698 I0.2 J0
N7640 G1 X12.282
N7650 G3 X12.602 Y29.018 I0 J0.319
N7660 G1 Y42.482
N7670 G3 X12.282 Y42.802 I-0.319 J0
N7680 G1 X-0.89
N7690 G3 X-1.09 Y42.602 I0 J-0.2
N7700 G1 X-1.087 Y27.334
N7710 G3 X-0.887 Y27.134 I0.2 J0
N7720 G1 X3.336
N7730 X4.671
N7740 X13.847
N7750 G3 X14.166 Y27.453 I0 J0.319
N7760 G1 Y44.047
N7770 G3 X13.847 Y44.366 I-0.319 J0
N7780 G1 X4.666
N7790 X3.331
N7800 X-0.892
N7810 G3 X-1.092 Y44.166 I0 J-0.2
N7820 G1 X-1.099 Y25.77
N7830 G3 X-0.899 Y25.569 I0.2 J0
N7840 G1 X15.411
N7850 G3 X15.731 Y25.889 I0 J0.319
N7860 G1 Y45.611
N7870 G3 X15.411 Y45.931 I-0.319 J0
N7880 G1 X-0.894
N7890 G3 X-1.094 Y45.731 I0 J-0.2
N7900 G1 Y24.2
N7910 G3 X-0.894 Y24 I0.2 J0
N7920 G1 X17.3
N7930 Y47.5
N7940 X0
N7950 X-0.899
N7960 G0 Z10
N7970 X79.786 Y7.098
N7980 Z5
N7990 G1 Z2.5 F500
N8000 Z-1.5
N8010 Y7.113
N8020 Y7.767
N8030 G3 X79.467 Y8.086 I-0.319 J0
N8040 G1 X64.7
N8050 G3 X64.38 Y7.767 I0 J-0.319
N8060 G1 Y7.113
N8070 G3 X64.58 Y6.913 I0.2 J0
N8080 G1 X81.151 Y6.902
N8090 G3 X81.351 Y7.102 I0 J0.2
N8100 G1 Y9.331
N8110 G3 X81.031 Y9.651 I-0.319 J0
N8120 G1 X63.131
N8130 G3 X62.816 Y9.335 I0 J-0.315
N8140 G1 Y7.101
N8150 G3 X63.016 Y6.901 I0.2 J0
N8160 G1 X82.715 Y6.904
N8170 G3 X82.915 Y7.104 I0 J0.2
N8180 G1 Y10.896
N8190 G3 X82.596 Y11.215 I-0.319 J0
N8200 G1 X61.567
N8210 G3 X61.252 Y10.9 I0 J-0.315
N8220 G1 Y7.113
N8230 G3 X61.451 Y6.913 I0.2 J0
N8240 G1 X84.28 Y6.906
N8250 G3 X84.48 Y7.106 I0 J0.2
N8260 G1 Y12.46
N8270 G3 X84.16 Y12.78 I-0.319 J0
N8280 G1 X60.002
N8290 G3 X59.687 Y12.464 I0 J-0.315
N8300 G1 Y7.111
N8310 G3 X59.887 Y6.911 I0.2 J0
N8320 G1 X85.844 Y6.908
N8330 G3 X86.044 Y7.108 I0 J0.2
N8340 G1 Y14.025
N8350 G3 X85.725 Y14.344 I-0.319 J0
N8360 G1 X58.438
N8370 G3 X58.123 Y14.029 I0 J-0.315
N8380 G1 Y7.109
N8390 G3 X58.323 Y6.909 I0.2 J0
N8400 G1 X87.408 Y6.91
N8410 G3 X87.608 Y7.11 I0 J0.2
N8420 G1 Y15.589
N8430 G3 X87.289 Y15.908 I-0.319 J0
N8440 G1 X56.874
N8450 G3 X56.558 Y15.593 I0 J-0.315
N8460 G1 Y7.107
N8470 G3 X56.758 Y6.907 I0.2 J0
N8480 G1 X88.973 Y6.912
N8490 G3 X89.173 Y7.112 I0 J0.2
N8500 G1 Y17.154
N8510 G3 X88.854 Y17.473 I-0.319 J0
N8520 G1 X55.309
N8530 G3 X54.994 Y17.157 I0 J-0.315
N8540 G1 Y7.105
N8550 G3 X55.194 Y6.905 I0.2 J0
N8560 G1 X90.537 Y6.9
N8570 G3 X90.737 Y7.1 I0 J0.2
N8580 G1 Y18.718
N8590 G3 X90.418 Y19.037 I-0.319 J0
N8600 G1 X53.745
N8610 G3 X53.429 Y18.722 I0 J-0.315
N8620 G1 Y7.103
N8630 G3 X53.629 Y6.903 I0.2 J0
N8640 G1 X92.102 Y6.902
N8650 G3 X92.302 Y7.102 I0 J0.2
N8660 G1 Y20.282
N8670 G3 X91.982 Y20.602 I-0.319 J0
N8680 G1 X52.18
N8690 G3 X51.865 Y20.286 I0 J-0.315
N8700 G1 Y7.101
N8710 G3 X52.065 Y6.901 I0.2 J0
N8720 G1 X93.666 Y6.904
N8730 G3 X93.866 Y7.104 I0 J0.2
N8740 G1 Y11.994
N8750 Y13.302
N8760 Y20.998
N8770 X93.757 Y21.988
N8780 G3 X93.578 Y22.165 I-0.199 J-0.022
N8790 X93.547 Y22.166 I-0.031 J-0.318
N8800 G1 X50.616
N8810 G3 X50.301 Y21.851 I0 J-0.315
N8820 G1 Y7.112
N8830 G3 X50.501 Y6.912 I0.2 J0
N8840 G1 X95.231 Y6.906
N8850 G3 X95.431 Y7.106 I0 J0.2
N8860 G1 Y23.411
N8870 G3 X95.111 Y23.731 I-0.319 J0
N8880 G1 X49.051
N8890 G3 X48.736 Y23.415 I0 J-0.315
N8900 G1 Y7.11
N8910 G3 X48.936 Y6.91 I0.2 J0
N8920 G1 X96.8 Y6.911
N8930 G3 X97 Y7.111 I0 J0.2
N8940 G1 Y25.3
N8950 X47.167
N8960 Y8
N8970 Y7.101
N8980 G3 X47.367 Y6.901 I0.2 J0
N8990 G1 X79.586 Y6.898
N9000 G3 X79.786 Y7.098 I0 J0.2
N9010 G1 Z-2.5
N9020 Y7.113
N9030 Y7.767
N9040 G3 X79.467 Y8.086 I-0.319 J0
N9050 G1 X64.7
N9060 G3 X64.38 Y7.767 I0 J-0.319
N9070 G1 Y7.113
N9080 G3 X64.58 Y6.913 I0.2 J0
N9090 G1 X81.151 Y6.902
N9100 G3 X81.351 Y7.102 I0 J0.2
N9110 G1 Y9.331
N9120 G3 X81.031 Y9.651 I-0.319 J0
N9130 G1 X63.131
N9140 G3 X62.816 Y9.335 I0 J-0.315
N9150 G1 Y7.101
N9160 G3 X63.016 Y6.901 I0.2 J0
N9170 G1 X82.715 Y6.904
N9180 G3 X82.915 Y7.104 I0 J0.2
N9190 G1 Y10.896
N9200 G3 X82.596 Y11.215 I-0.319 J0
N9210 G1 X61.567
N9220 G3 X61.252 Y10.9 I0 J-0.315
N9230 G1 Y7.113
N9240 G3 X61.451 Y6.913 I0.2 J0
N9250 G1 X84.28 Y6.906
N9260 G3 X84.48 Y7.106 I0 J0.2
N9270 G1 Y12.46
N9280 G3 X84.16 Y12.78 I-0.319 J0
N9290 G1 X60.002
N9300 G3 X59.687 Y12.464 I0 J-0.315
N9310 G1 Y7.111
N9320 G3 X59.887 Y6.911 I0.2 J0
N9330 G1 X85.844 Y6.908
N9340 G3 X86.044 Y7.108 I0 J0.2
N9350 G1 Y14.025
N9360 G3 X85.725 Y14.344 I-0.319 J0
N9370 G1 X58.438
N9380 G3 X58.123 Y14.029 I0 J-0.315
N9390 G1 Y7.109
N9400 G3 X58.323 Y6.909 I0.2 J0
N9410 G1 X87.408 Y6.91
N9420 G3 X87.608 Y7.11 I0 J0.2
N9430 G1 Y15.589
N9440 G3 X87.289 Y15.908 I-0.319 J0
N9450 G1 X56.874
N9460 G3 X56.558 Y15.593 I0 J-0.315
N9470 G1 Y7.107
N9480 G3 X56.758 Y6.907 I0.2 J0
N9490 G1 X88.973 Y6.912
N9500 G3 X89.173 Y7.112 I0 J0.2
N9510 G1 Y17.154
N9520 G3 X88.854 Y17.473 I-0.319 J0
N9530 G1 X55.309
N9540 G3 X54.994 Y17.157 I0 J-0.315
N9550 G1 Y7.105
N9560 G3 X55.194 Y6.905 I0.2 J0
N9570 G1 X90.537 Y6.9
N9580 G3 X90.737 Y7.1 I0 J0.2
N9590 G1 Y18.718
N9600 G3 X90.418 Y19.037 I-0.319 J0
N9610 G1 X53.745
N9620 G3 X53.429 Y18.722 I0 J-0.315
N9630 G1 Y7.103
N9640 G3 X53.629 Y6.903 I0.2 J0
N9650 G1 X92.102 Y6.902
N9660 G3 X92.302 Y7.102 I0 J0.2
N9670 G1 Y20.282
N9680 G3 X91.982 Y20.602 I-0.319 J0
N9690 G1 X52.18
N9700 G3 X51.865 Y20.286 I0 J-0.315
N9710 G1 Y7.101
N9720 G3 X52.065 Y6.901 I0.2 J0
N9730 G1 X93.666 Y6.904
N9740 G3 X93.866 Y7.104 I0 J0.2
N9750 G1 Y11.994
N9760 Y13.302
N9770 Y20.998
N9780 X93.757 Y21.988
N9790 G3 X93.578 Y22.165 I-0.199 J-0.022
N9800 X93.547 Y22.166 I-0.031 J-0.318
N9810 G1 X50.616
N9820 G3 X50.301 Y21.851 I0 J-0.315
N9830 G1 Y7.112
N9840 G3 X50.501 Y6.912 I0.2 J0
N9850 G1 X95.231 Y6.906
N9860 G3 X95.431 Y7.106 I0 J0.2
N9870 G1 Y23.411
N9880 G3 X95.111 Y23.731 I-0.319 J0
N9890 G1 X49.051
N9900 G3 X48.736 Y23.415 I0 J-0.315
N9910 G1 Y7.11
N9920 G3 X48.936 Y6.91 I0.2 J0
N9930 G1 X96.8 Y6.911
N9940 G3 X97 Y7.111 I0 J0.2
N9950 G1 Y25.3
N9960 X47.167
N9970 Y8
N9980 Y7.101
N9990 G0 Z10
N10000 X136.905 Y36.544
N10010 Z5
N10020 G1 Z2.5 F500
N10030 Z-1.5
N10040 X136.897
N10050 X129.975
N10060 G3 X129.656 Y36.225 I0 J-0.319
N10070 G1 Y35.275
N10080 G3 X129.975 Y34.956 I0.319 J0
N10090 G1 X136.895
N10100 G3 X137.095 Y35.156 I0 J0.2
N10110 G1 Y37.908
N10120 G3 X136.895 Y38.108 I-0.2 J0
N10130 G1 X128.411
N10140 G3 X128.092 Y37.789 I0 J-0.319
N10150 G1 Y33.711
N10160 G3 X128.411 Y33.392 I0.319 J0
N10170 G1 X136.897
N10180 G3 X137.097 Y33.592 I0 J0.2
N10190 G1 X137.093 Y39.473
N10200 G3 X136.893 Y39.673 I-0.2 J0
N10210 G1 X126.846
N10220 G3 X126.527 Y39.354 I0 J-0.319
N10230 G1 Y32.146
N10240 G3 X126.846 Y31.827 I0.319 J0
N10250 G1 X136.899
N10260 G3 X137.099 Y32.027 I0 J0.2
N10270 G1 X137.091 Y41.037
N10280 G3 X136.891 Y41.237 I-0.2 J0
N10290 G1 X125.282
N10300 G3 X124.963 Y40.918 I0 J-0.319
N10310 G1 Y30.582
N10320 G3 X125.282 Y30.263 I0.319 J0
N10330 G1 X136.888
N10340 G3 X137.088 Y30.463 I0 J0.2
N10350 G1 X137.089 Y42.602
N10360 G3 X136.889 Y42.802 I-0.2 J0
N10370 G1 X123.718
N10380 G3 X123.398 Y42.482 I0 J-0.319
N10390 G1 Y29.018
N10400 G3 X123.718 Y28.698 I0.319 J0
N10410 G1 X136.89
N10420 G3 X137.09 Y28.898 I0 J0.2
N10430 G1 X137.086 Y44.166
N10440 G3 X136.886 Y44.366 I-0.2 J0
N10450 G1 X132.664
N10460 X131.329
N10470 X122.153
N10480 G3 X121.834 Y44.047 I0 J-0.319
N10490 G1 Y27.453
N10500 G3 X122.153 Y27.134 I0.319 J0
N10510 G1 X131.334
N10520 X132.669
N10530 X136.892
N10540 G3 X137.092 Y27.334 I0 J0.2
N10550 G1 X137.098 Y45.731
N10560 G3 X136.898 Y45.931 I-0.2 J0
N10570 G1 X120.589
N10580 G3 X120.269 Y45.611 I0 J-0.319
N10590 G1 Y25.889
N10600 G3 X120.589 Y25.569 I0.319 J0
N10610 G1 X136.894
N10620 G3 X137.094 Y25.769 I0 J0.2
N10630 G1 X137.093 Y47.3
N10640 G3 X136.893 Y47.5 I-0.2 J0
N10650 G1 X118.7
N10660 Y24
N10670 X136
N10680 X136.899
N10690 G3 X137.099 Y24.2 I0 J0.2
N10700 G1 X137.105 Y36.344
N10710 G3 X136.905 Y36.544 I-0.2 J0
N10720 G1 Z-2.5
N10730 X136.897
N10740 X129.975
N10750 G3 X129.656 Y36.225 I0 J-0.319
N10760 G1 Y35.275
N10770 G3 X129.975 Y34.956 I0.319 J0
N10780 G1 X136.895
N10790 G3 X137.095 Y35.156 I0 J0.2
N10800 G1 Y37.908
N10810 G3 X136.895 Y38.108 I-0.2 J0
N10820 G1 X128.411
N10830 G3 X128.092 Y37.789 I0 J-0.319
N10840 G1 Y33.711
N10850 G3 X128.411 Y33.392 I0.319 J0
N10860 G1 X136.897
N10870 G3 X137.097 Y33.592 I0 J0.2
N10880 G1 X137.093 Y39.473
N10890 G3 X136.893 Y39.673 I-0.2 J0
N10900 G1 X126.846
N10910 G3 X126.527 Y39.354 I0 J-0.319
N10920 G1 Y32.146
N10930 G3 X126.846 Y31.827 I0.319 J0
N10940 G1 X136.899
N10950 G3 X137.099 Y32.027 I0 J0.2
N10960 G1 X137.091 Y41.037
N10970 G3 X136.891 Y41.237 I-0.2 J0
N10980 G1 X125.282
N10990 G3 X124.963 Y40.918 I0 J-0.319
N11000 G1 Y30.582
N11010 G3 X125.282 Y30.263 I0.319 J0
N11020 G1 X136.888
N11030 G3 X137.088 Y30.463 I0 J0.2
N11040 G1 X137.089 Y42.602
N11050 G3 X136.889 Y42.802 I-0.2 J0
N11060 G1 X123.718
N11070 G3 X123.398 Y42.482 I0 J-0.319
N11080 G1 Y29.018
N11090 G3 X123.718 Y28.698 I0.319 J0
N11100 G1 X136.89
N11110 G3 X137.09 Y28.898 I0 J0.2
N11120 G1 X137.086 Y44.166
N11130 G3 X136.886 Y44.366 I-0.2 J0
N11140 G1 X132.664
N11150 X131.329
N11160 X122.153
N11170 G3 X121.834 Y44.047 I0 J-0.319
N11180 G1 Y27.453
N11190 G3 X122.153 Y27.134 I0.319 J0
N11200 G1 X131.334
N11210 X132.669
N11220 X136.892
N11230 G3 X137.092 Y27.334 I0 J0.2
N11240 G1 X137.098 Y45.731
N11250 G3 X136.898 Y45.931 I-0.2 J0
N11260 G1 X120.589
N11270 G3 X120.269 Y45.611 I0 J-0.319
N11280 G1 Y25.889
N11290 G3 X120.589 Y25.569 I0.319 J0
N11300 G1 X136.894
N11310 G3 X137.094 Y25.769 I0 J0.2
N11320 G1 X137.093 Y47.3
N11330 G3 X136.893 Y47.5 I-0.2 J0
N11340 G1 X118.7
N11350 Y24
N11360 X136
N11370 X136.899
N11380 G0 Z10

(2D ??1)
N11400 X116.398 Y118.699
N11410 Z10
N11420 Z5
N11430 G1 Z2.5 F80
N11440 Z-1.5
N11450 Y155.604 F500
N11460 G2 X104.938 Y167.064 I1 J12.46
N11470 G1 X30.818
N11480 G2 X19.358 Y155.604 I-12.46 J1
N11490 G1 Y81.794
N11500 G2 X30.818 Y70.334 I-1 J-12.46
N11510 G1 X104.938
N11520 G2 X116.398 Y81.794 I12.46 J-1
N11530 G1 Y118.699
N11540 Z-3 F80
N11550 Y155.604 F500
N11560 G2 X104.938 Y167.064 I1 J12.46
N11570 G1 X30.818
N11580 G2 X19.358 Y155.604 I-12.46 J1
N11590 G1 Y81.794
N11600 G2 X30.818 Y70.334 I-1 J-12.46
N11610 G1 X104.938
N11620 G2 X116.398 Y81.794 I12.46 J-1
N11630 G1 Y118.699
N11640 Z-4.5 F80
N11650 Y155.604 F500
N11660 G2 X104.938 Y167.064 I1 J12.46
N11670 G1 X30.818
N11680 G2 X19.358 Y155.604 I-12.46 J1
N11690 G1 Y81.794
N11700 G2 X30.818 Y70.334 I-1 J-12.46
N11710 G1 X104.938
N11720 G2 X116.398 Y81.794 I12.46 J-1
N11730 G1 Y118.699
N11740 Z-5.7 F80
N11750 Y155.604 F500
N11760 G2 X104.938 Y167.064 I1 J12.46
N11770 G1 X30.818
N11780 G2 X19.358 Y155.604 I-12.46 J1
N11790 G1 Y81.794
N11800 G2 X30.818 Y70.334 I-1 J-12.46
N11810 G1 X104.938
N11820 G2 X116.398 Y81.794 I12.46 J-1
N11830 G1 Y118.699
N11840 G0 Z5
N11850 X121.8 Y150.224
N11860 G1 Z2.5 F80
N11870 Z-1.5
N11880 G3 X120.6 I-0.6 J0 F500
N11890 X121.8 I0.6 J0
N11900 G1 Z-3 F80
N11910 G3 X120.6 I-0.6 J0 F500
N11920 X121.8 I0.6 J0
N11930 G1 Z-4.5 F80
N11940 G3 X120.6 I-0.6 J0 F500
N11950 X121.8 I0.6 J0
N11960 G1 Z-5.7 F80
N11970 G3 X120.6 I-0.6 J0 F500
N11980 X121.8 I0.6 J0
N11990 G0 Z5
N12000 X132.6
N12010 G1 Z2.5 F80
N12020 Z-1.5
N12030 G3 X131.4 I-0.6 J0 F500
N12040 X132.6 I0.6 J0
N12050 G1 Z-3 F80
N12060 G3 X131.4 I-0.6 J0 F500
N12070 X132.6 I0.6 J0
N12080 G1 Z-4.5 F80
N12090 G3 X131.4 I-0.6 J0 F500
N12100 X132.6 I0.6 J0
N12110 G1 Z-5.7 F80
N12120 G3 X131.4 I-0.6 J0 F500
N12130 X132.6 I0.6 J0
N12140 G0 Z5
N12150 Y167.724
N12160 G1 Z2.5 F80
N12170 Z-1.5
N12180 G3 X131.4 I-0.6 J0 F500
N12190 X132.6 I0.6 J0
N12200 G1 Z-3 F80
N12210 G3 X131.4 I-0.6 J0 F500
N12220 X132.6 I0.6 J0
N12230 G1 Z-4.5 F80
N12240 G3 X131.4 I-0.6 J0 F500
N12250 X132.6 I0.6 J0
N12260 G1 Z-5.7 F80
N12270 G3 X131.4 I-0.6 J0 F500
N12280 X132.6 I0.6 J0
N12290 G0 Z5
N12300 X121.8
N12310 G1 Z2.5 F80
N12320 Z-1.5
N12330 G3 X120.6 I-0.6 J0 F500
N12340 X121.8 I0.6 J0
N12350 G1 Z-3 F80
N12360 G3 X120.6 I-0.6 J0 F500
N12370 X121.8 I0.6 J0
N12380 G1 Z-4.5 F80
N12390 G3 X120.6 I-0.6 J0 F500
N12400 X121.8 I0.6 J0
N12410 G1 Z-5.7 F80
N12420 G3 X120.6 I-0.6 J0 F500
N12430 X121.8 I0.6 J0
N12440 G0 Z5
N12450 X113.614 Y163.097
N12460 G1 Z2.5 F80
N12470 Z-1.5
N12480 G3 X112.414 I-0.6 J0 F500
N12490 X113.614 I0.6 J0
N12500 G1 Z-3 F80
N12510 G3 X112.414 I-0.6 J0 F500
N12520 X113.614 I0.6 J0
N12530 G1 Z-4.5 F80
N12540 G3 X112.414 I-0.6 J0 F500
N12550 X113.614 I0.6 J0
N12560 G1 Z-5.7 F80
N12570 G3 X112.414 I-0.6 J0 F500
N12580 X113.614 I0.6 J0
N12590 G0 Z5
N12600 X125.6 Y186.739
N12610 G1 Z2.5 F80
N12620 Z-1.5
N12630 G3 X124.4 Y186.709 I-0.6 J-0.015 F500
N12640 X125.6 Y186.739 I0.6 J0.015
N12650 G1 Z-3 F80
N12660 G3 X124.4 Y186.709 I-0.6 J-0.015 F500
N12670 X125.6 Y186.739 I0.6 J0.015
N12680 G1 Z-4.5 F80
N12690 G3 X124.4 Y186.709 I-0.6 J-0.015 F500
N12700 X125.6 Y186.739 I0.6 J0.015
N12710 G1 Z-5.7 F80
N12720 G3 X124.4 Y186.709 I-0.6 J-0.015 F500
N12730 X125.6 Y186.739 I0.6 J0.015
N12740 G0 Z5
N12750 X42.6 Y182.074
N12760 G1 Z2.5 F80
N12770 Z-1.5
N12780 G3 X41.4 I-0.6 J0 F500
N12790 X42.6 I0.6 J0
N12800 G1 Z-3 F80
N12810 G3 X41.4 I-0.6 J0 F500
N12820 X42.6 I0.6 J0
N12830 G1 Z-4.5 F80
N12840 G3 X41.4 I-0.6 J0 F500
N12850 X42.6 I0.6 J0
N12860 G1 Z-5.7 F80
N12870 G3 X41.4 I-0.6 J0 F500
N12880 X42.6 I0.6 J0
N12890 G0 Z5
N12900 Y173.074
N12910 G1 Z2.5 F80
N12920 Z-1.5
N12930 G3 X41.4 I-0.6 J0 F500
N12940 X42.6 I0.6 J0
N12950 G1 Z-3 F80
N12960 G3 X41.4 I-0.6 J0 F500
N12970 X42.6 I0.6 J0
N12980 G1 Z-4.5 F80
N12990 G3 X41.4 I-0.6 J0 F500
N13000 X42.6 I0.6 J0
N13010 G1 Z-5.7 F80
N13020 G3 X41.4 I-0.6 J0 F500
N13030 X42.6 I0.6 J0
N13040 G0 Z5
N13050 X23.444 Y163.112
N13060 G1 Z2.5 F80
N13070 Z-1.5
N13080 G3 X22.244 Y163.082 I-0.6 J-0.015 F500
N13090 X23.444 Y163.112 I0.6 J0.015
N13100 G1 Z-3 F80
N13110 G3 X22.244 Y163.082 I-0.6 J-0.015 F500
N13120 X23.444 Y163.112 I0.6 J0.015
N13130 G1 Z-4.5 F80
N13140 G3 X22.244 Y163.082 I-0.6 J-0.015 F500
N13150 X23.444 Y163.112 I0.6 J0.015
N13160 G1 Z-5.7 F80
N13170 G3 X22.244 Y163.082 I-0.6 J-0.015 F500
N13180 X23.444 Y163.112 I0.6 J0.015
N13190 G0 Z5
N13200 X15.4 Y167.739
N13210 G1 Z2.5 F80
N13220 Z-1.5
N13230 G3 X14.2 Y167.709 I-0.6 J-0.015 F500
N13240 X15.4 Y167.739 I0.6 J0.015
N13250 G1 Z-3 F80
N13260 G3 X14.2 Y167.709 I-0.6 J-0.015 F500
N13270 X15.4 Y167.739 I0.6 J0.015
N13280 G1 Z-4.5 F80
N13290 G3 X14.2 Y167.709 I-0.6 J-0.015 F500
N13300 X15.4 Y167.739 I0.6 J0.015
N13310 G1 Z-5.7 F80
N13320 G3 X14.2 Y167.709 I-0.6 J-0.015 F500
N13330 X15.4 Y167.739 I0.6 J0.015
N13340 G0 Z5
N13350 X4.6 Y167.724
N13360 G1 Z2.5 F80
N13370 Z-1.5
N13380 G3 X3.4 I-0.6 J0 F500
N13390 X4.6 I0.6 J0
N13400 G1 Z-3 F80
N13410 G3 X3.4 I-0.6 J0 F500
N13420 X4.6 I0.6 J0
N13430 G1 Z-4.5 F80
N13440 G3 X3.4 I-0.6 J0 F500
N13450 X4.6 I0.6 J0
N13460 G1 Z-5.7 F80
N13470 G3 X3.4 I-0.6 J0 F500
N13480 X4.6 I0.6 J0
N13490 G0 Z5
N13500 Y150.224
N13510 G1 Z2.5 F80
N13520 Z-1.5
N13530 G3 X3.4 I-0.6 J0 F500
N13540 X4.6 I0.6 J0
N13550 G1 Z-3 F80
N13560 G3 X3.4 I-0.6 J0 F500
N13570 X4.6 I0.6 J0
N13580 G1 Z-4.5 F80
N13590 G3 X3.4 I-0.6 J0 F500
N13600 X4.6 I0.6 J0
N13610 G1 Z-5.7 F80
N13620 G3 X3.4 I-0.6 J0 F500
N13630 X4.6 I0.6 J0
N13640 G0 Z5
N13650 X15.4 Y150.239
N13660 G1 Z2.5 F80
N13670 Z-1.5
N13680 G3 X14.2 Y150.209 I-0.6 J-0.015 F500
N13690 X15.4 Y150.239 I0.6 J0.015
N13700 G1 Z-3 F80
N13710 G3 X14.2 Y150.209 I-0.6 J-0.015 F500
N13720 X15.4 Y150.239 I0.6 J0.015
N13730 G1 Z-4.5 F80
N13740 G3 X14.2 Y150.209 I-0.6 J-0.015 F500
N13750 X15.4 Y150.239 I0.6 J0.015
N13760 G1 Z-5.7 F80
N13770 G3 X14.2 Y150.209 I-0.6 J-0.015 F500
N13780 X15.4 Y150.239 I0.6 J0.015
N13790 G0 Z5
N13800 X11.6 Y186.739
N13810 G1 Z2.5 F80
N13820 Z-1.5
N13830 G3 X10.4 Y186.709 I-0.6 J-0.015 F500
N13840 X11.6 Y186.739 I0.6 J0.015
N13850 G1 Z-3 F80
N13860 G3 X10.4 Y186.709 I-0.6 J-0.015 F500
N13870 X11.6 Y186.739 I0.6 J0.015
N13880 G1 Z-4.5 F80
N13890 G3 X10.4 Y186.709 I-0.6 J-0.015 F500
N13900 X11.6 Y186.739 I0.6 J0.015
N13910 G1 Z-5.7 F80
N13920 G3 X10.4 Y186.709 I-0.6 J-0.015 F500
N13930 X11.6 Y186.739 I0.6 J0.015
N13940 G0 Z5
N13950 X23.444 Y74.212
N13960 G1 Z2.5 F80
N13970 Z-1.5
N13980 G3 X22.244 Y74.183 I-0.6 J-0.015 F500
N13990 X23.444 Y74.212 I0.6 J0.015
N14000 G1 Z-3 F80
N14010 G3 X22.244 Y74.183 I-0.6 J-0.015 F500
N14020 X23.444 Y74.212 I0.6 J0.015
N14030 G1 Z-4.5 F80
N14040 G3 X22.244 Y74.183 I-0.6 J-0.015 F500
N14050 X23.444 Y74.212 I0.6 J0.015
N14060 G1 Z-5.7 F80
N14070 G3 X22.244 Y74.183 I-0.6 J-0.015 F500
N14080 X23.444 Y74.212 I0.6 J0.015
N14090 G0 Z5
N14100 X15.4 Y44.5
N14110 G1 Z2.5 F80
N14120 Z-1.5
N14130 G3 X14.2 I-0.6 J0 F500
N14140 X15.4 I0.6 J0
N14150 G1 Z-3 F80
N14160 G3 X14.2 I-0.6 J0 F500
N14170 X15.4 I0.6 J0
N14180 G1 Z-4.5 F80
N14190 G3 X14.2 I-0.6 J0 F500
N14200 X15.4 I0.6 J0
N14210 G1 Z-5.7 F80
N14220 G3 X14.2 I-0.6 J0 F500
N14230 X15.4 I0.6 J0
N14240 G0 Z5
N14250 X4.6
N14260 G1 Z2.5 F80
N14270 Z-1.5
N14280 G3 X3.4 I-0.6 J0 F500
N14290 X4.6 I0.6 J0
N14300 G1 Z-3 F80
N14310 G3 X3.4 I-0.6 J0 F500
N14320 X4.6 I0.6 J0
N14330 G1 Z-4.5 F80
N14340 G3 X3.4 I-0.6 J0 F500
N14350 X4.6 I0.6 J0
N14360 G1 Z-5.7 F80
N14370 G3 X3.4 I-0.6 J0 F500
N14380 X4.6 I0.6 J0
N14390 G0 Z5
N14400 Y27
N14410 G1 Z2.5 F80
N14420 Z-1.5
N14430 G3 X3.4 I-0.6 J0 F500
N14440 X4.6 I0.6 J0
N14450 G1 Z-3 F80
N14460 G3 X3.4 I-0.6 J0 F500
N14470 X4.6 I0.6 J0
N14480 G1 Z-4.5 F80
N14490 G3 X3.4 I-0.6 J0 F500
N14500 X4.6 I0.6 J0
N14510 G1 Z-5.7 F80
N14520 G3 X3.4 I-0.6 J0 F500
N14530 X4.6 I0.6 J0
N14540 G0 Z5
N14550 X15.4
N14560 G1 Z2.5 F80
N14570 Z-1.5
N14580 G3 X14.2 I-0.6 J0 F500
N14590 X15.4 I0.6 J0
N14600 G1 Z-3 F80
N14610 G3 X14.2 I-0.6 J0 F500
N14620 X15.4 I0.6 J0
N14630 G1 Z-4.5 F80
N14640 G3 X14.2 I-0.6 J0 F500
N14650 X15.4 I0.6 J0
N14660 G1 Z-5.7 F80
N14670 G3 X14.2 I-0.6 J0 F500
N14680 X15.4 I0.6 J0
N14690 G0 Z5
N14700 X11.6 Y8
N14710 G1 Z2.5 F80
N14720 Z-1.5
N14730 G3 X10.4 I-0.6 J0 F500
N14740 X11.6 I0.6 J0
N14750 G1 Z-3 F80
N14760 G3 X10.4 I-0.6 J0 F500
N14770 X11.6 I0.6 J0
N14780 G1 Z-4.5 F80
N14790 G3 X10.4 I-0.6 J0 F500
N14800 X11.6 I0.6 J0
N14810 G1 Z-5.7 F80
N14820 G3 X10.4 I-0.6 J0 F500
N14830 X11.6 I0.6 J0
N14840 G0 Z5
N14850 X55 Y40.362
N14860 G1 Z2.5 F80
N14870 Z-1.5
N14880 Y45.362 F500
N14890 X34
N14900 Y35.362
N14910 X55
N14920 Y40.362
N14930 Z-3 F80
N14940 Y45.362 F500
N14950 X34
N14960 Y35.362
N14970 X55
N14980 Y40.362
N14990 Z-4.5 F80
N15000 Y45.362 F500
N15010 X34
N15020 Y35.362
N15030 X55
N15040 Y40.362
N15050 Z-5.7 F80
N15060 Y45.362 F500
N15070 X34
N15080 Y35.362
N15090 X55
N15100 Y40.362
N15110 G0 Z5
N15120 X57.65 Y40.366
N15130 G1 Z2.5 F80
N15140 Z-1.5
N15150 G3 X57.35 Y40.358 I-0.15 J-0.004 F500
N15160 X57.65 Y40.366 I0.15 J0.004
N15170 G1 Z-3 F80
N15180 G3 X57.35 Y40.358 I-0.15 J-0.004 F500
N15190 X57.65 Y40.366 I0.15 J0.004
N15200 G1 Z-4.5 F80
N15210 G3 X57.35 Y40.358 I-0.15 J-0.004 F500
N15220 X57.65 Y40.366 I0.15 J0.004
N15230 G1 Z-5.7 F80
N15240 G3 X57.35 Y40.358 I-0.15 J-0.004 F500
N15250 X57.65 Y40.366 I0.15 J0.004
N15260 G0 Z5
N15270 X75 Y56.69
N15280 G1 Z2.5 F80
N15290 Z-1.5
N15300 G3 X61 I-7 J0 F500
N15310 X75 I7 J0
N15320 G1 Z-3 F80
N15330 G3 X61 I-7 J0 F500
N15340 X75 I7 J0
N15350 G1 Z-4.5 F80
N15360 G3 X61 I-7 J0 F500
N15370 X75 I7 J0
N15380 G1 Z-5.7 F80
N15390 G3 X61 I-7 J0 F500
N15400 X75 I7 J0
N15410 G0 Z5
N15420 X86 Y35.362
N15430 G1 Z2.5 F80
N15440 Z-1.5
N15450 X102 F500
N15460 Y45.362
N15470 X81
N15480 Y35.362
N15490 X86
N15500 Z-3 F80
N15510 X102 F500
N15520 Y45.362
N15530 X81
N15540 Y35.362
N15550 X86
N15560 Z-4.5 F80
N15570 X102 F500
N15580 Y45.362
N15590 X81
N15600 Y35.362
N15610 X86
N15620 Z-5.7 F80
N15630 X102 F500
N15640 Y45.362
N15650 X81
N15660 Y35.362
N15670 X86
N15680 G0 Z5
N15690 X78.65 Y40.362
N15700 G1 Z2.5 F80
N15710 Z-1.5
N15720 G3 X78.35 I-0.15 J0 F500
N15730 X78.65 I0.15 J0
N15740 G1 Z-3 F80
N15750 G3 X78.35 I-0.15 J0 F500
N15760 X78.65 I0.15 J0
N15770 G1 Z-4.5 F80
N15780 G3 X78.35 I-0.15 J0 F500
N15790 X78.65 I0.15 J0
N15800 G1 Z-5.7 F80
N15810 G3 X78.35 I-0.15 J0 F500
N15820 X78.65 I0.15 J0
N15830 G0 Z5
N15840 X94.6 Y21.65
N15850 G1 Z2.5 F80
N15860 Z-1.5
N15870 G3 X93.4 I-0.6 J0 F500
N15880 X94.6 I0.6 J0
N15890 G1 Z-3 F80
N15900 G3 X93.4 I-0.6 J0 F500
N15910 X94.6 I0.6 J0
N15920 G1 Z-4.5 F80
N15930 G3 X93.4 I-0.6 J0 F500
N15940 X94.6 I0.6 J0
N15950 G1 Z-5.7 F80
N15960 G3 X93.4 I-0.6 J0 F500
N15970 X94.6 I0.6 J0
N15980 G0 Z5
N15990 Y12.65
N16000 G1 Z2.5 F80
N16010 Z-1.5
N16020 G3 X93.4 I-0.6 J0 F500
N16030 X94.6 I0.6 J0
N16040 G1 Z-3 F80
N16050 G3 X93.4 I-0.6 J0 F500
N16060 X94.6 I0.6 J0
N16070 G1 Z-4.5 F80
N16080 G3 X93.4 I-0.6 J0 F500
N16090 X94.6 I0.6 J0
N16100 G1 Z-5.7 F80
N16110 G3 X93.4 I-0.6 J0 F500
N16120 X94.6 I0.6 J0
N16130 G0 Z5
N16140 X121.8 Y27.015
N16150 G1 Z2.5 F80
N16160 Z-1.5
N16170 G3 X120.6 Y26.985 I-0.6 J-0.015 F500
N16180 X121.8 Y27.015 I0.6 J0.015
N16190 G1 Z-3 F80
N16200 G3 X120.6 Y26.985 I-0.6 J-0.015 F500
N16210 X121.8 Y27.015 I0.6 J0.015
N16220 G1 Z-4.5 F80
N16230 G3 X120.6 Y26.985 I-0.6 J-0.015 F500
N16240 X121.8 Y27.015 I0.6 J0.015
N16250 G1 Z-5.7 F80
N16260 G3 X120.6 Y26.985 I-0.6 J-0.015 F500
N16270 X121.8 Y27.015 I0.6 J0.015
N16280 G0 Z5
N16290 X132.6 Y27
N16300 G1 Z2.5 F80
N16310 Z-1.5
N16320 G3 X131.4 I-0.6 J0 F500
N16330 X132.6 I0.6 J0
N16340 G1 Z-3 F80
N16350 G3 X131.4 I-0.6 J0 F500
N16360 X132.6 I0.6 J0
N16370 G1 Z-4.5 F80
N16380 G3 X131.4 I-0.6 J0 F500
N16390 X132.6 I0.6 J0
N16400 G1 Z-5.7 F80
N16410 G3 X131.4 I-0.6 J0 F500
N16420 X132.6 I0.6 J0
N16430 G0 Z5
N16440 Y44.5
N16450 G1 Z2.5 F80
N16460 Z-1.5
N16470 G3 X131.4 I-0.6 J0 F500
N16480 X132.6 I0.6 J0
N16490 G1 Z-3 F80
N16500 G3 X131.4 I-0.6 J0 F500
N16510 X132.6 I0.6 J0
N16520 G1 Z-4.5 F80
N16530 G3 X131.4 I-0.6 J0 F500
N16540 X132.6 I0.6 J0
N16550 G1 Z-5.7 F80
N16560 G3 X131.4 I-0.6 J0 F500
N16570 X132.6 I0.6 J0
N16580 G0 Z5
N16590 X121.8
N16600 G1 Z2.5 F80
N16610 Z-1.5
N16620 G3 X120.6 I-0.6 J0 F500
N16630 X121.8 I0.6 J0
N16640 G1 Z-3 F80
N16650 G3 X120.6 I-0.6 J0 F500
N16660 X121.8 I0.6 J0
N16670 G1 Z-4.5 F80
N16680 G3 X120.6 I-0.6 J0 F500
N16690 X121.8 I0.6 J0
N16700 G1 Z-5.7 F80
N16710 G3 X120.6 I-0.6 J0 F500
N16720 X121.8 I0.6 J0
N16730 G0 Z5
N16740 X113.614 Y74.212
N16750 G1 Z2.5 F80
N16760 Z-1.5
N16770 G3 X112.414 Y74.183 I-0.6 J-0.015 F500
N16780 X113.614 Y74.212 I0.6 J0.015
N16790 G1 Z-3 F80
N16800 G3 X112.414 Y74.183 I-0.6 J-0.015 F500
N16810 X113.614 Y74.212 I0.6 J0.015
N16820 G1 Z-4.5 F80
N16830 G3 X112.414 Y74.183 I-0.6 J-0.015 F500
N16840 X113.614 Y74.212 I0.6 J0.015
N16850 G1 Z-5.7 F80
N16860 G3 X112.414 Y74.183 I-0.6 J-0.015 F500
N16870 X113.614 Y74.212 I0.6 J0.015
N16880 G0 Z5
N16890 X125.6 Y8
N16900 G1 Z2.5 F80
N16910 Z-1.5
N16920 G3 X124.4 I-0.6 J0 F500
N16930 X125.6 I0.6 J0
N16940 G1 Z-3 F80
N16950 G3 X124.4 I-0.6 J0 F500
N16960 X125.6 I0.6 J0
N16970 G1 Z-4.5 F80
N16980 G3 X124.4 I-0.6 J0 F500
N16990 X125.6 I0.6 J0
N17000 G1 Z-5.7 F80
N17010 G3 X124.4 I-0.6 J0 F500
N17020 X125.6 I0.6 J0
N17030 G0 Z5
N17040 X31.65 Y40.366
N17050 G1 Z2.5 F80
N17060 Z-1.5
N17070 G3 X31.35 Y40.358 I-0.15 J-0.004 F500
N17080 X31.65 Y40.366 I0.15 J0.004
N17090 G1 Z-3 F80
N17100 G3 X31.35 Y40.358 I-0.15 J-0.004 F500
N17110 X31.65 Y40.366 I0.15 J0.004
N17120 G1 Z-4.5 F80
N17130 G3 X31.35 Y40.358 I-0.15 J-0.004 F500
N17140 X31.65 Y40.366 I0.15 J0.004
N17150 G1 Z-5.7 F80
N17160 G3 X31.35 Y40.358 I-0.15 J-0.004 F500
N17170 X31.65 Y40.366 I0.15 J0.004
N17180 G0 Z10

(2D ??2)
N17200 X68 Y187.724
N17210 Z10
N17220 Z5
N17230 G1 Z2.5 F80
N17240 Z-1.5
N17250 X90.075 F500
N17260 X132.826 Y195.647
N17270 G2 X134 Y194.793 I0.182 J-0.983
N17280 G1 X136.992 Y171.853
N17290 G2 X137 Y171.724 I-0.992 J-0.129
N17300 G1 Y23
N17310 G2 X136.992 Y22.871 I-1 J0
N17320 G1 X133.992 Y-0.129
N17330 G2 X132.777 Y-0.975 I-0.992 J0.129
N17340 G1 X97.887 Y7
N17350 X46.259
N17360 X3.182 Y-0.983
N17370 G2 X2.008 Y-0.129 I-0.182 J0.983
N17380 G1 X-0.992 Y22.871
N17390 G2 X-1 Y23 I0.992 J0.129
N17400 G1 Y171.724
N17410 G2 X-0.992 Y171.853 I1 J0
N17420 G1 X2.008 Y194.853
N17430 G2 X3.223 Y195.699 I0.992 J-0.129
N17440 G1 X38.113 Y187.724
N17450 X68
N17460 Z-3 F80
N17470 X90.075 F500
N17480 X132.826 Y195.647
N17490 G2 X134 Y194.793 I0.182 J-0.983
N17500 G1 X136.992 Y171.853
N17510 G2 X137 Y171.724 I-0.992 J-0.129
N17520 G1 Y23
N17530 G2 X136.992 Y22.871 I-1 J0
N17540 G1 X133.992 Y-0.129
N17550 G2 X132.777 Y-0.975 I-0.992 J0.129
N17560 G1 X97.887 Y7
N17570 X46.259
N17580 X3.182 Y-0.983
N17590 G2 X2.008 Y-0.129 I-0.182 J0.983
N17600 G1 X-0.992 Y22.871
N17610 G2 X-1 Y23 I0.992 J0.129
N17620 G1 Y171.724
N17630 G2 X-0.992 Y171.853 I1 J0
N17640 G1 X2.008 Y194.853
N17650 G2 X3.223 Y195.699 I0.992 J-0.129
N17660 G1 X38.113 Y187.724
N17670 X68
N17680 Z-4.5 F80
N17690 X90.075 F500
N17700 X132.826 Y195.647
N17710 G2 X134 Y194.793 I0.182 J-0.983
N17720 G1 X136.992 Y171.853
N17730 G2 X137 Y171.724 I-0.992 J-0.129
N17740 G1 Y23
N17750 G2 X136.992 Y22.871 I-1 J0
N17760 G1 X133.992 Y-0.129
N17770 G2 X132.777 Y-0.975 I-0.992 J0.129
N17780 G1 X97.887 Y7
N17790 X46.259
N17800 X3.182 Y-0.983
N17810 G2 X2.008 Y-0.129 I-0.182 J0.983
N17820 G1 X-0.992 Y22.871
N17830 G2 X-1 Y23 I0.992 J0.129
N17840 G1 Y171.724
N17850 G2 X-0.992 Y171.853 I1 J0
N17860 G1 X2.008 Y194.853
N17870 G2 X3.223 Y195.699 I0.992 J-0.129
N17880 G1 X38.113 Y187.724
N17890 X68
N17900 Z-5.7 F80
N17910 X90.075 F500
N17920 X132.826 Y195.647
N17930 G2 X134 Y194.793 I0.182 J-0.983
N17940 G1 X136.992 Y171.853
N17950 G2 X137 Y171.724 I-0.992 J-0.129
N17960 G1 Y23
N17970 G2 X136.992 Y22.871 I-1 J0
N17980 G1 X133.992 Y-0.129
N17990 G2 X132.777 Y-0.975 I-0.992 J0.129
N18000 G1 X97.887 Y7
N18010 X46.259
N18020 X3.182 Y-0.983
N18030 G2 X2.008 Y-0.129 I-0.182 J0.983
N18040 G1 X-0.992 Y22.871
N18050 G2 X-1 Y23 I0.992 J0.129
N18060 G1 Y171.724
N18070 G2 X-0.992 Y171.853 I1 J0
N18080 G1 X2.008 Y194.853
N18090 G2 X3.223 Y195.699 I0.992 J-0.129
N18100 G1 X38.113 Y187.724
N18110 X68
N18120 G0 Z10
N18140 Z10
N18150 X0 Y0
N18160 M30
%
