%
(1001)
(T1 D=2 CR=0 - ZMIN=-5.7 - flat end mill)
N10 G90 G94
N20 G17
N30 G21
N40 M9
N50 G0 Z10
N60 X0 Y0

(2D ????1)
N70 T1 M6
N80 S8000 M3
N90 G54
N110 G0 X-0.901 Y33.214
N120 G43 Z10
N130 Z5
N140 G1 Z2.5 F500
N150 Z-1.5
N160 X-0.893
N170 X-0.233
N180 G3 X0.086 Y33.533 I0 J0.319
N190 G1 Y48.467
N200 G3 X-0.233 Y48.786 I-0.319 J0
N210 G1 X-0.887
N220 G3 X-1.087 Y48.586 I0 J-0.2
N230 G1 X-1.091 Y31.849
N240 G3 X-0.891 Y31.649 I0.2 J0
N250 G1 X1.331
N260 G3 X1.651 Y31.969 I0 J0.319
N270 G1 Y50.031
N280 G3 X1.331 Y50.351 I-0.319 J0
N290 G1 X-0.889
N300 G3 X-1.089 Y50.151 I0 J-0.2
N310 G1 Y30.285
N320 G3 X-0.889 Y30.085 I0.2 J0
N330 G1 X2.896
N340 G3 X3.215 Y30.404 I0 J0.319
N350 G1 Y51.596
N360 G3 X2.896 Y51.915 I-0.319 J0
N370 G1 X-0.891
N380 G3 X-1.091 Y51.715 I0 J-0.2
N390 G1 X-1.087 Y28.72
N400 G3 X-0.887 Y28.52 I0.2 J0
N410 G1 X4.46
N420 G3 X4.78 Y28.84 I0 J0.319
N430 G1 Y53.16
N440 G3 X4.46 Y53.48 I-0.319 J0
N450 G1 X-0.893
N460 G3 X-1.093 Y53.28 I0 J-0.2
N470 G1 X-1.098 Y27.156
N480 G3 X-0.898 Y26.956 I0.2 J0
N490 G1 X6.025
N500 G3 X6.344 Y27.275 I0 J0.319
N510 G1 Y54.725
N520 G3 X6.025 Y55.044 I-0.319 J0
N530 G1 X-0.895
N540 G3 X-1.095 Y54.844 I0 J-0.2
N550 G1 X-1.096 Y25.592
N560 G3 X-0.896 Y25.392 I0.2 J0
N570 G1 X7.589
N580 G3 X7.908 Y25.711 I0 J0.319
N590 G1 Y56.289
N600 G3 X7.589 Y56.608 I-0.319 J0
N610 G1 X-0.897
N620 G3 X-1.097 Y56.408 I0 J-0.2
N630 G1 X-1.094 Y24.027
N640 G3 X-0.894 Y23.827 I0.2 J0
N650 G1 X9.154
N660 G3 X9.473 Y24.146 I0 J0.319
N670 G1 Y57.854
N680 G3 X9.154 Y58.173 I-0.319 J0
N690 G1 X-0.899
N700 G3 X-1.099 Y57.973 I0 J-0.2
N710 G1 X-1.092 Y22.463
N720 G3 X-0.892 Y22.263 I0.2 J0
N730 G1 X10.718
N740 G3 X11.037 Y22.582 I0 J0.319
N750 G1 Y59.418
N760 G3 X10.718 Y59.737 I-0.319 J0
N770 G1 X-0.888
N780 G3 X-1.088 Y59.537 I0 J-0.2
N790 G1 X-1.09 Y20.898
N800 G3 X-0.89 Y20.698 I0.2 J0
N810 G1 X12.282
N820 G3 X12.602 Y21.018 I0 J0.319
N830 G1 Y60.982
N840 G3 X12.282 Y61.302 I-0.319 J0
N850 G1 X-0.89
N860 G3 X-1.09 Y61.102 I0 J-0.2
N870 G1 X-1.088 Y19.334
N880 G3 X-0.888 Y19.134 I0.2 J0
N890 G1 X3.784
N900 X5.514
N910 X12.788
N920 G3 X12.845 Y19.142 I0 J0.2
N930 G1 X14.023 Y19.493
N940 G3 X14.166 Y19.685 I-0.057 J0.192
N950 G1 Y62.547
N960 G3 X13.847 Y62.866 I-0.319 J0
N970 G1 X-0.892
N980 G3 X-1.092 Y62.666 I0 J-0.2
N990 G1 X-1.1 Y17.769
N1000 G3 X-0.9 Y17.569 I0.2 J0
N1010 G1 X15.411
N1020 G3 X15.731 Y17.889 I0 J0.319
N1030 G1 Y64.111
N1040 G3 X15.411 Y64.431 I-0.319 J0
N1050 G1 X-0.894
N1060 G3 X-1.094 Y64.231 I0 J-0.2
N1070 G1 X-1.095 Y16.2
N1080 G3 X-0.895 Y16 I0.2 J0
N1090 G1 X17.3
N1100 Y66
N1110 X0
N1120 X-0.899
N1130 G3 X-1.099 Y65.8 I0 J-0.2
N1140 G1 X-1.101 Y33.414
N1150 G3 X-0.901 Y33.214 I0.2 J0
N1160 G1 Z-3
N1170 X-0.893
N1180 X-0.233
N1190 G3 X0.086 Y33.533 I0 J0.319
N1200 G1 Y48.467
N1210 G3 X-0.233 Y48.786 I-0.319 J0
N1220 G1 X-0.887
N1230 G3 X-1.087 Y48.586 I0 J-0.2
N1240 G1 X-1.091 Y31.849
N1250 G3 X-0.891 Y31.649 I0.2 J0
N1260 G1 X1.331
N1270 G3 X1.651 Y31.969 I0 J0.319
N1280 G1 Y50.031
N1290 G3 X1.331 Y50.351 I-0.319 J0
N1300 G1 X-0.889
N1310 G3 X-1.089 Y50.151 I0 J-0.2
N1320 G1 Y30.285
N1330 G3 X-0.889 Y30.085 I0.2 J0
N1340 G1 X2.896
N1350 G3 X3.215 Y30.404 I0 J0.319
N1360 G1 Y51.596
N1370 G3 X2.896 Y51.915 I-0.319 J0
N1380 G1 X-0.891
N1390 G3 X-1.091 Y51.715 I0 J-0.2
N1400 G1 X-1.087 Y28.72
N1410 G3 X-0.887 Y28.52 I0.2 J0
N1420 G1 X4.46
N1430 G3 X4.78 Y28.84 I0 J0.319
N1440 G1 Y53.16
N1450 G3 X4.46 Y53.48 I-0.319 J0
N1460 G1 X-0.893
N1470 G3 X-1.093 Y53.28 I0 J-0.2
N1480 G1 X-1.098 Y27.156
N1490 G3 X-0.898 Y26.956 I0.2 J0
N1500 G1 X6.025
N1510 G3 X6.344 Y27.275 I0 J0.319
N1520 G1 Y54.725
N1530 G3 X6.025 Y55.044 I-0.319 J0
N1540 G1 X-0.895
N1550 G3 X-1.095 Y54.844 I0 J-0.2
N1560 G1 X-1.096 Y25.592
N1570 G3 X-0.896 Y25.392 I0.2 J0
N1580 G1 X7.589
N1590 G3 X7.908 Y25.711 I0 J0.319
N1600 G1 Y56.289
N1610 G3 X7.589 Y56.608 I-0.319 J0
N1620 G1 X-0.897
N1630 G3 X-1.097 Y56.408 I0 J-0.2
N1640 G1 X-1.094 Y24.027
N1650 G3 X-0.894 Y23.827 I0.2 J0
N1660 G1 X9.154
N1670 G3 X9.473 Y24.146 I0 J0.319
N1680 G1 Y57.854
N1690 G3 X9.154 Y58.173 I-0.319 J0
N1700 G1 X-0.899
N1710 G3 X-1.099 Y57.973 I0 J-0.2
N1720 G1 X-1.092 Y22.463
N1730 G3 X-0.892 Y22.263 I0.2 J0
N1740 G1 X10.718
N1750 G3 X11.037 Y22.582 I0 J0.319
N1760 G1 Y59.418
N1770 G3 X10.718 Y59.737 I-0.319 J0
N1780 G1 X-0.888
N1790 G3 X-1.088 Y59.537 I0 J-0.2
N1800 G1 X-1.09 Y20.898
N1810 G3 X-0.89 Y20.698 I0.2 J0
N1820 G1 X12.282
N1830 G3 X12.602 Y21.018 I0 J0.319
N1840 G1 Y60.982
N1850 G3 X12.282 Y61.302 I-0.319 J0
N1860 G1 X-0.89
N1870 G3 X-1.09 Y61.102 I0 J-0.2
N1880 G1 X-1.088 Y19.334
N1890 G3 X-0.888 Y19.134 I0.2 J0
N1900 G1 X3.784
N1910 X5.514
N1920 X12.788
N1930 G3 X12.845 Y19.142 I0 J0.2
N1940 G1 X14.023 Y19.493
N1950 G3 X14.166 Y19.685 I-0.057 J0.192
N1960 G1 Y62.547
N1970 G3 X13.847 Y62.866 I-0.319 J0
N1980 G1 X-0.892
N1990 G3 X-1.092 Y62.666 I0 J-0.2
N2000 G1 X-1.1 Y17.769
N2010 G3 X-0.9 Y17.569 I0.2 J0
N2020 G1 X15.411
N2030 G3 X15.731 Y17.889 I0 J0.319
N2040 G1 Y64.111
N2050 G3 X15.411 Y64.431 I-0.319 J0
N2060 G1 X-0.894
N2070 G3 X-1.094 Y64.231 I0 J-0.2
N2080 G1 X-1.095 Y16.2
N2090 G3 X-0.895 Y16 I0.2 J0
N2100 G1 X17.3
N2110 Y66
N2120 X0
N2130 X-0.899
N2140 G0 Z10
N2150 X79.786 Y7.099
N2160 Z5
N2170 G1 Z2.5 F500
N2180 Z-1.5
N2190 Y7.107
N2200 Y7.767
N2210 G3 X79.467 Y8.086 I-0.319 J0
N2220 G1 X64.533
N2230 G3 X64.214 Y7.767 I0 J-0.319
N2240 G1 Y7.113
N2250 G3 X64.414 Y6.913 I0.2 J0
N2260 G1 X81.151 Y6.909
N2270 G3 X81.351 Y7.109 I0 J0.2
N2280 G1 Y9.331
N2290 G3 X81.031 Y9.651 I-0.319 J0
N2300 G1 X62.965
N2310 G3 X62.649 Y9.335 I0 J-0.315
N2320 G1 Y7.101
N2330 G3 X62.849 Y6.901 I0.2 J0
N2340 G1 X82.715 Y6.911
N2350 G3 X82.915 Y7.111 I0 J0.2
N2360 G1 Y10.896
N2370 G3 X82.596 Y11.215 I-0.319 J0
N2380 G1 X61.4
N2390 G3 X61.085 Y10.9 I0 J-0.315
N2400 G1 Y7.113
N2410 G3 X61.285 Y6.913 I0.2 J0
N2420 G1 X84.28
N2430 G3 X84.48 Y7.113 I0 J0.2
N2440 G1 Y12.46
N2450 G3 X84.16 Y12.78 I-0.319 J0
N2460 G1 X59.836
N2470 G3 X59.52 Y12.464 I0 J-0.315
N2480 G1 Y7.111
N2490 G3 X59.72 Y6.911 I0.2 J0
N2500 G1 X85.844 Y6.902
N2510 G3 X86.044 Y7.102 I0 J0.2
N2520 G1 Y14.025
N2530 G3 X85.725 Y14.344 I-0.319 J0
N2540 G1 X58.271
N2550 G3 X57.956 Y14.029 I0 J-0.315
N2560 G1 Y7.109
N2570 G3 X58.156 Y6.909 I0.2 J0
N2580 G1 X87.408 Y6.904
N2590 G3 X87.608 Y7.104 I0 J0.2
N2600 G1 Y15.589
N2610 G3 X87.289 Y15.908 I-0.319 J0
N2620 G1 X56.707
N2630 G3 X56.392 Y15.593 I0 J-0.315
N2640 G1 Y7.107
N2650 G3 X56.592 Y6.907 I0.2 J0
N2660 G1 X88.973 Y6.906
N2670 G3 X89.173 Y7.106 I0 J0.2
N2680 G1 Y17.154
N2690 G3 X88.854 Y17.473 I-0.319 J0
N2700 G1 X55.143
N2710 G3 X54.827 Y17.157 I0 J-0.315
N2720 G1 Y7.105
N2730 G3 X55.027 Y6.905 I0.2 J0
N2740 G1 X90.537 Y6.908
N2750 G3 X90.737 Y7.108 I0 J0.2
N2760 G1 Y18.718
N2770 G3 X90.418 Y19.037 I-0.319 J0
N2780 G1 X53.578
N2790 G3 X53.263 Y18.722 I0 J-0.315
N2800 G1 Y7.103
N2810 G3 X53.463 Y6.903 I0.2 J0
N2820 G1 X92.102 Y6.91
N2830 G3 X92.302 Y7.11 I0 J0.2
N2840 G1 Y20.282
N2850 G3 X91.982 Y20.602 I-0.319 J0
N2860 G1 X52.014
N2870 G3 X51.698 Y20.286 I0 J-0.315
N2880 G1 Y7.101
N2890 G3 X51.898 Y6.901 I0.2 J0
N2900 G1 X93.666 Y6.912
N2910 G3 X93.866 Y7.112 I0 J0.2
N2920 G1 Y11.798
N2930 Y13.5
N2940 Y20.801
N2950 G3 X93.856 Y20.863 I-0.2 J0
N2960 G1 X93.478 Y22.028
N2970 G3 X93.288 Y22.166 I-0.19 J-0.062
N2980 G1 X50.449
N2990 G3 X50.134 Y21.851 I0 J-0.315
N3000 G1 Y7.112
N3010 G3 X50.334 Y6.912 I0.2 J0
N3020 G1 X95.231 Y6.9
N3030 G3 X95.431 Y7.1 I0 J0.2
N3040 G1 Y23.411
N3050 G3 X95.111 Y23.731 I-0.319 J0
N3060 G1 X48.885
N3070 G3 X48.569 Y23.415 I0 J-0.315
N3080 G1 Y7.11
N3090 G3 X48.769 Y6.91 I0.2 J0
N3100 G1 X96.8 Y6.905
N3110 G3 X97 Y7.105 I0 J0.2
N3120 G1 Y25.3
N3130 X47
N3140 Y8
N3150 Y7.101
N3160 G3 X47.2 Y6.901 I0.2 J0
N3170 G1 X79.586 Y6.899
N3180 G3 X79.786 Y7.099 I0 J0.2
N3190 G1 Z-3
N3200 Y7.107
N3210 Y7.767
N3220 G3 X79.467 Y8.086 I-0.319 J0
N3230 G1 X64.533
N3240 G3 X64.214 Y7.767 I0 J-0.319
N3250 G1 Y7.113
N3260 G3 X64.414 Y6.913 I0.2 J0
N3270 G1 X81.151 Y6.909
N3280 G3 X81.351 Y7.109 I0 J0.2
N3290 G1 Y9.331
N3300 G3 X81.031 Y9.651 I-0.319 J0
N3310 G1 X62.965
N3320 G3 X62.649 Y9.335 I0 J-0.315
N3330 G1 Y7.101
N3340 G3 X62.849 Y6.901 I0.2 J0
N3350 G1 X82.715 Y6.911
N3360 G3 X82.915 Y7.111 I0 J0.2
N3370 G1 Y10.896
N3380 G3 X82.596 Y11.215 I-0.319 J0
N3390 G1 X61.4
N3400 G3 X61.085 Y10.9 I0 J-0.315
N3410 G1 Y7.113
N3420 G3 X61.285 Y6.913 I0.2 J0
N3430 G1 X84.28
N3440 G3 X84.48 Y7.113 I0 J0.2
N3450 G1 Y12.46
N3460 G3 X84.16 Y12.78 I-0.319 J0
N3470 G1 X59.836
N3480 G3 X59.52 Y12.464 I0 J-0.315
N3490 G1 Y7.111
N3500 G3 X59.72 Y6.911 I0.2 J0
N3510 G1 X85.844 Y6.902
N3520 G3 X86.044 Y7.102 I0 J0.2
N3530 G1 Y14.025
N3540 G3 X85.725 Y14.344 I-0.319 J0
N3550 G1 X58.271
N3560 G3 X57.956 Y14.029 I0 J-0.315
N3570 G1 Y7.109
N3580 G3 X58.156 Y6.909 I0.2 J0
N3590 G1 X87.408 Y6.904
N3600 G3 X87.608 Y7.104 I0 J0.2
N3610 G1 Y15.589
N3620 G3 X87.289 Y15.908 I-0.319 J0
N3630 G1 X56.707
N3640 G3 X56.392 Y15.593 I0 J-0.315
N3650 G1 Y7.107
N3660 G3 X56.592 Y6.907 I0.2 J0
N3670 G1 X88.973 Y6.906
N3680 G3 X89.173 Y7.106 I0 J0.2
N3690 G1 Y17.154
N3700 G3 X88.854 Y17.473 I-0.319 J0
N3710 G1 X55.143
N3720 G3 X54.827 Y17.157 I0 J-0.315
N3730 G1 Y7.105
N3740 G3 X55.027 Y6.905 I0.2 J0
N3750 G1 X90.537 Y6.908
N3760 G3 X90.737 Y7.108 I0 J0.2
N3770 G1 Y18.718
N3780 G3 X90.418 Y19.037 I-0.319 J0
N3790 G1 X53.578
N3800 G3 X53.263 Y18.722 I0 J-0.315
N3810 G1 Y7.103
N3820 G3 X53.463 Y6.903 I0.2 J0
N3830 G1 X92.102 Y6.91
N3840 G3 X92.302 Y7.11 I0 J0.2
N3850 G1 Y20.282
N3860 G3 X91.982 Y20.602 I-0.319 J0
N3870 G1 X52.014
N3880 G3 X51.698 Y20.286 I0 J-0.315
N3890 G1 Y7.101
N3900 G3 X51.898 Y6.901 I0.2 J0
N3910 G1 X93.666 Y6.912
N3920 G3 X93.866 Y7.112 I0 J0.2
N3930 G1 Y11.798
N3940 Y13.5
N3950 Y20.801
N3960 G3 X93.856 Y20.863 I-0.2 J0
N3970 G1 X93.478 Y22.028
N3980 G3 X93.288 Y22.166 I-0.19 J-0.062
N3990 G1 X50.449
N4000 G3 X50.134 Y21.851 I0 J-0.315
N4010 G1 Y7.112
N4020 G3 X50.334 Y6.912 I0.2 J0
N4030 G1 X95.231 Y6.9
N4040 G3 X95.431 Y7.1 I0 J0.2
N4050 G1 Y23.411
N4060 G3 X95.111 Y23.731 I-0.319 J0
N4070 G1 X48.885
N4080 G3 X48.569 Y23.415 I0 J-0.315
N4090 G1 Y7.11
N4100 G3 X48.769 Y6.91 I0.2 J0
N4110 G1 X96.8 Y6.905
N4120 G3 X97 Y7.105 I0 J0.2
N4130 G1 Y25.3
N4140 X47
N4150 Y8
N4160 Y7.101
N4170 G0 Z10
N4180 X136.9 Y56.786
N4190 Z5
N4200 G1 Z2.5 F500
N4210 Z-1.5
N4220 X136.893
N4230 X136.233
N4240 G3 X135.914 Y56.467 I0 J-0.319
N4250 G1 Y41.533
N4260 G3 X136.233 Y41.214 I0.319 J0
N4270 G1 X136.887
N4280 G3 X137.087 Y41.414 I0 J0.2
N4290 G1 X137.091 Y58.151
N4300 G3 X136.891 Y58.351 I-0.2 J0
N4310 G1 X134.669
N4320 G3 X134.349 Y58.031 I0 J-0.319
N4330 G1 Y39.969
N4340 G3 X134.669 Y39.649 I0.319 J0
N4350 G1 X136.889
N4360 G3 X137.089 Y39.849 I0 J0.2
N4370 G1 Y59.715
N4380 G3 X136.889 Y59.915 I-0.2 J0
N4390 G1 X133.104
N4400 G3 X132.785 Y59.596 I0 J-0.319
N4410 G1 Y38.404
N4420 G3 X133.104 Y38.085 I0.319 J0
N4430 G1 X136.891
N4440 G3 X137.091 Y38.285 I0 J0.2
N4450 G1 X137.087 Y61.28
N4460 G3 X136.887 Y61.48 I-0.2 J0
N4470 G1 X131.54
N4480 G3 X131.22 Y61.16 I0 J-0.319
N4490 G1 Y36.84
N4500 G3 X131.54 Y36.52 I0.319 J0
N4510 G1 X136.893
N4520 G3 X137.093 Y36.72 I0 J0.2
N4530 G1 X137.098 Y62.844
N4540 G3 X136.898 Y63.044 I-0.2 J0
N4550 G1 X129.975
N4560 G3 X129.656 Y62.725 I0 J-0.319
N4570 G1 Y35.275
N4580 G3 X129.975 Y34.956 I0.319 J0
N4590 G1 X136.895
N4600 G3 X137.095 Y35.156 I0 J0.2
N4610 G1 X137.096 Y64.408
N4620 G3 X136.896 Y64.608 I-0.2 J0
N4630 G1 X128.411
N4640 G3 X128.092 Y64.289 I0 J-0.319
N4650 G1 Y33.711
N4660 G3 X128.411 Y33.392 I0.319 J0
N4670 G1 X136.897
N4680 G3 X137.097 Y33.592 I0 J0.2
N4690 G1 X137.094 Y65.973
N4700 G3 X136.894 Y66.173 I-0.2 J0
N4710 G1 X126.846
N4720 G3 X126.527 Y65.854 I0 J-0.319
N4730 G1 Y32.146
N4740 G3 X126.846 Y31.827 I0.319 J0
N4750 G1 X136.899
N4760 G3 X137.099 Y32.027 I0 J0.2
N4770 G1 X137.092 Y67.537
N4780 G3 X136.892 Y67.737 I-0.2 J0
N4790 G1 X125.282
N4800 G3 X124.963 Y67.418 I0 J-0.319
N4810 G1 Y30.582
N4820 G3 X125.282 Y30.263 I0.319 J0
N4830 G1 X136.888
N4840 G3 X137.088 Y30.463 I0 J0.2
N4850 G1 X137.09 Y69.102
N4860 G3 X136.89 Y69.302 I-0.2 J0
N4870 G1 X123.718
N4880 G3 X123.398 Y68.982 I0 J-0.319
N4890 G1 Y29.018
N4900 G3 X123.718 Y28.698 I0.319 J0
N4910 G1 X136.89
N4920 G3 X137.09 Y28.898 I0 J0.2
N4930 G1 X137.088 Y70.666
N4940 G3 X136.888 Y70.866 I-0.2 J0
N4950 G1 X132.216
N4960 X130.486
N4970 X123.212
N4980 G3 X123.155 Y70.858 I0 J-0.2
N4990 G1 X121.977 Y70.507
N5000 G3 X121.834 Y70.315 I0.057 J-0.192
N5010 G1 Y27.453
N5020 G3 X122.153 Y27.134 I0.319 J0
N5030 G1 X136.892
N5040 G3 X137.092 Y27.334 I0 J0.2
N5050 G1 X137.099 Y72.231
N5060 G3 X136.899 Y72.431 I-0.2 J0
N5070 G1 X120.589
N5080 G3 X120.269 Y72.111 I0 J-0.319
N5090 G1 Y25.889
N5100 G3 X120.589 Y25.569 I0.319 J0
N5110 G1 X136.894
N5120 G3 X137.094 Y25.769 I0 J0.2
N5130 G1 X137.095 Y73.8
N5140 G3 X136.895 Y74 I-0.2 J0
N5150 G1 X118.7
N5160 Y24
N5170 X136
N5180 X136.899
N5190 G3 X137.099 Y24.2 I0 J0.2
N5200 G1 X137.1 Y56.586
N5210 G3 X136.9 Y56.786 I-0.2 J0
N5220 G1 Z-3
N5230 X136.893
N5240 X136.233
N5250 G3 X135.914 Y56.467 I0 J-0.319
N5260 G1 Y41.533
N5270 G3 X136.233 Y41.214 I0.319 J0
N5280 G1 X136.887
N5290 G3 X137.087 Y41.414 I0 J0.2
N5300 G1 X137.091 Y58.151
N5310 G3 X136.891 Y58.351 I-0.2 J0
N5320 G1 X134.669
N5330 G3 X134.349 Y58.031 I0 J-0.319
N5340 G1 Y39.969
N5350 G3 X134.669 Y39.649 I0.319 J0
N5360 G1 X136.889
N5370 G3 X137.089 Y39.849 I0 J0.2
N5380 G1 Y59.715
N5390 G3 X136.889 Y59.915 I-0.2 J0
N5400 G1 X133.104
N5410 G3 X132.785 Y59.596 I0 J-0.319
N5420 G1 Y38.404
N5430 G3 X133.104 Y38.085 I0.319 J0
N5440 G1 X136.891
N5450 G3 X137.091 Y38.285 I0 J0.2
N5460 G1 X137.087 Y61.28
N5470 G3 X136.887 Y61.48 I-0.2 J0
N5480 G1 X131.54
N5490 G3 X131.22 Y61.16 I0 J-0.319
N5500 G1 Y36.84
N5510 G3 X131.54 Y36.52 I0.319 J0
N5520 G1 X136.893
N5530 G3 X137.093 Y36.72 I0 J0.2
N5540 G1 X137.098 Y62.844
N5550 G3 X136.898 Y63.044 I-0.2 J0
N5560 G1 X129.975
N5570 G3 X129.656 Y62.725 I0 J-0.319
N5580 G1 Y35.275
N5590 G3 X129.975 Y34.956 I0.319 J0
N5600 G1 X136.895
N5610 G3 X137.095 Y35.156 I0 J0.2
N5620 G1 X137.096 Y64.408
N5630 G3 X136.896 Y64.608 I-0.2 J0
N5640 G1 X128.411
N5650 G3 X128.092 Y64.289 I0 J-0.319
N5660 G1 Y33.711
N5670 G3 X128.411 Y33.392 I0.319 J0
N5680 G1 X136.897
N5690 G3 X137.097 Y33.592 I0 J0.2
N5700 G1 X137.094 Y65.973
N5710 G3 X136.894 Y66.173 I-0.2 J0
N5720 G1 X126.846
N5730 G3 X126.527 Y65.854 I0 J-0.319
N5740 G1 Y32.146
N5750 G3 X126.846 Y31.827 I0.319 J0
N5760 G1 X136.899
N5770 G3 X137.099 Y32.027 I0 J0.2
N5780 G1 X137.092 Y67.537
N5790 G3 X136.892 Y67.737 I-0.2 J0
N5800 G1 X125.282
N5810 G3 X124.963 Y67.418 I0 J-0.319
N5820 G1 Y30.582
N5830 G3 X125.282 Y30.263 I0.319 J0
N5840 G1 X136.888
N5850 G3 X137.088 Y30.463 I0 J0.2
N5860 G1 X137.09 Y69.102
N5870 G3 X136.89 Y69.302 I-0.2 J0
N5880 G1 X123.718
N5890 G3 X123.398 Y68.982 I0 J-0.319
N5900 G1 Y29.018
N5910 G3 X123.718 Y28.698 I0.319 J0
N5920 G1 X136.89
N5930 G3 X137.09 Y28.898 I0 J0.2
N5940 G1 X137.088 Y70.666
N5950 G3 X136.888 Y70.866 I-0.2 J0
N5960 G1 X132.216
N5970 X130.486
N5980 X123.212
N5990 G3 X123.155 Y70.858 I0 J-0.2
N6000 G1 X121.977 Y70.507
N6010 G3 X121.834 Y70.315 I0.057 J-0.192
N6020 G1 Y27.453
N6030 G3 X122.153 Y27.134 I0.319 J0
N6040 G1 X136.892
N6050 G3 X137.092 Y27.334 I0 J0.2
N6060 G1 X137.099 Y72.231
N6070 G3 X136.899 Y72.431 I-0.2 J0
N6080 G1 X120.589
N6090 G3 X120.269 Y72.111 I0 J-0.319
N6100 G1 Y25.889
N6110 G3 X120.589 Y25.569 I0.319 J0
N6120 G1 X136.894
N6130 G3 X137.094 Y25.769 I0 J0.2
N6140 G1 X137.095 Y73.8
N6150 G3 X136.895 Y74 I-0.2 J0
N6160 G1 X118.7
N6170 Y24
N6180 X136
N6190 X136.899
N6200 G0 Z10
N6210 X136.9 Y161.51
N6220 Z5
N6230 G1 Z2.5 F500
N6240 Z-1.5
N6250 X136.893
N6260 X136.233
N6270 G3 X135.914 Y161.191 I0 J-0.319
N6280 G1 Y146.257
N6290 G3 X136.233 Y145.938 I0.319 J0
N6300 G1 X136.887
N6310 G3 X137.087 Y146.138 I0 J0.2
N6320 G1 X137.091 Y162.875
N6330 G3 X136.891 Y163.075 I-0.2 J0
N6340 G1 X134.669
N6350 G3 X134.349 Y162.755 I0 J-0.319
N6360 G1 Y144.693
N6370 G3 X134.669 Y144.373 I0.319 J0
N6380 G1 X136.889
N6390 G3 X137.089 Y144.573 I0 J0.2
N6400 G1 Y164.439
N6410 G3 X136.889 Y164.639 I-0.2 J0
N6420 G1 X133.104
N6430 G3 X132.785 Y164.32 I0 J-0.319
N6440 G1 Y143.128
N6450 G3 X133.104 Y142.809 I0.319 J0
N6460 G1 X136.891
N6470 G3 X137.091 Y143.009 I0 J0.2
N6480 G1 X137.087 Y166.004
N6490 G3 X136.887 Y166.204 I-0.2 J0
N6500 G1 X131.54
N6510 G3 X131.22 Y165.884 I0 J-0.319
N6520 G1 Y141.564
N6530 G3 X131.54 Y141.244 I0.319 J0
N6540 G1 X136.893
N6550 G3 X137.093 Y141.444 I0 J0.2
N6560 G1 X137.098 Y167.568
N6570 G3 X136.898 Y167.768 I-0.2 J0
N6580 G1 X129.975
N6590 G3 X129.656 Y167.449 I0 J-0.319
N6600 G1 Y139.999
N6610 G3 X129.975 Y139.68 I0.319 J0
N6620 G1 X136.895
N6630 G3 X137.095 Y139.88 I0 J0.2
N6640 G1 X137.096 Y169.132
N6650 G3 X136.896 Y169.332 I-0.2 J0
N6660 G1 X128.411
N6670 G3 X128.092 Y169.013 I0 J-0.319
N6680 G1 Y138.435
N6690 G3 X128.411 Y138.116 I0.319 J0
N6700 G1 X136.897
N6710 G3 X137.097 Y138.316 I0 J0.2
N6720 G1 X137.094 Y170.697
N6730 G3 X136.894 Y170.897 I-0.2 J0
N6740 G1 X126.846
N6750 G3 X126.527 Y170.577 I0 J-0.319
N6760 G1 Y136.87
N6770 G3 X126.846 Y136.551 I0.319 J0
N6780 G1 X136.899
N6790 G3 X137.099 Y136.751 I0 J0.2
N6800 G1 X137.092 Y172.261
N6810 G3 X136.892 Y172.461 I-0.2 J0
N6820 G1 X125.282
N6830 G3 X124.963 Y172.142 I0 J-0.319
N6840 G1 Y135.306
N6850 G3 X125.282 Y134.987 I0.319 J0
N6860 G1 X136.888
N6870 G3 X137.088 Y135.187 I0 J0.2
N6880 G1 X137.09 Y173.826
N6890 G3 X136.89 Y174.026 I-0.2 J0
N6900 G1 X123.718
N6910 G3 X123.398 Y173.706 I0 J-0.319
N6920 G1 Y133.742
N6930 G3 X123.718 Y133.422 I0.319 J0
N6940 G1 X136.89
N6950 G3 X137.09 Y133.622 I0 J0.2
N6960 G1 X137.088 Y175.39
N6970 G3 X136.888 Y175.59 I-0.2 J0
N6980 G1 X132.216
N6990 X130.486
N7000 X123.212
N7010 G3 X123.155 Y175.582 I0 J-0.2
N7020 G1 X121.977 Y175.231
N7030 G3 X121.834 Y175.039 I0.057 J-0.192
N7040 G1 Y132.177
N7050 G3 X122.153 Y131.858 I0.319 J0
N7060 G1 X136.892
N7070 G3 X137.092 Y132.058 I0 J0.2
N7080 G1 X137.099 Y176.955
N7090 G3 X136.899 Y177.155 I-0.2 J0
N7100 G1 X120.589
N7110 G3 X120.269 Y176.835 I0 J-0.319
N7120 G1 Y130.613
N7130 G3 X120.589 Y130.293 I0.319 J0
N7140 G1 X136.894
N7150 G3 X137.094 Y130.493 I0 J0.2
N7160 G1 X137.095 Y178.524
N7170 G3 X136.895 Y178.724 I-0.2 J0
N7180 G1 X118.7
N7190 Y128.724
N7200 X136
N7210 X136.899
N7220 G3 X137.099 Y128.924 I0 J0.2
N7230 G1 X137.1 Y161.31
N7240 G3 X136.9 Y161.51 I-0.2 J0
N7250 G1 Z-3
N7260 X136.893
N7270 X136.233
N7280 G3 X135.914 Y161.191 I0 J-0.319
N7290 G1 Y146.257
N7300 G3 X136.233 Y145.938 I0.319 J0
N7310 G1 X136.887
N7320 G3 X137.087 Y146.138 I0 J0.2
N7330 G1 X137.091 Y162.875
N7340 G3 X136.891 Y163.075 I-0.2 J0
N7350 G1 X134.669
N7360 G3 X134.349 Y162.755 I0 J-0.319
N7370 G1 Y144.693
N7380 G3 X134.669 Y144.373 I0.319 J0
N7390 G1 X136.889
N7400 G3 X137.089 Y144.573 I0 J0.2
N7410 G1 Y164.439
N7420 G3 X136.889 Y164.639 I-0.2 J0
N7430 G1 X133.104
N7440 G3 X132.785 Y164.32 I0 J-0.319
N7450 G1 Y143.128
N7460 G3 X133.104 Y142.809 I0.319 J0
N7470 G1 X136.891
N7480 G3 X137.091 Y143.009 I0 J0.2
N7490 G1 X137.087 Y166.004
N7500 G3 X136.887 Y166.204 I-0.2 J0
N7510 G1 X131.54
N7520 G3 X131.22 Y165.884 I0 J-0.319
N7530 G1 Y141.564
N7540 G3 X131.54 Y141.244 I0.319 J0
N7550 G1 X136.893
N7560 G3 X137.093 Y141.444 I0 J0.2
N7570 G1 X137.098 Y167.568
N7580 G3 X136.898 Y167.768 I-0.2 J0
N7590 G1 X129.975
N7600 G3 X129.656 Y167.449 I0 J-0.319
N7610 G1 Y139.999
N7620 G3 X129.975 Y139.68 I0.319 J0
N7630 G1 X136.895
N7640 G3 X137.095 Y139.88 I0 J0.2
N7650 G1 X137.096 Y169.132
N7660 G3 X136.896 Y169.332 I-0.2 J0
N7670 G1 X128.411
N7680 G3 X128.092 Y169.013 I0 J-0.319
N7690 G1 Y138.435
N7700 G3 X128.411 Y138.116 I0.319 J0
N7710 G1 X136.897
N7720 G3 X137.097 Y138.316 I0 J0.2
N7730 G1 X137.094 Y170.697
N7740 G3 X136.894 Y170.897 I-0.2 J0
N7750 G1 X126.846
N7760 G3 X126.527 Y170.577 I0 J-0.319
N7770 G1 Y136.87
N7780 G3 X126.846 Y136.551 I0.319 J0
N7790 G1 X136.899
N7800 G3 X137.099 Y136.751 I0 J0.2
N7810 G1 X137.092 Y172.261
N7820 G3 X136.892 Y172.461 I-0.2 J0
N7830 G1 X125.282
N7840 G3 X124.963 Y172.142 I0 J-0.319
N7850 G1 Y135.306
N7860 G3 X125.282 Y134.987 I0.319 J0
N7870 G1 X136.888
N7880 G3 X137.088 Y135.187 I0 J0.2
N7890 G1 X137.09 Y173.826
N7900 G3 X136.89 Y174.026 I-0.2 J0
N7910 G1 X123.718
N7920 G3 X123.398 Y173.706 I0 J-0.319
N7930 G1 Y133.742
N7940 G3 X123.718 Y133.422 I0.319 J0
N7950 G1 X136.89
N7960 G3 X137.09 Y133.622 I0 J0.2
N7970 G1 X137.088 Y175.39
N7980 G3 X136.888 Y175.59 I-0.2 J0
N7990 G1 X132.216
N8000 X130.486
N8010 X123.212
N8020 G3 X123.155 Y175.582 I0 J-0.2
N8030 G1 X121.977 Y175.231
N8040 G3 X121.834 Y175.039 I0.057 J-0.192
N8050 G1 Y132.177
N8060 G3 X122.153 Y131.858 I0.319 J0
N8070 G1 X136.892
N8080 G3 X137.092 Y132.058 I0 J0.2
N8090 G1 X137.099 Y176.955
N8100 G3 X136.899 Y177.155 I-0.2 J0
N8110 G1 X120.589
N8120 G3 X120.269 Y176.835 I0 J-0.319
N8130 G1 Y130.613
N8140 G3 X120.589 Y130.293 I0.319 J0
N8150 G1 X136.894
N8160 G3 X137.094 Y130.493 I0 J0.2
N8170 G1 X137.095 Y178.524
N8180 G3 X136.895 Y178.724 I-0.2 J0
N8190 G1 X118.7
N8200 Y128.724
N8210 X136
N8220 X136.899
N8230 G0 Z10
N8240 X56.214 Y187.628
N8250 Z5
N8260 G1 Z2.5 F500
N8270 Z-1.5
N8280 Y187.62
N8290 Y186.957
N8300 G3 X56.533 Y186.638 I0.319 J0
N8310 G1 X71.467
N8320 G3 X71.786 Y186.957 I0 J0.319
N8330 G1 Y187.611
N8340 G3 X71.586 Y187.811 I-0.2 J0
N8350 G1 X54.849 Y187.819
N8360 G3 X54.649 Y187.619 I0 J-0.2
N8370 G1 Y185.393
N8380 G3 X54.969 Y185.073 I0.319 J0
N8390 G1 X73.031
N8400 G3 X73.351 Y185.393 I0 J0.319
N8410 G1 Y187.613
N8420 G3 X73.151 Y187.813 I-0.2 J0
N8430 G1 X53.285 Y187.817
N8440 G3 X53.085 Y187.617 I0 J-0.2
N8450 G1 Y183.828
N8460 G3 X53.404 Y183.509 I0.319 J0
N8470 G1 X74.596
N8480 G3 X74.915 Y183.828 I0 J0.319
N8490 G1 Y187.615
N8500 G3 X74.715 Y187.815 I-0.2 J0
N8510 G1 X51.72
N8520 G3 X51.52 Y187.615 I0 J-0.2
N8530 G1 Y182.264
N8540 G3 X51.84 Y181.944 I0.319 J0
N8550 G1 X76.16
N8560 G3 X76.48 Y182.264 I0 J0.319
N8570 G1 Y187.617
N8580 G3 X76.28 Y187.817 I-0.2 J0
N8590 G1 X50.156 Y187.813
N8600 G3 X49.956 Y187.613 I0 J-0.2
N8610 G1 Y180.699
N8620 G3 X50.275 Y180.38 I0.319 J0
N8630 G1 X77.725
N8640 G3 X78.044 Y180.699 I0 J0.319
N8650 G1 Y187.619
N8660 G3 X77.844 Y187.819 I-0.2 J0
N8670 G1 X48.592 Y187.81
N8680 G3 X48.392 Y187.61 I0 J-0.2
N8690 G1 Y179.135
N8700 G3 X48.711 Y178.816 I0.319 J0
N8710 G1 X79.289
N8720 G3 X79.608 Y179.135 I0 J0.319
N8730 G1 Y187.621
N8740 G3 X79.408 Y187.821 I-0.2 J0
N8750 G1 X47.027 Y187.822
N8760 G3 X46.827 Y187.622 I0 J-0.2
N8770 G1 Y177.57
N8780 G3 X47.146 Y177.251 I0.319 J0
N8790 G1 X80.854
N8800 G3 X81.173 Y177.57 I0 J0.319
N8810 G1 Y187.623
N8820 G3 X80.973 Y187.823 I-0.2 J0
N8830 G1 X45.463 Y187.82
N8840 G3 X45.263 Y187.62 I0 J-0.2
N8850 G1 Y176.006
N8860 G3 X45.582 Y175.687 I0.319 J0
N8870 G1 X82.418
N8880 G3 X82.737 Y176.006 I0 J0.319
N8890 G1 Y187.612
N8900 G3 X82.537 Y187.812 I-0.2 J0
N8910 G1 X43.898 Y187.818
N8920 G3 X43.698 Y187.618 I0 J-0.2
N8930 G1 Y174.442
N8940 G3 X44.018 Y174.122 I0.319 J0
N8950 G1 X83.982
N8960 G3 X84.302 Y174.442 I0 J0.319
N8970 G1 Y187.614
N8980 G3 X84.102 Y187.814 I-0.2 J0
N8990 G1 X42.334 Y187.816
N9000 G3 X42.134 Y187.616 I0 J-0.2
N9010 G1 Y182.93
N9020 Y181.227
N9030 Y173.926
N9040 G3 X42.144 Y173.865 I0.2 J0
N9050 G1 X42.522 Y172.696
N9060 G3 X42.712 Y172.558 I0.19 J0.062
N9070 G1 X85.547
N9080 G3 X85.866 Y172.877 I0 J0.319
N9090 G1 Y187.616
N9100 G3 X85.666 Y187.816 I-0.2 J0
N9110 G1 X40.769 Y187.814
N9120 G3 X40.569 Y187.614 I0 J-0.2
N9130 G1 Y171.313
N9140 G3 X40.889 Y170.993 I0.319 J0
N9150 G1 X87.111
N9160 G3 X87.431 Y171.313 I0 J0.319
N9170 G1 Y187.618
N9180 G3 X87.231 Y187.818 I-0.2 J0
N9190 G1 X39.2 Y187.819
N9200 G3 X39 Y187.619 I0 J-0.2
N9210 G1 Y169.424
N9220 X89
N9230 Y186.724
N9240 Y187.623
N9250 G3 X88.8 Y187.823 I-0.2 J0
N9260 G1 X56.414 Y187.828
N9270 G3 X56.214 Y187.628 I0 J-0.2
N9280 G1 Z-3
N9290 Y187.62
N9300 Y186.957
N9310 G3 X56.533 Y186.638 I0.319 J0
N9320 G1 X71.467
N9330 G3 X71.786 Y186.957 I0 J0.319
N9340 G1 Y187.611
N9350 G3 X71.586 Y187.811 I-0.2 J0
N9360 G1 X54.849 Y187.819
N9370 G3 X54.649 Y187.619 I0 J-0.2
N9380 G1 Y185.393
N9390 G3 X54.969 Y185.073 I0.319 J0
N9400 G1 X73.031
N9410 G3 X73.351 Y185.393 I0 J0.319
N9420 G1 Y187.613
N9430 G3 X73.151 Y187.813 I-0.2 J0
N9440 G1 X53.285 Y187.817
N9450 G3 X53.085 Y187.617 I0 J-0.2
N9460 G1 Y183.828
N9470 G3 X53.404 Y183.509 I0.319 J0
N9480 G1 X74.596
N9490 G3 X74.915 Y183.828 I0 J0.319
N9500 G1 Y187.615
N9510 G3 X74.715 Y187.815 I-0.2 J0
N9520 G1 X51.72
N9530 G3 X51.52 Y187.615 I0 J-0.2
N9540 G1 Y182.264
N9550 G3 X51.84 Y181.944 I0.319 J0
N9560 G1 X76.16
N9570 G3 X76.48 Y182.264 I0 J0.319
N9580 G1 Y187.617
N9590 G3 X76.28 Y187.817 I-0.2 J0
N9600 G1 X50.156 Y187.813
N9610 G3 X49.956 Y187.613 I0 J-0.2
N9620 G1 Y180.699
N9630 G3 X50.275 Y180.38 I0.319 J0
N9640 G1 X77.725
N9650 G3 X78.044 Y180.699 I0 J0.319
N9660 G1 Y187.619
N9670 G3 X77.844 Y187.819 I-0.2 J0
N9680 G1 X48.592 Y187.81
N9690 G3 X48.392 Y187.61 I0 J-0.2
N9700 G1 Y179.135
N9710 G3 X48.711 Y178.816 I0.319 J0
N9720 G1 X79.289
N9730 G3 X79.608 Y179.135 I0 J0.319
N9740 G1 Y187.621
N9750 G3 X79.408 Y187.821 I-0.2 J0
N9760 G1 X47.027 Y187.822
N9770 G3 X46.827 Y187.622 I0 J-0.2
N9780 G1 Y177.57
N9790 G3 X47.146 Y177.251 I0.319 J0
N9800 G1 X80.854
N9810 G3 X81.173 Y177.57 I0 J0.319
N9820 G1 Y187.623
N9830 G3 X80.973 Y187.823 I-0.2 J0
N9840 G1 X45.463 Y187.82
N9850 G3 X45.263 Y187.62 I0 J-0.2
N9860 G1 Y176.006
N9870 G3 X45.582 Y175.687 I0.319 J0
N9880 G1 X82.418
N9890 G3 X82.737 Y176.006 I0 J0.319
N9900 G1 Y187.612
N9910 G3 X82.537 Y187.812 I-0.2 J0
N9920 G1 X43.898 Y187.818
N9930 G3 X43.698 Y187.618 I0 J-0.2
N9940 G1 Y174.442
N9950 G3 X44.018 Y174.122 I0.319 J0
N9960 G1 X83.982
N9970 G3 X84.302 Y174.442 I0 J0.319
N9980 G1 Y187.614
N9990 G3 X84.102 Y187.814 I-0.2 J0
N10000 G1 X42.334 Y187.816
N10010 G3 X42.134 Y187.616 I0 J-0.2
N10020 G1 Y182.93
N10030 Y181.227
N10040 Y173.926
N10050 G3 X42.144 Y173.865 I0.2 J0
N10060 G1 X42.522 Y172.696
N10070 G3 X42.712 Y172.558 I0.19 J0.062
N10080 G1 X85.547
N10090 G3 X85.866 Y172.877 I0 J0.319
N10100 G1 Y187.616
N10110 G3 X85.666 Y187.816 I-0.2 J0
N10120 G1 X40.769 Y187.814
N10130 G3 X40.569 Y187.614 I0 J-0.2
N10140 G1 Y171.313
N10150 G3 X40.889 Y170.993 I0.319 J0
N10160 G1 X87.111
N10170 G3 X87.431 Y171.313 I0 J0.319
N10180 G1 Y187.618
N10190 G3 X87.231 Y187.818 I-0.2 J0
N10200 G1 X39.2 Y187.819
N10210 G3 X39 Y187.619 I0 J-0.2
N10220 G1 Y169.424
N10230 X89
N10240 Y186.724
N10250 Y187.623
N10260 G0 Z10
N10270 X-0.901 Y137.938
N10280 Z5
N10290 G1 Z2.5 F500
N10300 Z-1.5
N10310 X-0.893
N10320 X-0.233
N10330 G3 X0.086 Y138.257 I0 J0.319
N10340 G1 Y153.191
N10350 G3 X-0.233 Y153.51 I-0.319 J0
N10360 G1 X-0.887
N10370 G3 X-1.087 Y153.31 I0 J-0.2
N10380 G1 X-1.091 Y136.573
N10390 G3 X-0.891 Y136.373 I0.2 J0
N10400 G1 X1.331
N10410 G3 X1.651 Y136.693 I0 J0.319
N10420 G1 Y154.755
N10430 G3 X1.331 Y155.075 I-0.319 J0
N10440 G1 X-0.889
N10450 G3 X-1.089 Y154.875 I0 J-0.2
N10460 G1 Y135.009
N10470 G3 X-0.889 Y134.809 I0.2 J0
N10480 G1 X2.896
N10490 G3 X3.215 Y135.128 I0 J0.319
N10500 G1 Y156.32
N10510 G3 X2.896 Y156.639 I-0.319 J0
N10520 G1 X-0.891
N10530 G3 X-1.091 Y156.439 I0 J-0.2
N10540 G1 X-1.087 Y133.444
N10550 G3 X-0.887 Y133.244 I0.2 J0
N10560 G1 X4.46
N10570 G3 X4.78 Y133.564 I0 J0.319
N10580 G1 Y157.884
N10590 G3 X4.46 Y158.204 I-0.319 J0
N10600 G1 X-0.893
N10610 G3 X-1.093 Y158.004 I0 J-0.2
N10620 G1 X-1.098 Y131.88
N10630 G3 X-0.898 Y131.68 I0.2 J0
N10640 G1 X6.025
N10650 G3 X6.344 Y131.999 I0 J0.319
N10660 G1 Y159.449
N10670 G3 X6.025 Y159.768 I-0.319 J0
N10680 G1 X-0.895
N10690 G3 X-1.095 Y159.568 I0 J-0.2
N10700 G1 X-1.096 Y130.316
N10710 G3 X-0.896 Y130.116 I0.2 J0
N10720 G1 X7.589
N10730 G3 X7.908 Y130.435 I0 J0.319
N10740 G1 Y161.013
N10750 G3 X7.589 Y161.332 I-0.319 J0
N10760 G1 X-0.897
N10770 G3 X-1.097 Y161.132 I0 J-0.2
N10780 G1 X-1.094 Y128.751
N10790 G3 X-0.894 Y128.551 I0.2 J0
N10800 G1 X9.154
N10810 G3 X9.473 Y128.87 I0 J0.319
N10820 G1 Y162.577
N10830 G3 X9.154 Y162.897 I-0.319 J0
N10840 G1 X-0.899
N10850 G3 X-1.099 Y162.697 I0 J-0.2
N10860 G1 X-1.092 Y127.187
N10870 G3 X-0.892 Y126.987 I0.2 J0
N10880 G1 X10.718
N10890 G3 X11.037 Y127.306 I0 J0.319
N10900 G1 Y164.142
N10910 G3 X10.718 Y164.461 I-0.319 J0
N10920 G1 X-0.888
N10930 G3 X-1.088 Y164.261 I0 J-0.2
N10940 G1 X-1.09 Y125.622
N10950 G3 X-0.89 Y125.422 I0.2 J0
N10960 G1 X12.282
N10970 G3 X12.602 Y125.742 I0 J0.319
N10980 G1 Y165.706
N10990 G3 X12.282 Y166.026 I-0.319 J0
N11000 G1 X-0.89
N11010 G3 X-1.09 Y165.826 I0 J-0.2
N11020 G1 X-1.088 Y124.058
N11030 G3 X-0.888 Y123.858 I0.2 J0
N11040 G1 X3.784
N11050 X5.514
N11060 X12.788
N11070 G3 X12.845 Y123.866 I0 J0.2
N11080 G1 X14.023 Y124.217
N11090 G3 X14.166 Y124.409 I-0.057 J0.192
N11100 G1 Y167.271
N11110 G3 X13.847 Y167.59 I-0.319 J0
N11120 G1 X-0.892
N11130 G3 X-1.092 Y167.39 I0 J-0.2
N11140 G1 X-1.1 Y122.493
N11150 G3 X-0.9 Y122.293 I0.2 J0
N11160 G1 X15.411
N11170 G3 X15.731 Y122.613 I0 J0.319
N11180 G1 Y168.835
N11190 G3 X15.411 Y169.155 I-0.319 J0
N11200 G1 X-0.894
N11210 G3 X-1.094 Y168.955 I0 J-0.2
N11220 G1 X-1.095 Y120.924
N11230 G3 X-0.895 Y120.724 I0.2 J0
N11240 G1 X17.3
N11250 Y170.724
N11260 X0
N11270 X-0.899
N11280 G3 X-1.099 Y170.524 I0 J-0.2
N11290 G1 X-1.101 Y138.138
N11300 G3 X-0.901 Y137.938 I0.2 J0
N11310 G1 Z-3
N11320 X-0.893
N11330 X-0.233
N11340 G3 X0.086 Y138.257 I0 J0.319
N11350 G1 Y153.191
N11360 G3 X-0.233 Y153.51 I-0.319 J0
N11370 G1 X-0.887
N11380 G3 X-1.087 Y153.31 I0 J-0.2
N11390 G1 X-1.091 Y136.573
N11400 G3 X-0.891 Y136.373 I0.2 J0
N11410 G1 X1.331
N11420 G3 X1.651 Y136.693 I0 J0.319
N11430 G1 Y154.755
N11440 G3 X1.331 Y155.075 I-0.319 J0
N11450 G1 X-0.889
N11460 G3 X-1.089 Y154.875 I0 J-0.2
N11470 G1 Y135.009
N11480 G3 X-0.889 Y134.809 I0.2 J0
N11490 G1 X2.896
N11500 G3 X3.215 Y135.128 I0 J0.319
N11510 G1 Y156.32
N11520 G3 X2.896 Y156.639 I-0.319 J0
N11530 G1 X-0.891
N11540 G3 X-1.091 Y156.439 I0 J-0.2
N11550 G1 X-1.087 Y133.444
N11560 G3 X-0.887 Y133.244 I0.2 J0
N11570 G1 X4.46
N11580 G3 X4.78 Y133.564 I0 J0.319
N11590 G1 Y157.884
N11600 G3 X4.46 Y158.204 I-0.319 J0
N11610 G1 X-0.893
N11620 G3 X-1.093 Y158.004 I0 J-0.2
N11630 G1 X-1.098 Y131.88
N11640 G3 X-0.898 Y131.68 I0.2 J0
N11650 G1 X6.025
N11660 G3 X6.344 Y131.999 I0 J0.319
N11670 G1 Y159.449
N11680 G3 X6.025 Y159.768 I-0.319 J0
N11690 G1 X-0.895
N11700 G3 X-1.095 Y159.568 I0 J-0.2
N11710 G1 X-1.096 Y130.316
N11720 G3 X-0.896 Y130.116 I0.2 J0
N11730 G1 X7.589
N11740 G3 X7.908 Y130.435 I0 J0.319
N11750 G1 Y161.013
N11760 G3 X7.589 Y161.332 I-0.319 J0
N11770 G1 X-0.897
N11780 G3 X-1.097 Y161.132 I0 J-0.2
N11790 G1 X-1.094 Y128.751
N11800 G3 X-0.894 Y128.551 I0.2 J0
N11810 G1 X9.154
N11820 G3 X9.473 Y128.87 I0 J0.319
N11830 G1 Y162.577
N11840 G3 X9.154 Y162.897 I-0.319 J0
N11850 G1 X-0.899
N11860 G3 X-1.099 Y162.697 I0 J-0.2
N11870 G1 X-1.092 Y127.187
N11880 G3 X-0.892 Y126.987 I0.2 J0
N11890 G1 X10.718
N11900 G3 X11.037 Y127.306 I0 J0.319
N11910 G1 Y164.142
N11920 G3 X10.718 Y164.461 I-0.319 J0
N11930 G1 X-0.888
N11940 G3 X-1.088 Y164.261 I0 J-0.2
N11950 G1 X-1.09 Y125.622
N11960 G3 X-0.89 Y125.422 I0.2 J0
N11970 G1 X12.282
N11980 G3 X12.602 Y125.742 I0 J0.319
N11990 G1 Y165.706
N12000 G3 X12.282 Y166.026 I-0.319 J0
N12010 G1 X-0.89
N12020 G3 X-1.09 Y165.826 I0 J-0.2
N12030 G1 X-1.088 Y124.058
N12040 G3 X-0.888 Y123.858 I0.2 J0
N12050 G1 X3.784
N12060 X5.514
N12070 X12.788
N12080 G3 X12.845 Y123.866 I0 J0.2
N12090 G1 X14.023 Y124.217
N12100 G3 X14.166 Y124.409 I-0.057 J0.192
N12110 G1 Y167.271
N12120 G3 X13.847 Y167.59 I-0.319 J0
N12130 G1 X-0.892
N12140 G3 X-1.092 Y167.39 I0 J-0.2
N12150 G1 X-1.1 Y122.493
N12160 G3 X-0.9 Y122.293 I0.2 J0
N12170 G1 X15.411
N12180 G3 X15.731 Y122.613 I0 J0.319
N12190 G1 Y168.835
N12200 G3 X15.411 Y169.155 I-0.319 J0
N12210 G1 X-0.894
N12220 G3 X-1.094 Y168.955 I0 J-0.2
N12230 G1 X-1.095 Y120.924
N12240 G3 X-0.895 Y120.724 I0.2 J0
N12250 G1 X17.3
N12260 Y170.724
N12270 X0
N12280 X-0.899
N12290 G0 Z10

(2D ??1)
N12310 X67.967 Y70.334
N12320 Z10
N12330 Z5
N12340 G1 Z2.5 F80
N12350 Z-1.5
N12360 X105.182 F500
N12370 G2 X116.642 Y81.794 I12.46 J-1
N12380 G1 Y155.604
N12390 G2 X105.182 Y167.064 I1 J12.46
N12400 G1 X31.062
N12410 G2 X19.602 Y155.604 I-12.46 J1
N12420 G1 Y81.794
N12430 G2 X31.062 Y70.334 I-1 J-12.46
N12440 G1 X67.967
N12450 Z-3 F80
N12460 X105.182 F500
N12470 G2 X116.642 Y81.794 I12.46 J-1
N12480 G1 Y155.604
N12490 G2 X105.182 Y167.064 I1 J12.46
N12500 G1 X31.062
N12510 G2 X19.602 Y155.604 I-12.46 J1
N12520 G1 Y81.794
N12530 G2 X31.062 Y70.334 I-1 J-12.46
N12540 G1 X67.967
N12550 Z-4.5 F80
N12560 X105.182 F500
N12570 G2 X116.642 Y81.794 I12.46 J-1
N12580 G1 Y155.604
N12590 G2 X105.182 Y167.064 I1 J12.46
N12600 G1 X31.062
N12610 G2 X19.602 Y155.604 I-12.46 J1
N12620 G1 Y81.794
N12630 G2 X31.062 Y70.334 I-1 J-12.46
N12640 G1 X67.967
N12650 Z-5.7 F80
N12660 X105.182 F500
N12670 G2 X116.642 Y81.794 I12.46 J-1
N12680 G1 Y155.604
N12690 G2 X105.182 Y167.064 I1 J12.46
N12700 G1 X31.062
N12710 G2 X19.602 Y155.604 I-12.46 J1
N12720 G1 Y81.794
N12730 G2 X31.062 Y70.334 I-1 J-12.46
N12740 G1 X67.967
N12750 G0 Z5
N12760 X75 Y56.69
N12770 G1 Z2.5 F80
N12780 Z-1.5
N12790 G3 X61 I-7 J0 F500
N12800 X75 I7 J0
N12810 G1 Z-3 F80
N12820 G3 X61 I-7 J0 F500
N12830 X75 I7 J0
N12840 G1 Z-4.5 F80
N12850 G3 X61 I-7 J0 F500
N12860 X75 I7 J0
N12870 G1 Z-5.7 F80
N12880 G3 X61 I-7 J0 F500
N12890 X75 I7 J0
N12900 G0 Z5
N12910 X86 Y35.362
N12920 G1 Z2.5 F80
N12930 Z-1.5
N12940 X102 F500
N12950 Y45.362
N12960 X81
N12970 Y35.362
N12980 X86
N12990 Z-3 F80
N13000 X102 F500
N13010 Y45.362
N13020 X81
N13030 Y35.362
N13040 X86
N13050 Z-4.5 F80
N13060 X102 F500
N13070 Y45.362
N13080 X81
N13090 Y35.362
N13100 X86
N13110 Z-5.7 F80
N13120 X102 F500
N13130 Y45.362
N13140 X81
N13150 Y35.362
N13160 X86
N13170 G0 Z5
N13180 X78.65 Y40.362
N13190 G1 Z2.5 F80
N13200 Z-1.5
N13210 G3 X78.35 I-0.15 J0 F500
N13220 X78.65 I0.15 J0
N13230 G1 Z-3 F80
N13240 G3 X78.35 I-0.15 J0 F500
N13250 X78.65 I0.15 J0
N13260 G1 Z-4.5 F80
N13270 G3 X78.35 I-0.15 J0 F500
N13280 X78.65 I0.15 J0
N13290 G1 Z-5.7 F80
N13300 G3 X78.35 I-0.15 J0 F500
N13310 X78.65 I0.15 J0
N13320 G0 Z5
N13330 X57.65
N13340 G1 Z2.5 F80
N13350 Z-1.5
N13360 G3 X57.35 I-0.15 J0 F500
N13370 X57.65 I0.15 J0
N13380 G1 Z-3 F80
N13390 G3 X57.35 I-0.15 J0 F500
N13400 X57.65 I0.15 J0
N13410 G1 Z-4.5 F80
N13420 G3 X57.35 I-0.15 J0 F500
N13430 X57.65 I0.15 J0
N13440 G1 Z-5.7 F80
N13450 G3 X57.35 I-0.15 J0 F500
N13460 X57.65 I0.15 J0
N13470 G0 Z5
N13480 X55
N13490 G1 Z2.5 F80
N13500 Z-1.5
N13510 Y45.362 F500
N13520 X34
N13530 Y35.362
N13540 X55
N13550 Y40.362
N13560 Z-3 F80
N13570 Y45.362 F500
N13580 X34
N13590 Y35.362
N13600 X55
N13610 Y40.362
N13620 Z-4.5 F80
N13630 Y45.362 F500
N13640 X34
N13650 Y35.362
N13660 X55
N13670 Y40.362
N13680 Z-5.7 F80
N13690 Y45.362 F500
N13700 X34
N13710 Y35.362
N13720 X55
N13730 Y40.362
N13740 G0 Z5
N13750 X31.65
N13760 G1 Z2.5 F80
N13770 Z-1.5
N13780 G3 X31.35 I-0.15 J0 F500
N13790 X31.65 I0.15 J0
N13800 G1 Z-3 F80
N13810 G3 X31.35 I-0.15 J0 F500
N13820 X31.65 I0.15 J0
N13830 G1 Z-4.5 F80
N13840 G3 X31.35 I-0.15 J0 F500
N13850 X31.65 I0.15 J0
N13860 G1 Z-5.7 F80
N13870 G3 X31.35 I-0.15 J0 F500
N13880 X31.65 I0.15 J0
N13890 G0 Z5
N13900 X14.45 Y19
N13910 G1 Z2.5 F80
N13920 Z-1.5
N13930 G3 X12.85 I-0.8 J0 F500
N13940 X14.45 I0.8 J0
N13950 G1 Z-3 F80
N13960 G3 X12.85 I-0.8 J0 F500
N13970 X14.45 I0.8 J0
N13980 G1 Z-4.5 F80
N13990 G3 X12.85 I-0.8 J0 F500
N14000 X14.45 I0.8 J0
N14010 G1 Z-5.7 F80
N14020 G3 X12.85 I-0.8 J0 F500
N14030 X14.45 I0.8 J0
N14040 G0 Z5
N14050 X5.45
N14060 G1 Z2.5 F80
N14070 Z-1.5
N14080 G3 X3.85 I-0.8 J0 F500
N14090 X5.45 I0.8 J0
N14100 G1 Z-3 F80
N14110 G3 X3.85 I-0.8 J0 F500
N14120 X5.45 I0.8 J0
N14130 G1 Z-4.5 F80
N14140 G3 X3.85 I-0.8 J0 F500
N14150 X5.45 I0.8 J0
N14160 G1 Z-5.7 F80
N14170 G3 X3.85 I-0.8 J0 F500
N14180 X5.45 I0.8 J0
N14190 G0 Z5
N14200 X11.6 Y8.015
N14210 G1 Z2.5 F80
N14220 Z-1.5
N14230 G3 X10.4 Y7.985 I-0.6 J-0.015 F500
N14240 X11.6 Y8 I0.6 J0.015
N14250 Y8.015 I-0.6 J0
N14260 G1 Z-3 F80
N14270 G3 X10.4 Y7.985 I-0.6 J-0.015 F500
N14280 X11.6 Y8 I0.6 J0.015
N14290 Y8.015 I-0.6 J0
N14300 G1 Z-4.5 F80
N14310 G3 X10.4 Y7.985 I-0.6 J-0.015 F500
N14320 X11.6 Y8 I0.6 J0.015
N14330 Y8.015 I-0.6 J0
N14340 G1 Z-5.7 F80
N14350 G3 X10.4 Y7.985 I-0.6 J-0.015 F500
N14360 X11.6 Y8 I0.6 J0.015
N14370 Y8.015 I-0.6 J0
N14380 G0 Z5
N14390 X23.586 Y74.197
N14400 G1 Z2.5 F80
N14410 Z-1.5
N14420 G3 X22.386 I-0.6 J0 F500
N14430 X23.586 I0.6 J0
N14440 G1 Z-3 F80
N14450 G3 X22.386 I-0.6 J0 F500
N14460 X23.586 I0.6 J0
N14470 G1 Z-4.5 F80
N14480 G3 X22.386 I-0.6 J0 F500
N14490 X23.586 I0.6 J0
N14500 G1 Z-5.7 F80
N14510 G3 X22.386 I-0.6 J0 F500
N14520 X23.586 I0.6 J0
N14530 G0 Z5
N14540 X14.45 Y123.744
N14550 G1 Z2.5 F80
N14560 Z-1.5
N14570 G3 X12.85 Y123.704 I-0.8 J-0.02 F500
N14580 X14.45 Y123.724 I0.8 J0.02
N14590 Y123.744 I-0.8 J0
N14600 G1 Z-3 F80
N14610 G3 X12.85 Y123.704 I-0.8 J-0.02 F500
N14620 X14.45 Y123.724 I0.8 J0.02
N14630 Y123.744 I-0.8 J0
N14640 G1 Z-4.5 F80
N14650 G3 X12.85 Y123.704 I-0.8 J-0.02 F500
N14660 X14.45 Y123.724 I0.8 J0.02
N14670 Y123.744 I-0.8 J0
N14680 G1 Z-5.7 F80
N14690 G3 X12.85 Y123.704 I-0.8 J-0.02 F500
N14700 X14.45 Y123.724 I0.8 J0.02
N14710 Y123.744 I-0.8 J0
N14720 G0 Z5
N14730 X5.45 Y123.724
N14740 G1 Z2.5 F80
N14750 Z-1.5
N14760 G3 X3.85 I-0.8 J0 F500
N14770 X5.45 I0.8 J0
N14780 G1 Z-3 F80
N14790 G3 X3.85 I-0.8 J0 F500
N14800 X5.45 I0.8 J0
N14810 G1 Z-4.5 F80
N14820 G3 X3.85 I-0.8 J0 F500
N14830 X5.45 I0.8 J0
N14840 G1 Z-5.7 F80
N14850 G3 X3.85 I-0.8 J0 F500
N14860 X5.45 I0.8 J0
N14870 G0 Z5
N14880 X23.586 Y163.097
N14890 G1 Z2.5 F80
N14900 Z-1.5
N14910 G3 X22.386 I-0.6 J0 F500
N14920 X23.586 I0.6 J0
N14930 G1 Z-3 F80
N14940 G3 X22.386 I-0.6 J0 F500
N14950 X23.586 I0.6 J0
N14960 G1 Z-4.5 F80
N14970 G3 X22.386 I-0.6 J0 F500
N14980 X23.586 I0.6 J0
N14990 G1 Z-5.7 F80
N15000 G3 X22.386 I-0.6 J0 F500
N15010 X23.586 I0.6 J0
N15020 G0 Z5
N15030 X42.8 Y173.074
N15040 G1 Z2.5 F80
N15050 Z-1.5
N15060 G3 X42 Y173.874 I-0.8 J0 F500
N15070 Y172.274 I0 J-0.8
N15080 X42.8 Y173.074 I0 J0.8
N15090 G1 Z-3 F80
N15100 G3 X42 Y173.874 I-0.8 J0 F500
N15110 Y172.274 I0 J-0.8
N15120 X42.8 Y173.074 I0 J0.8
N15130 G1 Z-4.5 F80
N15140 G3 X42 Y173.874 I-0.8 J0 F500
N15150 Y172.274 I0 J-0.8
N15160 X42.8 Y173.074 I0 J0.8
N15170 G1 Z-5.7 F80
N15180 G3 X42 Y173.874 I-0.8 J0 F500
N15190 Y172.274 I0 J-0.8
N15200 X42.8 Y173.074 I0 J0.8
N15210 G0 Z5
N15220 Y182.094
N15230 G1 Z2.5 F80
N15240 Z-1.5
N15250 G3 X41.2 Y182.054 I-0.8 J-0.02 F500
N15260 X42.8 Y182.074 I0.8 J0.02
N15270 Y182.094 I-0.8 J0
N15280 G1 Z-3 F80
N15290 G3 X41.2 Y182.054 I-0.8 J-0.02 F500
N15300 X42.8 Y182.074 I0.8 J0.02
N15310 Y182.094 I-0.8 J0
N15320 G1 Z-4.5 F80
N15330 G3 X41.2 Y182.054 I-0.8 J-0.02 F500
N15340 X42.8 Y182.074 I0.8 J0.02
N15350 Y182.094 I-0.8 J0
N15360 G1 Z-5.7 F80
N15370 G3 X41.2 Y182.054 I-0.8 J-0.02 F500
N15380 X42.8 Y182.074 I0.8 J0.02
N15390 Y182.094 I-0.8 J0
N15400 G0 Z5
N15410 X11.6 Y186.724
N15420 G1 Z2.5 F80
N15430 Z-1.5
N15440 G3 X10.4 I-0.6 J0 F500
N15450 X11.6 I0.6 J0
N15460 G1 Z-3 F80
N15470 G3 X10.4 I-0.6 J0 F500
N15480 X11.6 I0.6 J0
N15490 G1 Z-4.5 F80
N15500 G3 X10.4 I-0.6 J0 F500
N15510 X11.6 I0.6 J0
N15520 G1 Z-5.7 F80
N15530 G3 X10.4 I-0.6 J0 F500
N15540 X11.6 I0.6 J0
N15550 G0 Z5
N15560 X113.756 Y163.097
N15570 G1 Z2.5 F80
N15580 Z-1.5
N15590 G3 X112.556 I-0.6 J0 F500
N15600 X113.756 I0.6 J0
N15610 G1 Z-3 F80
N15620 G3 X112.556 I-0.6 J0 F500
N15630 X113.756 I0.6 J0
N15640 G1 Z-4.5 F80
N15650 G3 X112.556 I-0.6 J0 F500
N15660 X113.756 I0.6 J0
N15670 G1 Z-5.7 F80
N15680 G3 X112.556 I-0.6 J0 F500
N15690 X113.756 I0.6 J0
N15700 G0 Z5
N15710 X123.15 Y175.724
N15720 G1 Z2.5 F80
N15730 Z-1.5
N15740 G3 X121.55 I-0.8 J0 F500
N15750 X123.15 I0.8 J0
N15760 G1 Z-3 F80
N15770 G3 X121.55 I-0.8 J0 F500
N15780 X123.15 I0.8 J0
N15790 G1 Z-4.5 F80
N15800 G3 X121.55 I-0.8 J0 F500
N15810 X123.15 I0.8 J0
N15820 G1 Z-5.7 F80
N15830 G3 X121.55 I-0.8 J0 F500
N15840 X123.15 I0.8 J0
N15850 G0 Z5
N15860 X132.15
N15870 G1 Z2.5 F80
N15880 Z-1.5
N15890 G3 X130.55 I-0.8 J0 F500
N15900 X132.15 I0.8 J0
N15910 G1 Z-3 F80
N15920 G3 X130.55 I-0.8 J0 F500
N15930 X132.15 I0.8 J0
N15940 G1 Z-4.5 F80
N15950 G3 X130.55 I-0.8 J0 F500
N15960 X132.15 I0.8 J0
N15970 G1 Z-5.7 F80
N15980 G3 X130.55 I-0.8 J0 F500
N15990 X132.15 I0.8 J0
N16000 G0 Z5
N16010 X125.6 Y186.739
N16020 G1 Z2.5 F80
N16030 Z-1.5
N16040 G3 X124.4 Y186.709 I-0.6 J-0.015 F500
N16050 X125.6 Y186.739 I0.6 J0.015
N16060 G1 Z-3 F80
N16070 G3 X124.4 Y186.709 I-0.6 J-0.015 F500
N16080 X125.6 Y186.739 I0.6 J0.015
N16090 G1 Z-4.5 F80
N16100 G3 X124.4 Y186.709 I-0.6 J-0.015 F500
N16110 X125.6 Y186.739 I0.6 J0.015
N16120 G1 Z-5.7 F80
N16130 G3 X124.4 Y186.709 I-0.6 J-0.015 F500
N16140 X125.6 Y186.739 I0.6 J0.015
N16150 G0 Z5
N16160 X113.756 Y74.212
N16170 G1 Z2.5 F80
N16180 Z-1.5
N16190 G3 X112.556 Y74.183 I-0.6 J-0.015 F500
N16200 X113.756 Y74.212 I0.6 J0.015
N16210 G1 Z-3 F80
N16220 G3 X112.556 Y74.183 I-0.6 J-0.015 F500
N16230 X113.756 Y74.212 I0.6 J0.015
N16240 G1 Z-4.5 F80
N16250 G3 X112.556 Y74.183 I-0.6 J-0.015 F500
N16260 X113.756 Y74.212 I0.6 J0.015
N16270 G1 Z-5.7 F80
N16280 G3 X112.556 Y74.183 I-0.6 J-0.015 F500
N16290 X113.756 Y74.212 I0.6 J0.015
N16300 G0 Z5
N16310 X123.15 Y71
N16320 G1 Z2.5 F80
N16330 Z-1.5
N16340 G3 X121.55 I-0.8 J0 F500
N16350 X123.15 I0.8 J0
N16360 G1 Z-3 F80
N16370 G3 X121.55 I-0.8 J0 F500
N16380 X123.15 I0.8 J0
N16390 G1 Z-4.5 F80
N16400 G3 X121.55 I-0.8 J0 F500
N16410 X123.15 I0.8 J0
N16420 G1 Z-5.7 F80
N16430 G3 X121.55 I-0.8 J0 F500
N16440 X123.15 I0.8 J0
N16450 G0 Z5
N16460 X132.15
N16470 G1 Z2.5 F80
N16480 Z-1.5
N16490 G3 X130.55 I-0.8 J0 F500
N16500 X131.35 Y70.2 I0.8 J0
N16510 X132.15 Y71 I0 J0.8
N16520 G1 Z-3 F80
N16530 G3 X130.55 I-0.8 J0 F500
N16540 X131.35 Y70.2 I0.8 J0
N16550 X132.15 Y71 I0 J0.8
N16560 G1 Z-4.5 F80
N16570 G3 X130.55 I-0.8 J0 F500
N16580 X131.35 Y70.2 I0.8 J0
N16590 X132.15 Y71 I0 J0.8
N16600 G1 Z-5.7 F80
N16610 G3 X130.55 I-0.8 J0 F500
N16620 X131.35 Y70.2 I0.8 J0
N16630 X132.15 Y71 I0 J0.8
N16640 G0 Z5
N16650 X104.65 Y40.366
N16660 G1 Z2.5 F80
N16670 Z-1.5
N16680 G3 X104.35 Y40.358 I-0.15 J-0.004 F500
N16690 X104.65 Y40.362 I0.15 J0.004
N16700 G1 Y40.366
N16710 Z-3 F80
N16720 G3 X104.35 Y40.358 I-0.15 J-0.004 F500
N16730 X104.65 Y40.362 I0.15 J0.004
N16740 G1 Y40.366
N16750 Z-4.5 F80
N16760 G3 X104.35 Y40.358 I-0.15 J-0.004 F500
N16770 X104.65 Y40.362 I0.15 J0.004
N16780 G1 Y40.366
N16790 Z-5.7 F80
N16800 G3 X104.35 Y40.358 I-0.15 J-0.004 F500
N16810 X104.65 Y40.362 I0.15 J0.004
N16820 G1 Y40.366
N16830 G0 Z5
N16840 X94.8 Y21.65
N16850 G1 Z2.5 F80
N16860 Z-1.5
N16870 G3 X93.2 I-0.8 J0 F500
N16880 X94.8 I0.8 J0
N16890 G1 Z-3 F80
N16900 G3 X93.2 I-0.8 J0 F500
N16910 X94.8 I0.8 J0
N16920 G1 Z-4.5 F80
N16930 G3 X93.2 I-0.8 J0 F500
N16940 X94.8 I0.8 J0
N16950 G1 Z-5.7 F80
N16960 G3 X93.2 I-0.8 J0 F500
N16970 X94.8 I0.8 J0
N16980 G0 Z5
N16990 Y12.65
N17000 G1 Z2.5 F80
N17010 Z-1.5
N17020 G3 X93.2 I-0.8 J0 F500
N17030 X94.8 I0.8 J0
N17040 G1 Z-3 F80
N17050 G3 X93.2 I-0.8 J0 F500
N17060 X94.8 I0.8 J0
N17070 G1 Z-4.5 F80
N17080 G3 X93.2 I-0.8 J0 F500
N17090 X94.8 I0.8 J0
N17100 G1 Z-5.7 F80
N17110 G3 X93.2 I-0.8 J0 F500
N17120 X94.8 I0.8 J0
N17130 G0 Z5
N17140 X125.6 Y8
N17150 G1 Z2.5 F80
N17160 Z-1.5
N17170 G3 X124.4 I-0.6 J0 F500
N17180 X125.6 I0.6 J0
N17190 G1 Z-3 F80
N17200 G3 X124.4 I-0.6 J0 F500
N17210 X125.6 I0.6 J0
N17220 G1 Z-4.5 F80
N17230 G3 X124.4 I-0.6 J0 F500
N17240 X125.6 I0.6 J0
N17250 G1 Z-5.7 F80
N17260 G3 X124.4 I-0.6 J0 F500
N17270 X125.6 I0.6 J0
N17280 G0 Z10

(2D ??2)
N17300 X68 Y187.724
N17310 Z10
N17320 Z5
N17330 G1 Z2.5 F80
N17340 Z-1.5
N17350 X89.908 F500
N17360 X132.817 Y195.707
N17370 G2 X133.981 Y194.92 I0.183 J-0.983
N17380 G1 X136.981 Y179.92
N17390 G2 X137 Y179.724 I-0.981 J-0.196
N17400 G1 Y23
N17410 G2 X136.992 Y22.871 I-1 J0
N17420 G1 X133.992 Y-0.129
N17430 G2 X132.777 Y-0.975 I-0.992 J0.129
N17440 G1 X97.887 Y7
N17450 X46.092
N17460 X3.183 Y-0.983
N17470 G2 X2.019 Y-0.196 I-0.183 J0.983
N17480 G1 X-0.981 Y14.804
N17490 G2 X-1 Y15 I0.981 J0.196
N17500 G1 Y171.724
N17510 G2 X-0.992 Y171.853 I1 J0
N17520 G1 X2.008 Y194.853
N17530 G2 X3.223 Y195.699 I0.992 J-0.129
N17540 G1 X38.113 Y187.724
N17550 X68
N17560 Z-3 F80
N17570 X89.908 F500
N17580 X132.817 Y195.707
N17590 G2 X133.981 Y194.92 I0.183 J-0.983
N17600 G1 X136.981 Y179.92
N17610 G2 X137 Y179.724 I-0.981 J-0.196
N17620 G1 Y23
N17630 G2 X136.992 Y22.871 I-1 J0
N17640 G1 X133.992 Y-0.129
N17650 G2 X132.777 Y-0.975 I-0.992 J0.129
N17660 G1 X97.887 Y7
N17670 X46.092
N17680 X3.183 Y-0.983
N17690 G2 X2.019 Y-0.196 I-0.183 J0.983
N17700 G1 X-0.981 Y14.804
N17710 G2 X-1 Y15 I0.981 J0.196
N17720 G1 Y171.724
N17730 G2 X-0.992 Y171.853 I1 J0
N17740 G1 X2.008 Y194.853
N17750 G2 X3.223 Y195.699 I0.992 J-0.129
N17760 G1 X38.113 Y187.724
N17770 X68
N17780 Z-4.5 F80
N17790 X89.908 F500
N17800 X132.817 Y195.707
N17810 G2 X133.981 Y194.92 I0.183 J-0.983
N17820 G1 X136.981 Y179.92
N17830 G2 X137 Y179.724 I-0.981 J-0.196
N17840 G1 Y23
N17850 G2 X136.992 Y22.871 I-1 J0
N17860 G1 X133.992 Y-0.129
N17870 G2 X132.777 Y-0.975 I-0.992 J0.129
N17880 G1 X97.887 Y7
N17890 X46.092
N17900 X3.183 Y-0.983
N17910 G2 X2.019 Y-0.196 I-0.183 J0.983
N17920 G1 X-0.981 Y14.804
N17930 G2 X-1 Y15 I0.981 J0.196
N17940 G1 Y171.724
N17950 G2 X-0.992 Y171.853 I1 J0
N17960 G1 X2.008 Y194.853
N17970 G2 X3.223 Y195.699 I0.992 J-0.129
N17980 G1 X38.113 Y187.724
N17990 X68
N18000 Z-5.7 F80
N18010 X89.908 F500
N18020 X132.817 Y195.707
N18030 G2 X133.981 Y194.92 I0.183 J-0.983
N18040 G1 X136.981 Y179.92
N18050 G2 X137 Y179.724 I-0.981 J-0.196
N18060 G1 Y23
N18070 G2 X136.992 Y22.871 I-1 J0
N18080 G1 X133.992 Y-0.129
N18090 G2 X132.777 Y-0.975 I-0.992 J0.129
N18100 G1 X97.887 Y7
N18110 X46.092
N18120 X3.183 Y-0.983
N18130 G2 X2.019 Y-0.196 I-0.183 J0.983
N18140 G1 X-0.981 Y14.804
N18150 G2 X-1 Y15 I0.981 J0.196
N18160 G1 Y171.724
N18170 G2 X-0.992 Y171.853 I1 J0
N18180 G1 X2.008 Y194.853
N18190 G2 X3.223 Y195.699 I0.992 J-0.129
N18200 G1 X38.113 Y187.724
N18210 X68
N18220 G0 Z10
N18240 Z10
N18250 X0 Y0
N18260 M30
%
