%
(1001)
(T1 D=2 CR=0 - ZMIN=-4.2 - flat end mill)
N10 G90 G94
N20 G17
N30 G21
N40 M9
N50 G0 Z10
N60 X0 Y0

(2D ??1)
N70 T1 M6
N80 S8000 M3
N90 G54
N110 G0 X82.998 Y97.558
N120 G43 Z10
N130 Z5
N140 G1 Z2.5 F80
N150 Z-1.5
N160 G3 X67.002 Y97.166 I-7.998 J-0.196 F500
N170 X82.998 Y97.558 I7.998 J0.196
N180 G1 Z-3 F80
N190 G3 X67.002 Y97.166 I-7.998 J-0.196 F500
N200 X82.998 Y97.558 I7.998 J0.196
N210 G1 Z-4.2 F80
N220 G3 X67.002 Y97.166 I-7.998 J-0.196 F500
N230 X82.998 Y97.558 I7.998 J0.196
N240 G0 Z5
N250 X65.779 Y147.579
N260 G1 Z2.5 F80
N270 Z-1.5
N280 X87 F500
N290 Y153.136
N300 X63
N310 Y147.579
N320 X65.779
N330 Z-3 F80
N340 X87 F500
N350 Y153.136
N360 X63
N370 Y147.579
N380 X65.779
N390 Z-4.2 F80
N400 X87 F500
N410 Y153.136
N420 X63
N430 Y147.579
N440 X65.779
N450 G0 Z5
N460 X83 Y167.724
N470 G1 Z2.5 F80
N480 Z-1.5
N490 G3 X67 I-8 J0 F500
N500 X83 I8 J0
N510 G1 Z-3 F80
N520 G3 X67 I-8 J0 F500
N530 X83 I8 J0
N540 G1 Z-4.2 F80
N550 G3 X67 I-8 J0 F500
N560 X83 I8 J0
N570 G0 Z5
N580 X89.15 Y186.749
N590 G1 Z2.5 F80
N600 Z-1.5
N610 G3 X86.85 Y186.693 I-1.15 J-0.028 F500
N620 X89.15 Y186.749 I1.15 J0.028
N630 G1 Z-3 F80
N640 G3 X86.85 Y186.693 I-1.15 J-0.028 F500
N650 X89.15 Y186.749 I1.15 J0.028
N660 G1 Z-4.2 F80
N670 G3 X86.85 Y186.693 I-1.15 J-0.028 F500
N680 X89.15 Y186.749 I1.15 J0.028
N690 G0 Z5
N700 X103.15 Y186.724
N710 G1 Z2.5 F80
N720 Z-1.5
N730 G3 X100.85 I-1.15 J0 F500
N740 X103.15 I1.15 J0
N750 G1 Z-3 F80
N760 G3 X100.85 I-1.15 J0 F500
N770 X103.15 I1.15 J0
N780 G1 Z-4.2 F80
N790 G3 X100.85 I-1.15 J0 F500
N800 X103.15 I1.15 J0
N810 G0 Z5
N820 X144.576 Y175.822
N830 G1 Z2.5 F80
N840 Z-1.5
N850 Y178.532 F500
N860 X133.833
N870 Y173.111
N880 X144.576
N890 Y175.822
N900 Z-3 F80
N910 Y178.532 F500
N920 X133.833
N930 Y173.111
N940 X144.576
N950 Y175.822
N960 Z-4.2 F80
N970 Y178.532 F500
N980 X133.833
N990 Y173.111
N1000 X144.576
N1010 Y175.822
N1020 G0 Z5
N1030 X63.15 Y186.749
N1040 G1 Z2.5 F80
N1050 Z-1.5
N1060 G3 X60.85 Y186.693 I-1.15 J-0.028 F500
N1070 X63.15 Y186.749 I1.15 J0.028
N1080 G1 Z-3 F80
N1090 G3 X60.85 Y186.693 I-1.15 J-0.028 F500
N1100 X63.15 Y186.749 I1.15 J0.028
N1110 G1 Z-4.2 F80
N1120 G3 X60.85 Y186.693 I-1.15 J-0.028 F500
N1130 X63.15 Y186.749 I1.15 J0.028
N1140 G0 Z5
N1150 X49.15 Y186.724
N1160 G1 Z2.5 F80
N1170 Z-1.5
N1180 G3 X46.85 I-1.15 J0 F500
N1190 X49.15 I1.15 J0
N1200 G1 Z-3 F80
N1210 G3 X46.85 I-1.15 J0 F500
N1220 X49.15 I1.15 J0
N1230 G1 Z-4.2 F80
N1240 G3 X46.85 I-1.15 J0 F500
N1250 X49.15 I1.15 J0
N1260 G0 Z5
N1270 X27.686 Y141.491
N1280 G1 Z2.5 F80
N1290 Z-1.5
N1300 X37.64 F500
N1310 Y147.491
N1320 X24.686
N1330 Y141.491
N1340 X27.686
N1350 Z-3 F80
N1360 X37.64 F500
N1370 Y147.491
N1380 X24.686
N1390 Y141.491
N1400 X27.686
N1410 Z-4.2 F80
N1420 X37.64 F500
N1430 Y147.491
N1440 X24.686
N1450 Y141.491
N1460 X27.686
N1470 G0 Z5
N1480 X59.152 Y21.07
N1490 G1 Z2.5 F80
N1500 Z-1.5
N1510 X118.342 F500
N1520 Y32.908
N1530 X53.233
N1540 Y21.07
N1550 X59.152
N1560 Z-3 F80
N1570 X118.342 F500
N1580 Y32.908
N1590 X53.233
N1600 Y21.07
N1610 X59.152
N1620 Z-4.2 F80
N1630 X118.342 F500
N1640 Y32.908
N1650 X53.233
N1660 Y21.07
N1670 X59.152
N1680 G0 Z5
N1690 X63.15 Y8.028
N1700 G1 Z2.5 F80
N1710 Z-1.5
N1720 G3 X60.85 Y7.972 I-1.15 J-0.028 F500
N1730 X63.15 Y8.028 I1.15 J0.028
N1740 G1 Z-3 F80
N1750 G3 X60.85 Y7.972 I-1.15 J-0.028 F500
N1760 X63.15 Y8.028 I1.15 J0.028
N1770 G1 Z-4.2 F80
N1780 G3 X60.85 Y7.972 I-1.15 J-0.028 F500
N1790 X63.15 Y8.028 I1.15 J0.028
N1800 G0 Z5
N1810 X49.15 Y8
N1820 G1 Z2.5 F80
N1830 Z-1.5
N1840 G3 X46.85 I-1.15 J0 F500
N1850 X49.15 I1.15 J0
N1860 G1 Z-3 F80
N1870 G3 X46.85 I-1.15 J0 F500
N1880 X49.15 I1.15 J0
N1890 G1 Z-4.2 F80
N1900 G3 X46.85 I-1.15 J0 F500
N1910 X49.15 I1.15 J0
N1920 G0 Z5
N1930 X89.15 Y8.028
N1940 G1 Z2.5 F80
N1950 Z-1.5
N1960 G3 X86.85 Y7.972 I-1.15 J-0.028 F500
N1970 X89.15 Y8.028 I1.15 J0.028
N1980 G1 Z-3 F80
N1990 G3 X86.85 Y7.972 I-1.15 J-0.028 F500
N2000 X89.15 Y8.028 I1.15 J0.028
N2010 G1 Z-4.2 F80
N2020 G3 X86.85 Y7.972 I-1.15 J-0.028 F500
N2030 X89.15 Y8.028 I1.15 J0.028
N2040 G0 Z5
N2050 X103.15 Y8
N2060 G1 Z2.5 F80
N2070 Z-1.5
N2080 G3 X100.85 I-1.15 J0 F500
N2090 X103.15 I1.15 J0
N2100 G1 Z-3 F80
N2110 G3 X100.85 I-1.15 J0 F500
N2120 X103.15 I1.15 J0
N2130 G1 Z-4.2 F80
N2140 G3 X100.85 I-1.15 J0 F500
N2150 X103.15 I1.15 J0
N2160 G0 Z10

(2D ??2)
N2180 X75 Y195.724
N2190 Z10
N2200 Z5
N2210 G1 Z2.5 F80
N2220 Z-1.5
N2230 X150 F500
N2240 G2 X151 Y194.724 I0 J-1
N2250 G1 Y0
N2260 G2 X150 Y-1 I-1 J0
N2270 G1 X0
N2280 G2 X-1 Y0 I0 J1
N2290 G1 Y194.724
N2300 G2 X0 Y195.724 I1 J0
N2310 G1 X75
N2320 Z-3 F80
N2330 X150 F500
N2340 G2 X151 Y194.724 I0 J-1
N2350 G1 Y0
N2360 G2 X150 Y-1 I-1 J0
N2370 G1 X0
N2380 G2 X-1 Y0 I0 J1
N2390 G1 Y194.724
N2400 G2 X0 Y195.724 I1 J0
N2410 G1 X75
N2420 Z-4.2 F80
N2430 X150 F500
N2440 G2 X151 Y194.724 I0 J-1
N2450 G1 Y0
N2460 G2 X150 Y-1 I-1 J0
N2470 G1 X0
N2480 G2 X-1 Y0 I0 J1
N2490 G1 Y194.724
N2500 G2 X0 Y195.724 I1 J0
N2510 G1 X75
N2520 G0 Z10
N2540 Z10
N2550 X0 Y0
N2560 M30
%
