%
(1001)
(T1 D=2 CR=0 - ZMIN=-5.7 - flat end mill)
N10 G90 G94
N20 G17
N30 G21
N40 M9
N50 G0 Z10
N60 X0 Y0

(2D ??1)
N70 T1 M6
N80 S8000 M3
N90 G54
N110 G0 X64.51 Y37.256
N120 G43 Z10
N130 Z5
N140 G1 Z2.5 F80
N150 Z-1.5
N160 G3 X57.21 I-3.65 J0 F500
N170 X64.51 I3.65 J0
N180 G1 Z-3 F80
N190 G3 X57.21 I-3.65 J0 F500
N200 X64.51 I3.65 J0
N210 G1 Z-4.5 F80
N220 G3 X57.21 I-3.65 J0 F500
N230 X64.51 I3.65 J0
N240 G1 Z-5.7 F80
N250 G3 X57.21 I-3.65 J0 F500
N260 X64.51 I3.65 J0
N270 G0 Z5
N280 X78.96 Y45.29
N290 G1 Z2.5 F80
N300 Z-1.5
N310 G3 X77.76 I-0.6 J0 F500
N320 X78.96 I0.6 J0
N330 G1 Z-3 F80
N340 G3 X77.76 I-0.6 J0 F500
N350 X78.96 I0.6 J0
N360 G1 Z-4.5 F80
N370 G3 X77.76 I-0.6 J0 F500
N380 X78.96 I0.6 J0
N390 G1 Z-5.7 F80
N400 G3 X77.76 I-0.6 J0 F500
N410 X78.96 I0.6 J0
N420 G0 Z5
N430 X43.96 Y45.305
N440 G1 Z2.5 F80
N450 Z-1.5
N460 G3 X42.76 Y45.275 I-0.6 J-0.015 F500
N470 X43.96 Y45.29 I0.6 J0.015
N480 Y45.305 I-0.6 J0
N490 G1 Z-3 F80
N500 G3 X42.76 Y45.275 I-0.6 J-0.015 F500
N510 X43.96 Y45.29 I0.6 J0.015
N520 Y45.305 I-0.6 J0
N530 G1 Z-4.5 F80
N540 G3 X42.76 Y45.275 I-0.6 J-0.015 F500
N550 X43.96 Y45.29 I0.6 J0.015
N560 Y45.305 I-0.6 J0
N570 G1 Z-5.7 F80
N580 G3 X42.76 Y45.275 I-0.6 J-0.015 F500
N590 X43.96 Y45.29 I0.6 J0.015
N600 Y45.305 I-0.6 J0
N610 G0 Z5
N620 X4.46 Y63.997
N630 G1 Z2.5 F80
N640 Z-1.5
N650 G3 X3.26 Y63.967 I-0.6 J-0.015 F500
N660 X4.46 Y63.997 I0.6 J0.015
N670 G1 Z-3 F80
N680 G3 X3.26 Y63.967 I-0.6 J-0.015 F500
N690 X4.46 Y63.997 I0.6 J0.015
N700 G1 Z-4.5 F80
N710 G3 X3.26 Y63.967 I-0.6 J-0.015 F500
N720 X4.46 Y63.997 I0.6 J0.015
N730 G1 Z-5.7 F80
N740 G3 X3.26 Y63.967 I-0.6 J-0.015 F500
N750 X4.46 Y63.997 I0.6 J0.015
N760 G0 Z5
N770 X14.756 Y4.982
N780 G1 Z2.5 F80
N790 Z-1.5
N800 G3 X13.556 I-0.6 J0 F500
N810 X14.756 I0.6 J0
N820 G1 Z-3 F80
N830 G3 X13.556 I-0.6 J0 F500
N840 X14.756 I0.6 J0
N850 G1 Z-4.5 F80
N860 G3 X13.556 I-0.6 J0 F500
N870 X14.756 I0.6 J0
N880 G1 Z-5.7 F80
N890 G3 X13.556 I-0.6 J0 F500
N900 X14.756 I0.6 J0
N910 G0 Z5
N920 X108.164
N930 G1 Z2.5 F80
N940 Z-1.5
N950 G3 X106.964 I-0.6 J0 F500
N960 X108.164 I0.6 J0
N970 G1 Z-3 F80
N980 G3 X106.964 I-0.6 J0 F500
N990 X108.164 I0.6 J0
N1000 G1 Z-4.5 F80
N1010 G3 X106.964 I-0.6 J0 F500
N1020 X108.164 I0.6 J0
N1030 G1 Z-5.7 F80
N1040 G3 X106.964 I-0.6 J0 F500
N1050 X108.164 I0.6 J0
N1060 G0 Z5
N1070 X118.46 Y63.982
N1080 G1 Z2.5 F80
N1090 Z-1.5
N1100 G3 X117.26 I-0.6 J0 F500
N1110 X118.46 I0.6 J0
N1120 G1 Z-3 F80
N1130 G3 X117.26 I-0.6 J0 F500
N1140 X118.46 I0.6 J0
N1150 G1 Z-4.5 F80
N1160 G3 X117.26 I-0.6 J0 F500
N1170 X118.46 I0.6 J0
N1180 G1 Z-5.7 F80
N1190 G3 X117.26 I-0.6 J0 F500
N1200 X118.46 I0.6 J0
N1210 G0 Z10

(2D ??2)
N1230 X-0.932 Y61.953
N1240 Z10
N1250 Z5
N1260 G1 Z2.5 F80
N1270 Z-1.5
N1280 G2 X-1 Y62.587 I2.932 J0.634 F500
N1290 G1 Y64.877
N1300 G2 X0.5 Y67.475 I3 J0
N1310 G1 X3.253 Y69.065
N1320 G2 X3.986 Y69.367 I1.5 J-2.598
N1330 X117.982 I56.998 J-215.38
N1340 X118.714 Y69.065 I-0.768 J-2.9
N1350 G1 X121.467 Y67.475
N1360 G2 X122.967 Y64.877 I-1.5 J-2.598
N1370 G1 Y62.587
N1380 G2 X121.467 Y59.989 I-3 J0
N1390 G1 X119.146 Y58.648
N1400 G2 X117.072 Y58.302 I-1.5 J2.598
N1410 G3 X89.755 Y44.844 I-4.815 J-24.679
N1420 G1 X89.754 Y44.842
N1430 X80.086 Y25.555
N1440 G3 X80.466 Y24.249 I0.894 J-0.448
N1450 G2 X80.532 Y24.206 I-0.514 J-0.858
N1460 G3 X109.419 Y10.667 I51.602 J72.514
N1470 G2 X109.485 Y10.647 I-0.255 J-0.967
N1480 X112.869 Y2.217 I-1.921 J-5.665
N1490 X104.065 Y0.13 I-5.305 J2.765
N1500 G3 X17.655 I-43.205 J-74.245
N1510 G2 X8.851 Y2.218 I-3.498 J4.852
N1520 X12.235 Y10.647 I5.305 J2.764
N1530 X12.302 Y10.667 I0.321 J-0.947
N1540 G3 X41.209 Y24.201 I-22.671 J86.064
N1550 G2 X41.268 Y24.239 I0.58 J-0.815
N1560 G3 X41.641 Y25.541 I-0.521 J0.854
N1570 G1 X31.966 Y44.842
N1580 G3 X4.88 Y58.292 I-22.478 J-11.268
N1590 G2 X2.83 Y58.643 I-0.55 J2.949
N1600 G1 X0.5 Y59.989
N1610 G2 X-0.932 Y61.953 I1.5 J2.598
N1620 G1 Z-3 F80
N1630 G2 X-1 Y62.587 I2.932 J0.634 F500
N1640 G1 Y64.877
N1650 G2 X0.5 Y67.475 I3 J0
N1660 G1 X3.253 Y69.065
N1670 G2 X3.986 Y69.367 I1.5 J-2.598
N1680 X117.982 I56.998 J-215.38
N1690 X118.714 Y69.065 I-0.768 J-2.9
N1700 G1 X121.467 Y67.475
N1710 G2 X122.967 Y64.877 I-1.5 J-2.598
N1720 G1 Y62.587
N1730 G2 X121.467 Y59.989 I-3 J0
N1740 G1 X119.146 Y58.648
N1750 G2 X117.072 Y58.302 I-1.5 J2.598
N1760 G3 X89.755 Y44.844 I-4.815 J-24.679
N1770 G1 X89.754 Y44.842
N1780 X80.086 Y25.555
N1790 G3 X80.466 Y24.249 I0.894 J-0.448
N1800 G2 X80.532 Y24.206 I-0.514 J-0.858
N1810 G3 X109.419 Y10.667 I51.602 J72.514
N1820 G2 X109.485 Y10.647 I-0.255 J-0.967
N1830 X112.869 Y2.217 I-1.921 J-5.665
N1840 X104.065 Y0.13 I-5.305 J2.765
N1850 G3 X17.655 I-43.205 J-74.245
N1860 G2 X8.851 Y2.218 I-3.498 J4.852
N1870 X12.235 Y10.647 I5.305 J2.764
N1880 X12.302 Y10.667 I0.321 J-0.947
N1890 G3 X41.209 Y24.201 I-22.671 J86.064
N1900 G2 X41.268 Y24.239 I0.58 J-0.815
N1910 G3 X41.641 Y25.541 I-0.521 J0.854
N1920 G1 X31.966 Y44.842
N1930 G3 X4.88 Y58.292 I-22.478 J-11.268
N1940 G2 X2.83 Y58.643 I-0.55 J2.949
N1950 G1 X0.5 Y59.989
N1960 G2 X-0.932 Y61.953 I1.5 J2.598
N1970 G1 Z-4.5 F80
N1980 G2 X-1 Y62.587 I2.932 J0.634 F500
N1990 G1 Y64.877
N2000 G2 X0.5 Y67.475 I3 J0
N2010 G1 X3.253 Y69.065
N2020 G2 X3.986 Y69.367 I1.5 J-2.598
N2030 X117.982 I56.998 J-215.38
N2040 X118.714 Y69.065 I-0.768 J-2.9
N2050 G1 X121.467 Y67.475
N2060 G2 X122.967 Y64.877 I-1.5 J-2.598
N2070 G1 Y62.587
N2080 G2 X121.467 Y59.989 I-3 J0
N2090 G1 X119.146 Y58.648
N2100 G2 X117.072 Y58.302 I-1.5 J2.598
N2110 G3 X89.755 Y44.844 I-4.815 J-24.679
N2120 G1 X89.754 Y44.842
N2130 X80.086 Y25.555
N2140 G3 X80.466 Y24.249 I0.894 J-0.448
N2150 G2 X80.532 Y24.206 I-0.514 J-0.858
N2160 G3 X109.419 Y10.667 I51.602 J72.514
N2170 G2 X109.485 Y10.647 I-0.255 J-0.967
N2180 X112.869 Y2.217 I-1.921 J-5.665
N2190 X104.065 Y0.13 I-5.305 J2.765
N2200 G3 X17.655 I-43.205 J-74.245
N2210 G2 X8.851 Y2.218 I-3.498 J4.852
N2220 X12.235 Y10.647 I5.305 J2.764
N2230 X12.302 Y10.667 I0.321 J-0.947
N2240 G3 X41.209 Y24.201 I-22.671 J86.064
N2250 G2 X41.268 Y24.239 I0.58 J-0.815
N2260 G3 X41.641 Y25.541 I-0.521 J0.854
N2270 G1 X31.966 Y44.842
N2280 G3 X4.88 Y58.292 I-22.478 J-11.268
N2290 G2 X2.83 Y58.643 I-0.55 J2.949
N2300 G1 X0.5 Y59.989
N2310 G2 X-0.932 Y61.953 I1.5 J2.598
N2320 G1 Z-5.7 F80
N2330 G2 X-1 Y62.587 I2.932 J0.634 F500
N2340 G1 Y64.877
N2350 G2 X0.5 Y67.475 I3 J0
N2360 G1 X3.253 Y69.065
N2370 G2 X3.986 Y69.367 I1.5 J-2.598
N2380 X117.982 I56.998 J-215.38
N2390 X118.714 Y69.065 I-0.768 J-2.9
N2400 G1 X121.467 Y67.475
N2410 G2 X122.967 Y64.877 I-1.5 J-2.598
N2420 G1 Y62.587
N2430 G2 X121.467 Y59.989 I-3 J0
N2440 G1 X119.146 Y58.648
N2450 G2 X117.072 Y58.302 I-1.5 J2.598
N2460 G3 X89.755 Y44.844 I-4.815 J-24.679
N2470 G1 X89.754 Y44.842
N2480 X80.086 Y25.555
N2490 G3 X80.466 Y24.249 I0.894 J-0.448
N2500 G2 X80.532 Y24.206 I-0.514 J-0.858
N2510 G3 X109.419 Y10.667 I51.602 J72.514
N2520 G2 X109.485 Y10.647 I-0.255 J-0.967
N2530 X112.869 Y2.217 I-1.921 J-5.665
N2540 X104.065 Y0.13 I-5.305 J2.765
N2550 G3 X17.655 I-43.205 J-74.245
N2560 G2 X8.851 Y2.218 I-3.498 J4.852
N2570 X12.235 Y10.647 I5.305 J2.764
N2580 X12.302 Y10.667 I0.321 J-0.947
N2590 G3 X41.209 Y24.201 I-22.671 J86.064
N2600 G2 X41.268 Y24.239 I0.58 J-0.815
N2610 G3 X41.641 Y25.541 I-0.521 J0.854
N2620 G1 X31.966 Y44.842
N2630 G3 X4.88 Y58.292 I-22.478 J-11.268
N2640 G2 X2.83 Y58.643 I-0.55 J2.949
N2650 G1 X0.5 Y59.989
N2660 G2 X-0.932 Y61.953 I1.5 J2.598
N2670 G0 Z10
N2690 Z10
N2700 X0 Y0
N2710 M30
%
