%
(1001)
(T1 D=2 CR=0 - ZMIN=-2.21 - flat end mill)
N10 G90 G94
N20 G17
N30 G21
N40 M9
N50 G0 Z10
N60 X0 Y0

(2D ??1)
N70 T1 M6
N80 S8000 M3
N90 G54
N110 G0 X16 Y15.51
N120 G43 Z10
N130 Z5
N140 G1 Z1.1 F80
N150 Z-0.1
N160 X14 F500
N170 G2 X13.562 Y15.612 I0 J0.99
N180 X13.534 Y15.36 I-0.99 J-0.016
N190 G3 X13.579 Y14.49 I1.466 J-0.36
N200 G1 X16
N210 G2 X16.438 Y14.388 I0 J-0.99
N220 X16.466 Y14.64 I0.99 J0.016
N230 G3 X16.421 Y15.51 I-1.466 J0.36
N240 G1 X16
N250 Z-0.2 F80
N260 X14 F500
N270 G2 X13.562 Y15.612 I0 J0.99
N280 X13.534 Y15.36 I-0.99 J-0.016
N290 G3 X13.579 Y14.49 I1.466 J-0.36
N300 G1 X16
N310 G2 X16.438 Y14.388 I0 J-0.99
N320 X16.466 Y14.64 I0.99 J0.016
N330 G3 X16.421 Y15.51 I-1.466 J0.36
N340 G1 X16
N350 Z-0.3 F80
N360 X14 F500
N370 G2 X13.562 Y15.612 I0 J0.99
N380 X13.534 Y15.36 I-0.99 J-0.016
N390 G3 X13.579 Y14.49 I1.466 J-0.36
N400 G1 X16
N410 G2 X16.438 Y14.388 I0 J-0.99
N420 X16.466 Y14.64 I0.99 J0.016
N430 G3 X16.421 Y15.51 I-1.466 J0.36
N440 G1 X16
N450 Z-0.4 F80
N460 X14 F500
N470 G2 X13.562 Y15.612 I0 J0.99
N480 X13.534 Y15.36 I-0.99 J-0.016
N490 G3 X13.579 Y14.49 I1.466 J-0.36
N500 G1 X16
N510 G2 X16.438 Y14.388 I0 J-0.99
N520 X16.466 Y14.64 I0.99 J0.016
N530 G3 X16.421 Y15.51 I-1.466 J0.36
N540 G1 X16
N550 Z-0.5 F80
N560 X14 F500
N570 G2 X13.562 Y15.612 I0 J0.99
N580 X13.534 Y15.36 I-0.99 J-0.016
N590 G3 X13.579 Y14.49 I1.466 J-0.36
N600 G1 X16
N610 G2 X16.438 Y14.388 I0 J-0.99
N620 X16.466 Y14.64 I0.99 J0.016
N630 G3 X16.421 Y15.51 I-1.466 J0.36
N640 G1 X16
N650 Z-0.6 F80
N660 X14 F500
N670 G2 X13.562 Y15.612 I0 J0.99
N680 X13.534 Y15.36 I-0.99 J-0.016
N690 G3 X13.579 Y14.49 I1.466 J-0.36
N700 G1 X16
N710 G2 X16.438 Y14.388 I0 J-0.99
N720 X16.466 Y14.64 I0.99 J0.016
N730 G3 X16.421 Y15.51 I-1.466 J0.36
N740 G1 X16
N750 Z-0.7 F80
N760 X14 F500
N770 G2 X13.562 Y15.612 I0 J0.99
N780 X13.534 Y15.36 I-0.99 J-0.016
N790 G3 X13.579 Y14.49 I1.466 J-0.36
N800 G1 X16
N810 G2 X16.438 Y14.388 I0 J-0.99
N820 X16.466 Y14.64 I0.99 J0.016
N830 G3 X16.421 Y15.51 I-1.466 J0.36
N840 G1 X16
N850 Z-0.8 F80
N860 X14 F500
N870 G2 X13.562 Y15.612 I0 J0.99
N880 X13.534 Y15.36 I-0.99 J-0.016
N890 G3 X13.579 Y14.49 I1.466 J-0.36
N900 G1 X16
N910 G2 X16.438 Y14.388 I0 J-0.99
N920 X16.466 Y14.64 I0.99 J0.016
N930 G3 X16.421 Y15.51 I-1.466 J0.36
N940 G1 X16
N950 Z-0.9 F80
N960 X14 F500
N970 G2 X13.562 Y15.612 I0 J0.99
N980 X13.534 Y15.36 I-0.99 J-0.016
N990 G3 X13.579 Y14.49 I1.466 J-0.36
N1000 G1 X16
N1010 G2 X16.438 Y14.388 I0 J-0.99
N1020 X16.466 Y14.64 I0.99 J0.016
N1030 G3 X16.421 Y15.51 I-1.466 J0.36
N1040 G1 X16
N1050 Z-1 F80
N1060 X14 F500
N1070 G2 X13.562 Y15.612 I0 J0.99
N1080 X13.534 Y15.36 I-0.99 J-0.016
N1090 G3 X13.579 Y14.49 I1.466 J-0.36
N1100 G1 X16
N1110 G2 X16.438 Y14.388 I0 J-0.99
N1120 X16.466 Y14.64 I0.99 J0.016
N1130 G3 X16.421 Y15.51 I-1.466 J0.36
N1140 G1 X16
N1150 Z-1.1 F80
N1160 X14 F500
N1170 G2 X13.562 Y15.612 I0 J0.99
N1180 X13.534 Y15.36 I-0.99 J-0.016
N1190 G3 X13.579 Y14.49 I1.466 J-0.36
N1200 G1 X16
N1210 G2 X16.438 Y14.388 I0 J-0.99
N1220 X16.466 Y14.64 I0.99 J0.016
N1230 G3 X16.421 Y15.51 I-1.466 J0.36
N1240 G1 X16
N1250 Z-1.2 F80
N1260 X14 F500
N1270 G2 X13.562 Y15.612 I0 J0.99
N1280 X13.534 Y15.36 I-0.99 J-0.016
N1290 G3 X13.579 Y14.49 I1.466 J-0.36
N1300 G1 X16
N1310 G2 X16.438 Y14.388 I0 J-0.99
N1320 X16.466 Y14.64 I0.99 J0.016
N1330 G3 X16.421 Y15.51 I-1.466 J0.36
N1340 G1 X16
N1350 Z-1.3 F80
N1360 X14 F500
N1370 G2 X13.562 Y15.612 I0 J0.99
N1380 X13.534 Y15.36 I-0.99 J-0.016
N1390 G3 X13.579 Y14.49 I1.466 J-0.36
N1400 G1 X16
N1410 G2 X16.438 Y14.388 I0 J-0.99
N1420 X16.466 Y14.64 I0.99 J0.016
N1430 G3 X16.421 Y15.51 I-1.466 J0.36
N1440 G1 X16
N1450 Z-1.4 F80
N1460 X14 F500
N1470 G2 X13.562 Y15.612 I0 J0.99
N1480 X13.534 Y15.36 I-0.99 J-0.016
N1490 G3 X13.579 Y14.49 I1.466 J-0.36
N1500 G1 X16
N1510 G2 X16.438 Y14.388 I0 J-0.99
N1520 X16.466 Y14.64 I0.99 J0.016
N1530 G3 X16.421 Y15.51 I-1.466 J0.36
N1540 G1 X16
N1550 Z-1.5 F80
N1560 X14 F500
N1570 G2 X13.562 Y15.612 I0 J0.99
N1580 X13.534 Y15.36 I-0.99 J-0.016
N1590 G3 X13.579 Y14.49 I1.466 J-0.36
N1600 G1 X16
N1610 G2 X16.438 Y14.388 I0 J-0.99
N1620 X16.466 Y14.64 I0.99 J0.016
N1630 G3 X16.421 Y15.51 I-1.466 J0.36
N1640 G1 X16
N1650 Z-1.6 F80
N1660 X14 F500
N1670 G2 X13.562 Y15.612 I0 J0.99
N1680 X13.534 Y15.36 I-0.99 J-0.016
N1690 G3 X13.579 Y14.49 I1.466 J-0.36
N1700 G1 X16
N1710 G2 X16.438 Y14.388 I0 J-0.99
N1720 X16.466 Y14.64 I0.99 J0.016
N1730 G3 X16.421 Y15.51 I-1.466 J0.36
N1740 G1 X16
N1750 Z-1.7 F80
N1760 X14 F500
N1770 G2 X13.562 Y15.612 I0 J0.99
N1780 X13.534 Y15.36 I-0.99 J-0.016
N1790 G3 X13.579 Y14.49 I1.466 J-0.36
N1800 G1 X16
N1810 G2 X16.438 Y14.388 I0 J-0.99
N1820 X16.466 Y14.64 I0.99 J0.016
N1830 G3 X16.421 Y15.51 I-1.466 J0.36
N1840 G1 X16
N1850 Z-1.8 F80
N1860 X14 F500
N1870 G2 X13.562 Y15.612 I0 J0.99
N1880 X13.534 Y15.36 I-0.99 J-0.016
N1890 G3 X13.579 Y14.49 I1.466 J-0.36
N1900 G1 X16
N1910 G2 X16.438 Y14.388 I0 J-0.99
N1920 X16.466 Y14.64 I0.99 J0.016
N1930 G3 X16.421 Y15.51 I-1.466 J0.36
N1940 G1 X16
N1950 Z-1.9 F80
N1960 X14 F500
N1970 G2 X13.562 Y15.612 I0 J0.99
N1980 X13.534 Y15.36 I-0.99 J-0.016
N1990 G3 X13.579 Y14.49 I1.466 J-0.36
N2000 G1 X16
N2010 G2 X16.438 Y14.388 I0 J-0.99
N2020 X16.466 Y14.64 I0.99 J0.016
N2030 G3 X16.421 Y15.51 I-1.466 J0.36
N2040 G1 X16
N2050 Z-2 F80
N2060 X14 F500
N2070 G2 X13.562 Y15.612 I0 J0.99
N2080 X13.534 Y15.36 I-0.99 J-0.016
N2090 G3 X13.579 Y14.49 I1.466 J-0.36
N2100 G1 X16
N2110 G2 X16.438 Y14.388 I0 J-0.99
N2120 X16.466 Y14.64 I0.99 J0.016
N2130 G3 X16.421 Y15.51 I-1.466 J0.36
N2140 G1 X16
N2150 Z-2.1 F80
N2160 X14 F500
N2170 G2 X13.562 Y15.612 I0 J0.99
N2180 X13.534 Y15.36 I-0.99 J-0.016
N2190 G3 X13.579 Y14.49 I1.466 J-0.36
N2200 G1 X16
N2210 G2 X16.438 Y14.388 I0 J-0.99
N2220 X16.466 Y14.64 I0.99 J0.016
N2230 G3 X16.421 Y15.51 I-1.466 J0.36
N2240 G1 X16
N2250 Z-2.155 F80
N2260 X14 F500
N2270 G2 X13.562 Y15.612 I0 J0.99
N2280 X13.534 Y15.36 I-0.99 J-0.016
N2290 G3 X13.579 Y14.49 I1.466 J-0.36
N2300 G1 X16
N2310 G2 X16.438 Y14.388 I0 J-0.99
N2320 X16.466 Y14.64 I0.99 J0.016
N2330 G3 X16.421 Y15.51 I-1.466 J0.36
N2340 G1 X16
N2350 Z-2.21 F80
N2360 X14 F500
N2370 G2 X13.562 Y15.612 I0 J0.99
N2380 X13.534 Y15.36 I-0.99 J-0.016
N2390 G3 X13.579 Y14.49 I1.466 J-0.36
N2400 G1 X16
N2410 G2 X16.438 Y14.388 I0 J-0.99
N2420 X16.466 Y14.64 I0.99 J0.016
N2430 G3 X16.421 Y15.51 I-1.466 J0.36
N2440 G1 X16
N2450 G0 Z5
N2460 X17.006 Y13.492
N2470 G1 Z1.1 F80
N2480 Z-0.1
N2490 X17.01 Y13.501 F500
N2500 X17.004 Y13.509
N2510 G2 X16.99 Y13.516 I0.424 J0.895
N2520 Y13.5 I-0.99 J-0.016
N2530 G1 X16.995 Y13.491
N2540 X17.006 Y13.492
N2550 Z-0.2 F80
N2560 X17.01 Y13.501 F500
N2570 X17.004 Y13.509
N2580 G2 X16.99 Y13.516 I0.424 J0.895
N2590 Y13.5 I-0.99 J-0.016
N2600 G1 X16.995 Y13.491
N2610 X17.006 Y13.492
N2620 Z-0.3 F80
N2630 X17.01 Y13.501 F500
N2640 X17.004 Y13.509
N2650 G2 X16.99 Y13.516 I0.424 J0.895
N2660 Y13.5 I-0.99 J-0.016
N2670 G1 X16.995 Y13.491
N2680 X17.006 Y13.492
N2690 Z-0.4 F80
N2700 X17.01 Y13.501 F500
N2710 X17.004 Y13.509
N2720 G2 X16.99 Y13.516 I0.424 J0.895
N2730 Y13.5 I-0.99 J-0.016
N2740 G1 X16.995 Y13.491
N2750 X17.006 Y13.492
N2760 Z-0.5 F80
N2770 X17.01 Y13.501 F500
N2780 X17.004 Y13.509
N2790 G2 X16.99 Y13.516 I0.424 J0.895
N2800 Y13.5 I-0.99 J-0.016
N2810 G1 X16.995 Y13.491
N2820 X17.006 Y13.492
N2830 Z-0.6 F80
N2840 X17.01 Y13.501 F500
N2850 X17.004 Y13.509
N2860 G2 X16.99 Y13.516 I0.424 J0.895
N2870 Y13.5 I-0.99 J-0.016
N2880 G1 X16.995 Y13.491
N2890 X17.006 Y13.492
N2900 Z-0.7 F80
N2910 X17.01 Y13.501 F500
N2920 X17.004 Y13.509
N2930 G2 X16.99 Y13.516 I0.424 J0.895
N2940 Y13.5 I-0.99 J-0.016
N2950 G1 X16.995 Y13.491
N2960 X17.006 Y13.492
N2970 Z-0.8 F80
N2980 X17.01 Y13.501 F500
N2990 X17.004 Y13.509
N3000 G2 X16.99 Y13.516 I0.424 J0.895
N3010 Y13.5 I-0.99 J-0.016
N3020 G1 X16.995 Y13.491
N3030 X17.006 Y13.492
N3040 Z-0.9 F80
N3050 X17.01 Y13.501 F500
N3060 X17.004 Y13.509
N3070 G2 X16.99 Y13.516 I0.424 J0.895
N3080 Y13.5 I-0.99 J-0.016
N3090 G1 X16.995 Y13.491
N3100 X17.006 Y13.492
N3110 Z-1 F80
N3120 X17.01 Y13.501 F500
N3130 X17.004 Y13.509
N3140 G2 X16.99 Y13.516 I0.424 J0.895
N3150 Y13.5 I-0.99 J-0.016
N3160 G1 X16.995 Y13.491
N3170 X17.006 Y13.492
N3180 Z-1.1 F80
N3190 X17.01 Y13.501 F500
N3200 X17.004 Y13.509
N3210 G2 X16.99 Y13.516 I0.424 J0.895
N3220 Y13.5 I-0.99 J-0.016
N3230 G1 X16.995 Y13.491
N3240 X17.006 Y13.492
N3250 Z-1.2 F80
N3260 X17.01 Y13.501 F500
N3270 X17.004 Y13.509
N3280 G2 X16.99 Y13.516 I0.424 J0.895
N3290 Y13.5 I-0.99 J-0.016
N3300 G1 X16.995 Y13.491
N3310 X17.006 Y13.492
N3320 Z-1.3 F80
N3330 X17.01 Y13.501 F500
N3340 X17.004 Y13.509
N3350 G2 X16.99 Y13.516 I0.424 J0.895
N3360 Y13.5 I-0.99 J-0.016
N3370 G1 X16.995 Y13.491
N3380 X17.006 Y13.492
N3390 Z-1.4 F80
N3400 X17.01 Y13.501 F500
N3410 X17.004 Y13.509
N3420 G2 X16.99 Y13.516 I0.424 J0.895
N3430 Y13.5 I-0.99 J-0.016
N3440 G1 X16.995 Y13.491
N3450 X17.006 Y13.492
N3460 Z-1.5 F80
N3470 X17.01 Y13.501 F500
N3480 X17.004 Y13.509
N3490 G2 X16.99 Y13.516 I0.424 J0.895
N3500 Y13.5 I-0.99 J-0.016
N3510 G1 X16.995 Y13.491
N3520 X17.006 Y13.492
N3530 Z-1.6 F80
N3540 X17.01 Y13.501 F500
N3550 X17.004 Y13.509
N3560 G2 X16.99 Y13.516 I0.424 J0.895
N3570 Y13.5 I-0.99 J-0.016
N3580 G1 X16.995 Y13.491
N3590 X17.006 Y13.492
N3600 Z-1.7 F80
N3610 X17.01 Y13.501 F500
N3620 X17.004 Y13.509
N3630 G2 X16.99 Y13.516 I0.424 J0.895
N3640 Y13.5 I-0.99 J-0.016
N3650 G1 X16.995 Y13.491
N3660 X17.006 Y13.492
N3670 Z-1.8 F80
N3680 X17.01 Y13.501 F500
N3690 X17.004 Y13.509
N3700 G2 X16.99 Y13.516 I0.424 J0.895
N3710 Y13.5 I-0.99 J-0.016
N3720 G1 X16.995 Y13.491
N3730 X17.006 Y13.492
N3740 Z-1.9 F80
N3750 X17.01 Y13.501 F500
N3760 X17.004 Y13.509
N3770 G2 X16.99 Y13.516 I0.424 J0.895
N3780 Y13.5 I-0.99 J-0.016
N3790 G1 X16.995 Y13.491
N3800 X17.006 Y13.492
N3810 Z-2 F80
N3820 X17.01 Y13.501 F500
N3830 X17.004 Y13.509
N3840 G2 X16.99 Y13.516 I0.424 J0.895
N3850 Y13.5 I-0.99 J-0.016
N3860 G1 X16.995 Y13.491
N3870 X17.006 Y13.492
N3880 Z-2.1 F80
N3890 X17.01 Y13.501 F500
N3900 X17.004 Y13.509
N3910 G2 X16.99 Y13.516 I0.424 J0.895
N3920 Y13.5 I-0.99 J-0.016
N3930 G1 X16.995 Y13.491
N3940 X17.006 Y13.492
N3950 Z-2.155 F80
N3960 X17.01 Y13.501 F500
N3970 X17.004 Y13.509
N3980 G2 X16.99 Y13.516 I0.424 J0.895
N3990 Y13.5 I-0.99 J-0.016
N4000 G1 X16.995 Y13.491
N4010 X17.006 Y13.492
N4020 Z-2.21 F80
N4030 X17.01 Y13.501 F500
N4040 X17.004 Y13.509
N4050 G2 X16.99 Y13.516 I0.424 J0.895
N4060 Y13.5 I-0.99 J-0.016
N4070 G1 X16.995 Y13.491
N4080 X17.006 Y13.492
N4090 G0 Z5
N4100 X13.01 Y16.5
N4110 G1 Z1.1 F80
N4120 Z-0.1
N4130 X13.005 Y16.509 F500
N4140 X12.995 Y16.508
N4150 X12.99 Y16.499
N4160 X12.996 Y16.491
N4170 G2 X13.01 Y16.484 I-0.424 J-0.895
N4180 Y16.5 I0.99 J0.016
N4190 G1 Z-0.2 F80
N4200 X13.005 Y16.509 F500
N4210 X12.995 Y16.508
N4220 X12.99 Y16.499
N4230 X12.996 Y16.491
N4240 G2 X13.01 Y16.484 I-0.424 J-0.895
N4250 Y16.5 I0.99 J0.016
N4260 G1 Z-0.3 F80
N4270 X13.005 Y16.509 F500
N4280 X12.995 Y16.508
N4290 X12.99 Y16.499
N4300 X12.996 Y16.491
N4310 G2 X13.01 Y16.484 I-0.424 J-0.895
N4320 Y16.5 I0.99 J0.016
N4330 G1 Z-0.4 F80
N4340 X13.005 Y16.509 F500
N4350 X12.995 Y16.508
N4360 X12.99 Y16.499
N4370 X12.996 Y16.491
N4380 G2 X13.01 Y16.484 I-0.424 J-0.895
N4390 Y16.5 I0.99 J0.016
N4400 G1 Z-0.5 F80
N4410 X13.005 Y16.509 F500
N4420 X12.995 Y16.508
N4430 X12.99 Y16.499
N4440 X12.996 Y16.491
N4450 G2 X13.01 Y16.484 I-0.424 J-0.895
N4460 Y16.5 I0.99 J0.016
N4470 G1 Z-0.6 F80
N4480 X13.005 Y16.509 F500
N4490 X12.995 Y16.508
N4500 X12.99 Y16.499
N4510 X12.996 Y16.491
N4520 G2 X13.01 Y16.484 I-0.424 J-0.895
N4530 Y16.5 I0.99 J0.016
N4540 G1 Z-0.7 F80
N4550 X13.005 Y16.509 F500
N4560 X12.995 Y16.508
N4570 X12.99 Y16.499
N4580 X12.996 Y16.491
N4590 G2 X13.01 Y16.484 I-0.424 J-0.895
N4600 Y16.5 I0.99 J0.016
N4610 G1 Z-0.8 F80
N4620 X13.005 Y16.509 F500
N4630 X12.995 Y16.508
N4640 X12.99 Y16.499
N4650 X12.996 Y16.491
N4660 G2 X13.01 Y16.484 I-0.424 J-0.895
N4670 Y16.5 I0.99 J0.016
N4680 G1 Z-0.9 F80
N4690 X13.005 Y16.509 F500
N4700 X12.995 Y16.508
N4710 X12.99 Y16.499
N4720 X12.996 Y16.491
N4730 G2 X13.01 Y16.484 I-0.424 J-0.895
N4740 Y16.5 I0.99 J0.016
N4750 G1 Z-1 F80
N4760 X13.005 Y16.509 F500
N4770 X12.995 Y16.508
N4780 X12.99 Y16.499
N4790 X12.996 Y16.491
N4800 G2 X13.01 Y16.484 I-0.424 J-0.895
N4810 Y16.5 I0.99 J0.016
N4820 G1 Z-1.1 F80
N4830 X13.005 Y16.509 F500
N4840 X12.995 Y16.508
N4850 X12.99 Y16.499
N4860 X12.996 Y16.491
N4870 G2 X13.01 Y16.484 I-0.424 J-0.895
N4880 Y16.5 I0.99 J0.016
N4890 G1 Z-1.2 F80
N4900 X13.005 Y16.509 F500
N4910 X12.995 Y16.508
N4920 X12.99 Y16.499
N4930 X12.996 Y16.491
N4940 G2 X13.01 Y16.484 I-0.424 J-0.895
N4950 Y16.5 I0.99 J0.016
N4960 G1 Z-1.3 F80
N4970 X13.005 Y16.509 F500
N4980 X12.995 Y16.508
N4990 X12.99 Y16.499
N5000 X12.996 Y16.491
N5010 G2 X13.01 Y16.484 I-0.424 J-0.895
N5020 Y16.5 I0.99 J0.016
N5030 G1 Z-1.4 F80
N5040 X13.005 Y16.509 F500
N5050 X12.995 Y16.508
N5060 X12.99 Y16.499
N5070 X12.996 Y16.491
N5080 G2 X13.01 Y16.484 I-0.424 J-0.895
N5090 Y16.5 I0.99 J0.016
N5100 G1 Z-1.5 F80
N5110 X13.005 Y16.509 F500
N5120 X12.995 Y16.508
N5130 X12.99 Y16.499
N5140 X12.996 Y16.491
N5150 G2 X13.01 Y16.484 I-0.424 J-0.895
N5160 Y16.5 I0.99 J0.016
N5170 G1 Z-1.6 F80
N5180 X13.005 Y16.509 F500
N5190 X12.995 Y16.508
N5200 X12.99 Y16.499
N5210 X12.996 Y16.491
N5220 G2 X13.01 Y16.484 I-0.424 J-0.895
N5230 Y16.5 I0.99 J0.016
N5240 G1 Z-1.7 F80
N5250 X13.005 Y16.509 F500
N5260 X12.995 Y16.508
N5270 X12.99 Y16.499
N5280 X12.996 Y16.491
N5290 G2 X13.01 Y16.484 I-0.424 J-0.895
N5300 Y16.5 I0.99 J0.016
N5310 G1 Z-1.8 F80
N5320 X13.005 Y16.509 F500
N5330 X12.995 Y16.508
N5340 X12.99 Y16.499
N5350 X12.996 Y16.491
N5360 G2 X13.01 Y16.484 I-0.424 J-0.895
N5370 Y16.5 I0.99 J0.016
N5380 G1 Z-1.9 F80
N5390 X13.005 Y16.509 F500
N5400 X12.995 Y16.508
N5410 X12.99 Y16.499
N5420 X12.996 Y16.491
N5430 G2 X13.01 Y16.484 I-0.424 J-0.895
N5440 Y16.5 I0.99 J0.016
N5450 G1 Z-2 F80
N5460 X13.005 Y16.509 F500
N5470 X12.995 Y16.508
N5480 X12.99 Y16.499
N5490 X12.996 Y16.491
N5500 G2 X13.01 Y16.484 I-0.424 J-0.895
N5510 Y16.5 I0.99 J0.016
N5520 G1 Z-2.1 F80
N5530 X13.005 Y16.509 F500
N5540 X12.995 Y16.508
N5550 X12.99 Y16.499
N5560 X12.996 Y16.491
N5570 G2 X13.01 Y16.484 I-0.424 J-0.895
N5580 Y16.5 I0.99 J0.016
N5590 G1 Z-2.155 F80
N5600 X13.005 Y16.509 F500
N5610 X12.995 Y16.508
N5620 X12.99 Y16.499
N5630 X12.996 Y16.491
N5640 G2 X13.01 Y16.484 I-0.424 J-0.895
N5650 Y16.5 I0.99 J0.016
N5660 G1 Z-2.21 F80
N5670 X13.005 Y16.509 F500
N5680 X12.995 Y16.508
N5690 X12.99 Y16.499
N5700 X12.996 Y16.491
N5710 G2 X13.01 Y16.484 I-0.424 J-0.895
N5720 Y16.5 I0.99 J0.016
N5730 G0 Z5
N5740 X5.61 Y15
N5750 G1 Z1.1 F80
N5760 Z-0.1
N5770 G3 X4.39 I-0.61 J0 F500
N5780 X5.61 I0.61 J0
N5790 G1 Z-0.2 F80
N5800 G3 X4.39 I-0.61 J0 F500
N5810 X5.61 I0.61 J0
N5820 G1 Z-0.3 F80
N5830 G3 X4.39 I-0.61 J0 F500
N5840 X5.61 I0.61 J0
N5850 G1 Z-0.4 F80
N5860 G3 X4.39 I-0.61 J0 F500
N5870 X5.61 I0.61 J0
N5880 G1 Z-0.5 F80
N5890 G3 X4.39 I-0.61 J0 F500
N5900 X5.61 I0.61 J0
N5910 G1 Z-0.6 F80
N5920 G3 X4.39 I-0.61 J0 F500
N5930 X5.61 I0.61 J0
N5940 G1 Z-0.7 F80
N5950 G3 X4.39 I-0.61 J0 F500
N5960 X5.61 I0.61 J0
N5970 G1 Z-0.8 F80
N5980 G3 X4.39 I-0.61 J0 F500
N5990 X5.61 I0.61 J0
N6000 G1 Z-0.9 F80
N6010 G3 X4.39 I-0.61 J0 F500
N6020 X5.61 I0.61 J0
N6030 G1 Z-1 F80
N6040 G3 X4.39 I-0.61 J0 F500
N6050 X5.61 I0.61 J0
N6060 G1 Z-1.1 F80
N6070 G3 X4.39 I-0.61 J0 F500
N6080 X5.61 I0.61 J0
N6090 G1 Z-1.2 F80
N6100 G3 X4.39 I-0.61 J0 F500
N6110 X5.61 I0.61 J0
N6120 G1 Z-1.3 F80
N6130 G3 X4.39 I-0.61 J0 F500
N6140 X5.61 I0.61 J0
N6150 G1 Z-1.4 F80
N6160 G3 X4.39 I-0.61 J0 F500
N6170 X5.61 I0.61 J0
N6180 G1 Z-1.5 F80
N6190 G3 X4.39 I-0.61 J0 F500
N6200 X5.61 I0.61 J0
N6210 G1 Z-1.6 F80
N6220 G3 X4.39 I-0.61 J0 F500
N6230 X5.61 I0.61 J0
N6240 G1 Z-1.7 F80
N6250 G3 X4.39 I-0.61 J0 F500
N6260 X5.61 I0.61 J0
N6270 G1 Z-1.8 F80
N6280 G3 X4.39 I-0.61 J0 F500
N6290 X5.61 I0.61 J0
N6300 G1 Z-1.9 F80
N6310 G3 X4.39 I-0.61 J0 F500
N6320 X5.61 I0.61 J0
N6330 G1 Z-2 F80
N6340 G3 X4.39 I-0.61 J0 F500
N6350 X5.61 I0.61 J0
N6360 G1 Z-2.1 F80
N6370 G3 X4.39 I-0.61 J0 F500
N6380 X5.61 I0.61 J0
N6390 G1 Z-2.155 F80
N6400 G3 X4.39 I-0.61 J0 F500
N6410 X5.61 I0.61 J0
N6420 G1 Z-2.21 F80
N6430 G3 X4.39 I-0.61 J0 F500
N6440 X5.61 I0.61 J0
N6450 G0 Z5
N6460 X25.61
N6470 G1 Z1.1 F80
N6480 Z-0.1
N6490 G3 X24.39 I-0.61 J0 F500
N6500 X25.61 I0.61 J0
N6510 G1 Z-0.2 F80
N6520 G3 X24.39 I-0.61 J0 F500
N6530 X25.61 I0.61 J0
N6540 G1 Z-0.3 F80
N6550 G3 X24.39 I-0.61 J0 F500
N6560 X25.61 I0.61 J0
N6570 G1 Z-0.4 F80
N6580 G3 X24.39 I-0.61 J0 F500
N6590 X25.61 I0.61 J0
N6600 G1 Z-0.5 F80
N6610 G3 X24.39 I-0.61 J0 F500
N6620 X25.61 I0.61 J0
N6630 G1 Z-0.6 F80
N6640 G3 X24.39 I-0.61 J0 F500
N6650 X25.61 I0.61 J0
N6660 G1 Z-0.7 F80
N6670 G3 X24.39 I-0.61 J0 F500
N6680 X25.61 I0.61 J0
N6690 G1 Z-0.8 F80
N6700 G3 X24.39 I-0.61 J0 F500
N6710 X25.61 I0.61 J0
N6720 G1 Z-0.9 F80
N6730 G3 X24.39 I-0.61 J0 F500
N6740 X25.61 I0.61 J0
N6750 G1 Z-1 F80
N6760 G3 X24.39 I-0.61 J0 F500
N6770 X25.61 I0.61 J0
N6780 G1 Z-1.1 F80
N6790 G3 X24.39 I-0.61 J0 F500
N6800 X25.61 I0.61 J0
N6810 G1 Z-1.2 F80
N6820 G3 X24.39 I-0.61 J0 F500
N6830 X25.61 I0.61 J0
N6840 G1 Z-1.3 F80
N6850 G3 X24.39 I-0.61 J0 F500
N6860 X25.61 I0.61 J0
N6870 G1 Z-1.4 F80
N6880 G3 X24.39 I-0.61 J0 F500
N6890 X25.61 I0.61 J0
N6900 G1 Z-1.5 F80
N6910 G3 X24.39 I-0.61 J0 F500
N6920 X25.61 I0.61 J0
N6930 G1 Z-1.6 F80
N6940 G3 X24.39 I-0.61 J0 F500
N6950 X25.61 I0.61 J0
N6960 G1 Z-1.7 F80
N6970 G3 X24.39 I-0.61 J0 F500
N6980 X25.61 I0.61 J0
N6990 G1 Z-1.8 F80
N7000 G3 X24.39 I-0.61 J0 F500
N7010 X25.61 I0.61 J0
N7020 G1 Z-1.9 F80
N7030 G3 X24.39 I-0.61 J0 F500
N7040 X25.61 I0.61 J0
N7050 G1 Z-2 F80
N7060 G3 X24.39 I-0.61 J0 F500
N7070 X25.61 I0.61 J0
N7080 G1 Z-2.1 F80
N7090 G3 X24.39 I-0.61 J0 F500
N7100 X25.61 I0.61 J0
N7110 G1 Z-2.155 F80
N7120 G3 X24.39 I-0.61 J0 F500
N7130 X25.61 I0.61 J0
N7140 G1 Z-2.21 F80
N7150 G3 X24.39 I-0.61 J0 F500
N7160 X25.61 I0.61 J0
N7170 G0 Z10

(2D ??2)
N7190 X31 Y15
N7200 Z10
N7210 Z5
N7220 G1 Z1.1 F80
N7230 Z-0.1
N7240 G2 X-1 I-16 J0 F500
N7250 X31 I16 J0
N7260 G1 Z-0.2 F80
N7270 G2 X-1 I-16 J0 F500
N7280 X31 I16 J0
N7290 G1 Z-0.3 F80
N7300 G2 X-1 I-16 J0 F500
N7310 X31 I16 J0
N7320 G1 Z-0.4 F80
N7330 G2 X-1 I-16 J0 F500
N7340 X31 I16 J0
N7350 G1 Z-0.5 F80
N7360 G2 X-1 I-16 J0 F500
N7370 X31 I16 J0
N7380 G1 Z-0.6 F80
N7390 G2 X-1 I-16 J0 F500
N7400 X31 I16 J0
N7410 G1 Z-0.7 F80
N7420 G2 X-1 I-16 J0 F500
N7430 X31 I16 J0
N7440 G1 Z-0.8 F80
N7450 G2 X-1 I-16 J0 F500
N7460 X31 I16 J0
N7470 G1 Z-0.9 F80
N7480 G2 X-1 I-16 J0 F500
N7490 X31 I16 J0
N7500 G1 Z-1 F80
N7510 G2 X-1 I-16 J0 F500
N7520 X31 I16 J0
N7530 G1 Z-1.1 F80
N7540 G2 X-1 I-16 J0 F500
N7550 X31 I16 J0
N7560 G1 Z-1.2 F80
N7570 G2 X-1 I-16 J0 F500
N7580 X31 I16 J0
N7590 G1 Z-1.3 F80
N7600 G2 X-1 I-16 J0 F500
N7610 X31 I16 J0
N7620 G1 Z-1.4 F80
N7630 G2 X-1 I-16 J0 F500
N7640 X31 I16 J0
N7650 G1 Z-1.5 F80
N7660 G2 X-1 I-16 J0 F500
N7670 X31 I16 J0
N7680 G1 Z-1.6 F80
N7690 G2 X-1 I-16 J0 F500
N7700 X31 I16 J0
N7710 G1 Z-1.7 F80
N7720 G2 X-1 I-16 J0 F500
N7730 X31 I16 J0
N7740 G1 Z-1.8 F80
N7750 G2 X-1 I-16 J0 F500
N7760 X31 I16 J0
N7770 G1 Z-1.9 F80
N7780 G2 X-1 I-16 J0 F500
N7790 X31 I16 J0
N7800 G1 Z-2 F80
N7810 G2 X-1 I-16 J0 F500
N7820 X31 I16 J0
N7830 G1 Z-2.1 F80
N7840 G2 X-1 I-16 J0 F500
N7850 X31 I16 J0
N7860 G1 Z-2.2 F80
N7870 G2 X-1 I-16 J0 F500
N7880 X31 I16 J0
N7890 G0 Z10
N7910 Z10
N7920 X0 Y0
N7930 M30
%
