%
(1001)
(T1 D=2 CR=0 - ZMIN=-5.7 - flat end mill)
N10 G90 G94
N20 G17
N30 G21
N40 M9
N50 G0 Z10
N60 X0 Y0

(2D ????2)
N70 T1 M6
N80 S8000 M3
N90 G54
N110 G0 X61.652 Y40.881
N120 G43 Z10
N130 Z5
N140 G1 Z2.5 F500
N150 Z-1.5
N160 X61.659 Y40.883
N170 G3 X63.367 Y43.597 I-0.388 J2.138
N180 X60.882 Y45.623 I-2.665 J-0.732
N190 X60.838 Y44.957 I-0.022 J-0.333
N200 X60.882 Y45.623 I0.022 J0.333
N210 G2 X60.397 Y45.88 I0.043 J0.668
N220 G3 X59.851 Y45.83 I-0.257 J-0.2
N230 X59.765 Y45.011 I0.997 J-0.519
N240 X61.956 I1.096 J0.304
N250 X61.434 Y46.285 I-1.083 J0.3
N260 G2 X61.314 Y46.36 I1.03 J1.784
N270 G3 X61.193 Y46.436 I-1.426 J-2.117
N280 X60.527 I-0.333 J-0.56
N290 X60.407 Y46.36 I1.305 J-2.193
N300 G2 X60.286 Y46.285 I-1.151 J1.709
N310 G3 X59.851 Y45.83 I0.562 J-0.974
N320 G2 X58.877 Y45.182 I-1.074 J0.559
N330 G3 X58.276 Y44.18 I0.06 J-0.718
N340 X60.86 Y42.479 I2.584 J1.112
N350 X62.267 Y47.727 I0 J2.813
N360 G2 X61.708 Y48.087 I3.458 J5.99
N370 G3 X61.162 Y48.465 I-13.514 J-18.939
N380 X60.559 I-0.301 J-0.449
N390 X60.012 Y48.087 I12.967 J-19.317
N400 G2 X59.453 Y47.727 I-4.017 J5.63
N410 G3 X58.276 Y44.18 I1.406 J-2.436
N420 X58.317 Y44.118 I0.184 J0.079
N430 G1 X61.482 Y40.939
N440 G3 X61.659 Y40.883 I0.142 J0.141
N450 X63.1 Y49.169 I-0.799 J4.407
N460 G2 X62.092 Y49.823 I5.771 J9.996
N470 X61.13 Y50.543 I24.029 J33.113
N480 G3 X60.591 I-0.27 J-0.349
N490 G2 X59.629 Y49.823 I-24.991 J32.393
N500 X58.621 Y49.169 I-6.779 J9.342
N510 G3 X60.05 Y40.885 I2.24 J-3.879
N520 G1 X63.419 Y39.806
N530 G3 X63.568 Y39.817 I0.061 J0.19
N540 X63.913 Y50.578 I-2.708 J5.473
N550 G2 X62.448 Y51.559 I6.626 J11.476
N560 X61.097 Y52.692 I13.079 J16.965
N570 G3 X60.623 I-0.237 J-0.26
N580 G2 X59.272 Y51.559 I-14.43 J15.832
N590 X57.807 Y50.578 I-8.091 J10.495
N600 G3 X58.157 Y39.815 I3.053 J-5.288
N610 G1 X64.239 Y38.446
N620 G3 X64.375 Y38.463 I0.044 J0.195
N630 X64.699 Y51.94 I-3.515 J6.827
N640 G2 X62.761 Y53.304 I6.625 J11.475
N650 X61.065 Y54.96 I10.833 J12.79
N660 G3 X60.656 I-0.205 J-0.182
N670 G2 X58.96 Y53.304 I-12.529 J11.134
N680 X57.021 Y51.94 I-8.564 J10.111
N690 G3 X57.349 Y38.462 I3.839 J-6.65
N700 X57.397 Y38.444 I0.091 J0.178
N710 G1 X64.441 Y36.887
N720 G3 X64.565 Y36.9 I0.043 J0.195
N730 X65.446 Y53.233 I-3.705 J8.39
N740 G2 X62.993 Y55.084 I6.266 J10.854
N750 X61.031 Y57.449 I9.866 J10.187
N760 G3 X60.69 I-0.17 J-0.113
N770 G2 X58.727 Y55.084 I-11.829 J7.822
N780 X56.274 Y53.233 I-8.719 J9.002
N790 G3 X57.145 Y36.904 I4.586 J-7.943
N800 G1 X63.839 Y35.199
N810 G3 X63.947 Y35.202 I0.049 J0.194
N820 X66.135 Y54.426 I-3.087 J10.088
N830 G2 X61.761 Y58.8 I5.975 J10.349
N840 X61.386 Y59.494 I11.968 J6.91
N850 G3 X61.012 Y60.188 I-12.342 J-6.216
N860 X60.708 I-0.152 J-0.088
N870 X60.334 Y59.494 I11.966 J-6.909
N880 G2 X59.959 Y58.8 I-12.341 J6.215
N890 X55.585 Y54.426 I-10.349 J5.975
N900 G3 X57.778 Y35.2 I5.275 J-9.137
N910 G2 X58.54 Y34.301 I-0.318 J-1.042
N920 G3 X59.376 Y33.47 I0.956 J0.126
N930 X66.816 Y55.606 I1.484 J11.82
N940 G2 X62.941 Y59.482 I5.294 J9.169
N950 X61.976 Y61.197 I74.563 J43.049
N960 G3 X61.012 Y62.913 I-75.528 J-41.334
N970 X60.708 I-0.152 J-0.088
N980 X59.744 Y61.197 I74.559 J-43.046
N990 G2 X58.779 Y59.482 I-75.524 J41.331
N1000 X54.904 Y55.606 I-9.169 J5.294
N1010 G3 X59.376 Y33.47 I5.956 J-10.316
N1020 G2 X60.283 Y32.709 I-0.136 J-1.083
N1030 G3 X61.245 Y32.021 I0.934 J0.289
N1040 X67.498 Y56.786 I-0.385 J13.269
N1050 G2 X64.121 Y60.163 I4.613 J7.989
N1060 X62.566 Y62.901 I190.748 J110.129
N1070 G3 X61.012 Y65.638 I-192.303 J-107.392
N1080 X60.708 I-0.152 J-0.088
N1090 X59.154 Y62.901 I190.742 J-110.124
N1100 G2 X57.599 Y60.163 I-192.297 J107.386
N1110 X54.223 Y56.786 I-7.989 J4.612
N1120 G3 X61.245 Y32.021 I6.637 J-11.496
N1130 G2 X62.261 Y31.404 I0.032 J-1.093
N1140 G3 X63.317 Y30.86 I0.89 J0.431
N1150 X68.179 Y57.966 I-2.457 J14.43
N1160 G2 X65.301 Y60.844 I3.931 J6.809
N1170 X63.156 Y64.604 I360.523 J208.15
N1180 G3 X61.012 Y68.363 I-362.668 J-204.39
N1190 X60.708 I-0.152 J-0.088
N1200 X58.564 Y64.604 I360.516 J-208.141
N1210 G2 X56.419 Y60.844 I-362.66 J204.382
N1220 X53.541 Y57.966 I-6.809 J3.931
N1230 G3 X63.317 Y30.86 I7.319 J-12.676
N1240 G2 X64.411 Y30.388 I0.184 J-1.079
N1250 G3 X65.533 Y29.988 I0.83 J0.554
N1260 X68.86 Y59.146 I-4.673 J15.302
N1270 G2 X66.481 Y61.525 I3.25 J5.629
N1280 G1 X61.012 Y71.088
N1290 G3 X60.708 I-0.152 J-0.088
N1300 G1 X55.239 Y61.525
N1310 G2 X52.86 Y59.146 I-5.629 J3.25
N1320 G3 X65.533 Y29.988 I8 J-13.856
N1330 X65.631 Y30.054 I-0.058 J0.191
N1340 G1 X78.167 Y45.809
N1350 G3 X78.21 Y45.941 I-0.157 J0.125
N1360 X69.541 Y60.326 I-17.35 J-0.651
N1370 G2 X67.661 Y62.207 I2.569 J4.449
N1380 G1 X61.02 Y73.799
N1390 G3 X60.7 I-0.16 J-0.092
N1400 G1 X54.059 Y62.207
N1410 G2 X52.179 Y60.326 I-4.449 J2.569
N1420 G3 X43.51 Y45.941 I8.681 J-15.036
N1430 G1 Y44.647
N1440 G3 X78.21 Y44.634 I17.351 J0.643
N1450 G2 X78.901 Y45.611 I1.095 J-0.041
N1460 G3 X79.537 Y46.625 I-0.374 J0.941
N1470 X70.223 Y61.506 I-18.677 J-1.335
N1480 G2 X68.841 Y62.888 I1.888 J3.269
N1490 G1 X61.02 Y76.523
N1500 G3 X60.7 I-0.16 J-0.092
N1510 G1 X52.879 Y62.888
N1520 G2 X51.498 Y61.506 I-3.269 J1.887
N1530 G3 X70.223 Y29.074 I9.362 J-16.216
N1540 X79.537 Y46.625 I-9.362 J16.216
N1550 X79.504 Y46.721 I-0.199 J-0.014
N1560 G1 X59.555 Y76.673
N1570 G3 X59.215 Y76.661 I-0.166 J-0.111
N1580 G1 X51.699 Y63.569
N1590 G2 X50.816 Y62.686 I-2.089 J1.206
N1600 G3 X70.904 Y27.894 I10.044 J-17.396
N1610 Y62.686 I-10.044 J17.396
N1620 G2 X70.021 Y63.569 I1.206 J2.089
N1630 G1 X62.507 Y76.659
N1640 G3 X62.332 Y76.759 I-0.173 J-0.1
N1650 G1 X57.783 Y76.734
N1660 G3 X57.611 Y76.634 I0.001 J-0.2
N1670 G1 X56.797 Y75.224
N1680 X50.476 Y64.275
N1690 G2 X50.11 Y63.909 I-0.866 J0.5
N1700 G3 X71.61 Y26.67 I10.75 J-18.619
N1710 Y63.909 I-10.75 J18.619
N1720 G2 X71.244 Y64.275 I0.5 J0.866
N1730 G1 X64.92 Y75.229
N1740 X64.102 Y76.645
N1750 G3 X63.73 Y76.558 I-0.173 J-0.1
N1760 G1 X61.417 Y41.091
N1770 G3 X61.652 Y40.881 I0.2 J-0.013
N1780 G1 Z-3
N1790 X61.659 Y40.883
N1800 G3 X63.367 Y43.597 I-0.388 J2.138
N1810 X60.882 Y45.623 I-2.665 J-0.732
N1820 X60.838 Y44.957 I-0.022 J-0.333
N1830 X60.882 Y45.623 I0.022 J0.333
N1840 G2 X60.397 Y45.88 I0.043 J0.668
N1850 G3 X59.851 Y45.83 I-0.257 J-0.2
N1860 X59.765 Y45.011 I0.997 J-0.519
N1870 X61.956 I1.096 J0.304
N1880 X61.434 Y46.285 I-1.083 J0.3
N1890 G2 X61.314 Y46.36 I1.03 J1.784
N1900 G3 X61.193 Y46.436 I-1.426 J-2.117
N1910 X60.527 I-0.333 J-0.56
N1920 X60.407 Y46.36 I1.305 J-2.193
N1930 G2 X60.286 Y46.285 I-1.151 J1.709
N1940 G3 X59.851 Y45.83 I0.562 J-0.974
N1950 G2 X58.877 Y45.182 I-1.074 J0.559
N1960 G3 X58.276 Y44.18 I0.06 J-0.718
N1970 X60.86 Y42.479 I2.584 J1.112
N1980 X62.267 Y47.727 I0 J2.813
N1990 G2 X61.708 Y48.087 I3.458 J5.99
N2000 G3 X61.162 Y48.465 I-13.514 J-18.939
N2010 X60.559 I-0.301 J-0.449
N2020 X60.012 Y48.087 I12.967 J-19.317
N2030 G2 X59.453 Y47.727 I-4.017 J5.63
N2040 G3 X58.276 Y44.18 I1.406 J-2.436
N2050 X58.317 Y44.118 I0.184 J0.079
N2060 G1 X61.482 Y40.939
N2070 G3 X61.659 Y40.883 I0.142 J0.141
N2080 X63.1 Y49.169 I-0.799 J4.407
N2090 G2 X62.092 Y49.823 I5.771 J9.996
N2100 X61.13 Y50.543 I24.029 J33.113
N2110 G3 X60.591 I-0.27 J-0.349
N2120 G2 X59.629 Y49.823 I-24.991 J32.393
N2130 X58.621 Y49.169 I-6.779 J9.342
N2140 G3 X60.05 Y40.885 I2.24 J-3.879
N2150 G1 X63.419 Y39.806
N2160 G3 X63.568 Y39.817 I0.061 J0.19
N2170 X63.913 Y50.578 I-2.708 J5.473
N2180 G2 X62.448 Y51.559 I6.626 J11.476
N2190 X61.097 Y52.692 I13.079 J16.965
N2200 G3 X60.623 I-0.237 J-0.26
N2210 G2 X59.272 Y51.559 I-14.43 J15.832
N2220 X57.807 Y50.578 I-8.091 J10.495
N2230 G3 X58.157 Y39.815 I3.053 J-5.288
N2240 G1 X64.239 Y38.446
N2250 G3 X64.375 Y38.463 I0.044 J0.195
N2260 X64.699 Y51.94 I-3.515 J6.827
N2270 G2 X62.761 Y53.304 I6.625 J11.475
N2280 X61.065 Y54.96 I10.833 J12.79
N2290 G3 X60.656 I-0.205 J-0.182
N2300 G2 X58.96 Y53.304 I-12.529 J11.134
N2310 X57.021 Y51.94 I-8.564 J10.111
N2320 G3 X57.349 Y38.462 I3.839 J-6.65
N2330 X57.397 Y38.444 I0.091 J0.178
N2340 G1 X64.441 Y36.887
N2350 G3 X64.565 Y36.9 I0.043 J0.195
N2360 X65.446 Y53.233 I-3.705 J8.39
N2370 G2 X62.993 Y55.084 I6.266 J10.854
N2380 X61.031 Y57.449 I9.866 J10.187
N2390 G3 X60.69 I-0.17 J-0.113
N2400 G2 X58.727 Y55.084 I-11.829 J7.822
N2410 X56.274 Y53.233 I-8.719 J9.002
N2420 G3 X57.145 Y36.904 I4.586 J-7.943
N2430 G1 X63.839 Y35.199
N2440 G3 X63.947 Y35.202 I0.049 J0.194
N2450 X66.135 Y54.426 I-3.087 J10.088
N2460 G2 X61.761 Y58.8 I5.975 J10.349
N2470 X61.386 Y59.494 I11.968 J6.91
N2480 G3 X61.012 Y60.188 I-12.342 J-6.216
N2490 X60.708 I-0.152 J-0.088
N2500 X60.334 Y59.494 I11.966 J-6.909
N2510 G2 X59.959 Y58.8 I-12.341 J6.215
N2520 X55.585 Y54.426 I-10.349 J5.975
N2530 G3 X57.778 Y35.2 I5.275 J-9.137
N2540 G2 X58.54 Y34.301 I-0.318 J-1.042
N2550 G3 X59.376 Y33.47 I0.956 J0.126
N2560 X66.816 Y55.606 I1.484 J11.82
N2570 G2 X62.941 Y59.482 I5.294 J9.169
N2580 X61.976 Y61.197 I74.563 J43.049
N2590 G3 X61.012 Y62.913 I-75.528 J-41.334
N2600 X60.708 I-0.152 J-0.088
N2610 X59.744 Y61.197 I74.559 J-43.046
N2620 G2 X58.779 Y59.482 I-75.524 J41.331
N2630 X54.904 Y55.606 I-9.169 J5.294
N2640 G3 X59.376 Y33.47 I5.956 J-10.316
N2650 G2 X60.283 Y32.709 I-0.136 J-1.083
N2660 G3 X61.245 Y32.021 I0.934 J0.289
N2670 X67.498 Y56.786 I-0.385 J13.269
N2680 G2 X64.121 Y60.163 I4.613 J7.989
N2690 X62.566 Y62.901 I190.748 J110.129
N2700 G3 X61.012 Y65.638 I-192.303 J-107.392
N2710 X60.708 I-0.152 J-0.088
N2720 X59.154 Y62.901 I190.742 J-110.124
N2730 G2 X57.599 Y60.163 I-192.297 J107.386
N2740 X54.223 Y56.786 I-7.989 J4.612
N2750 G3 X61.245 Y32.021 I6.637 J-11.496
N2760 G2 X62.261 Y31.404 I0.032 J-1.093
N2770 G3 X63.317 Y30.86 I0.89 J0.431
N2780 X68.179 Y57.966 I-2.457 J14.43
N2790 G2 X65.301 Y60.844 I3.931 J6.809
N2800 X63.156 Y64.604 I360.523 J208.15
N2810 G3 X61.012 Y68.363 I-362.668 J-204.39
N2820 X60.708 I-0.152 J-0.088
N2830 X58.564 Y64.604 I360.516 J-208.141
N2840 G2 X56.419 Y60.844 I-362.66 J204.382
N2850 X53.541 Y57.966 I-6.809 J3.931
N2860 G3 X63.317 Y30.86 I7.319 J-12.676
N2870 G2 X64.411 Y30.388 I0.184 J-1.079
N2880 G3 X65.533 Y29.988 I0.83 J0.554
N2890 X68.86 Y59.146 I-4.673 J15.302
N2900 G2 X66.481 Y61.525 I3.25 J5.629
N2910 G1 X61.012 Y71.088
N2920 G3 X60.708 I-0.152 J-0.088
N2930 G1 X55.239 Y61.525
N2940 G2 X52.86 Y59.146 I-5.629 J3.25
N2950 G3 X65.533 Y29.988 I8 J-13.856
N2960 X65.631 Y30.054 I-0.058 J0.191
N2970 G1 X78.167 Y45.809
N2980 G3 X78.21 Y45.941 I-0.157 J0.125
N2990 X69.541 Y60.326 I-17.35 J-0.651
N3000 G2 X67.661 Y62.207 I2.569 J4.449
N3010 G1 X61.02 Y73.799
N3020 G3 X60.7 I-0.16 J-0.092
N3030 G1 X54.059 Y62.207
N3040 G2 X52.179 Y60.326 I-4.449 J2.569
N3050 G3 X43.51 Y45.941 I8.681 J-15.036
N3060 G1 Y44.647
N3070 G3 X78.21 Y44.634 I17.351 J0.643
N3080 G2 X78.901 Y45.611 I1.095 J-0.041
N3090 G3 X79.537 Y46.625 I-0.374 J0.941
N3100 X70.223 Y61.506 I-18.677 J-1.335
N3110 G2 X68.841 Y62.888 I1.888 J3.269
N3120 G1 X61.02 Y76.523
N3130 G3 X60.7 I-0.16 J-0.092
N3140 G1 X52.879 Y62.888
N3150 G2 X51.498 Y61.506 I-3.269 J1.887
N3160 G3 X70.223 Y29.074 I9.362 J-16.216
N3170 X79.537 Y46.625 I-9.362 J16.216
N3180 X79.504 Y46.721 I-0.199 J-0.014
N3190 G1 X59.555 Y76.673
N3200 G3 X59.215 Y76.661 I-0.166 J-0.111
N3210 G1 X51.699 Y63.569
N3220 G2 X50.816 Y62.686 I-2.089 J1.206
N3230 G3 X70.904 Y27.894 I10.044 J-17.396
N3240 Y62.686 I-10.044 J17.396
N3250 G2 X70.021 Y63.569 I1.206 J2.089
N3260 G1 X62.507 Y76.659
N3270 G3 X62.332 Y76.759 I-0.173 J-0.1
N3280 G1 X57.783 Y76.734
N3290 G3 X57.611 Y76.634 I0.001 J-0.2
N3300 G1 X56.797 Y75.224
N3310 X50.476 Y64.275
N3320 G2 X50.11 Y63.909 I-0.866 J0.5
N3330 G3 X71.61 Y26.67 I10.75 J-18.619
N3340 Y63.909 I-10.75 J18.619
N3350 G2 X71.244 Y64.275 I0.5 J0.866
N3360 G1 X64.92 Y75.229
N3370 X64.102 Y76.645
N3380 G0 Z10

(2D ??1)
N3400 X64.509 Y37.346
N3410 Z10
N3420 Z5
N3430 G1 Z2.5 F80
N3440 Z-1.5
N3450 G3 X57.211 Y37.167 I-3.649 J-0.09 F500
N3460 X64.51 Y37.256 I3.649 J0.09
N3470 X64.509 Y37.346 I-3.65 J0
N3480 G1 Z-3 F80
N3490 G3 X57.211 Y37.167 I-3.649 J-0.09 F500
N3500 X64.51 Y37.256 I3.649 J0.09
N3510 X64.509 Y37.346 I-3.65 J0
N3520 G1 Z-4.5 F80
N3530 G3 X57.211 Y37.167 I-3.649 J-0.09 F500
N3540 X64.51 Y37.256 I3.649 J0.09
N3550 X64.509 Y37.346 I-3.65 J0
N3560 G1 Z-5.7 F80
N3570 G3 X57.211 Y37.167 I-3.649 J-0.09 F500
N3580 X64.51 Y37.256 I3.649 J0.09
N3590 X64.509 Y37.346 I-3.65 J0
N3600 G0 Z5
N3610 X78.96 Y45.305
N3620 G1 Z2.5 F80
N3630 Z-1.5
N3640 G3 X77.76 Y45.275 I-0.6 J-0.015 F500
N3650 X78.96 Y45.29 I0.6 J0.015
N3660 Y45.305 I-0.6 J0
N3670 G1 Z-3 F80
N3680 G3 X77.76 Y45.275 I-0.6 J-0.015 F500
N3690 X78.96 Y45.29 I0.6 J0.015
N3700 Y45.305 I-0.6 J0
N3710 G1 Z-4.5 F80
N3720 G3 X77.76 Y45.275 I-0.6 J-0.015 F500
N3730 X78.96 Y45.29 I0.6 J0.015
N3740 Y45.305 I-0.6 J0
N3750 G1 Z-5.7 F80
N3760 G3 X77.76 Y45.275 I-0.6 J-0.015 F500
N3770 X78.96 Y45.29 I0.6 J0.015
N3780 Y45.305 I-0.6 J0
N3790 G0 Z5
N3800 X43.96 Y45.29
N3810 G1 Z2.5 F80
N3820 Z-1.5
N3830 G3 X42.76 I-0.6 J0 F500
N3840 X43.96 I0.6 J0
N3850 G1 Z-3 F80
N3860 G3 X42.76 I-0.6 J0 F500
N3870 X43.96 I0.6 J0
N3880 G1 Z-4.5 F80
N3890 G3 X42.76 I-0.6 J0 F500
N3900 X43.96 I0.6 J0
N3910 G1 Z-5.7 F80
N3920 G3 X42.76 I-0.6 J0 F500
N3930 X43.96 I0.6 J0
N3940 G0 Z5
N3950 X4.46 Y63.982
N3960 G1 Z2.5 F80
N3970 Z-1.5
N3980 G3 X3.26 I-0.6 J0 F500
N3990 X4.46 I0.6 J0
N4000 G1 Z-3 F80
N4010 G3 X3.26 I-0.6 J0 F500
N4020 X4.46 I0.6 J0
N4030 G1 Z-4.5 F80
N4040 G3 X3.26 I-0.6 J0 F500
N4050 X4.46 I0.6 J0
N4060 G1 Z-5.7 F80
N4070 G3 X3.26 I-0.6 J0 F500
N4080 X4.46 I0.6 J0
N4090 G0 Z5
N4100 X14.756 Y4.997
N4110 G1 Z2.5 F80
N4120 Z-1.5
N4130 G3 X13.557 Y4.967 I-0.6 J-0.015 F500
N4140 X14.756 Y4.982 I0.6 J0.015
N4150 Y4.997 I-0.6 J0
N4160 G1 Z-3 F80
N4170 G3 X13.557 Y4.967 I-0.6 J-0.015 F500
N4180 X14.756 Y4.982 I0.6 J0.015
N4190 Y4.997 I-0.6 J0
N4200 G1 Z-4.5 F80
N4210 G3 X13.557 Y4.967 I-0.6 J-0.015 F500
N4220 X14.756 Y4.982 I0.6 J0.015
N4230 Y4.997 I-0.6 J0
N4240 G1 Z-5.7 F80
N4250 G3 X13.557 Y4.967 I-0.6 J-0.015 F500
N4260 X14.756 Y4.982 I0.6 J0.015
N4270 Y4.997 I-0.6 J0
N4280 G0 Z5
N4290 X108.164 Y4.982
N4300 G1 Z2.5 F80
N4310 Z-1.5
N4320 G3 X106.964 I-0.6 J0 F500
N4330 X108.164 I0.6 J0
N4340 G1 Z-3 F80
N4350 G3 X106.964 I-0.6 J0 F500
N4360 X108.164 I0.6 J0
N4370 G1 Z-4.5 F80
N4380 G3 X106.964 I-0.6 J0 F500
N4390 X108.164 I0.6 J0
N4400 G1 Z-5.7 F80
N4410 G3 X106.964 I-0.6 J0 F500
N4420 X108.164 I0.6 J0
N4430 G0 Z5
N4440 X118.46 Y63.982
N4450 G1 Z2.5 F80
N4460 Z-1.5
N4470 G3 X117.26 I-0.6 J0 F500
N4480 X118.46 I0.6 J0
N4490 G1 Z-3 F80
N4500 G3 X117.26 I-0.6 J0 F500
N4510 X118.46 I0.6 J0
N4520 G1 Z-4.5 F80
N4530 G3 X117.26 I-0.6 J0 F500
N4540 X118.46 I0.6 J0
N4550 G1 Z-5.7 F80
N4560 G3 X117.26 I-0.6 J0 F500
N4570 X118.46 I0.6 J0
N4580 G0 Z10

(2D ??2)
N4600 X-0.932 Y61.953
N4610 Z10
N4620 Z5
N4630 G1 Z2.5 F80
N4640 Z-1.5
N4650 G2 X-1 Y62.587 I2.932 J0.634 F500
N4660 G1 Y64.877
N4670 G2 X0.5 Y67.475 I3 J0
N4680 G1 X3.253 Y69.065
N4690 G2 X3.986 Y69.367 I1.5 J-2.598
N4700 X117.982 I56.998 J-215.38
N4710 X118.714 Y69.065 I-0.768 J-2.9
N4720 G1 X121.467 Y67.475
N4730 G2 X122.967 Y64.877 I-1.5 J-2.598
N4740 G1 Y62.587
N4750 G2 X121.467 Y59.989 I-3 J0
N4760 G1 X119.146 Y58.648
N4770 G2 X117.072 Y58.302 I-1.5 J2.598
N4780 G3 X89.755 Y44.844 I-4.815 J-24.679
N4790 G1 X89.754 Y44.842
N4800 X80.086 Y25.555
N4810 G3 X80.466 Y24.249 I0.894 J-0.448
N4820 G2 X80.532 Y24.206 I-0.514 J-0.858
N4830 G3 X109.419 Y10.667 I51.602 J72.514
N4840 G2 X109.485 Y10.647 I-0.255 J-0.967
N4850 X112.869 Y2.217 I-1.921 J-5.665
N4860 X104.065 Y0.13 I-5.305 J2.765
N4870 G3 X17.655 I-43.205 J-74.245
N4880 G2 X8.851 Y2.218 I-3.498 J4.852
N4890 X12.235 Y10.647 I5.305 J2.764
N4900 X12.302 Y10.667 I0.321 J-0.947
N4910 G3 X41.209 Y24.201 I-22.671 J86.064
N4920 G2 X41.268 Y24.239 I0.58 J-0.815
N4930 G3 X41.641 Y25.541 I-0.521 J0.854
N4940 G1 X31.966 Y44.842
N4950 G3 X4.88 Y58.292 I-22.478 J-11.268
N4960 G2 X2.83 Y58.643 I-0.55 J2.949
N4970 G1 X0.5 Y59.989
N4980 G2 X-0.932 Y61.953 I1.5 J2.598
N4990 G1 Z-3 F80
N5000 G2 X-1 Y62.587 I2.932 J0.634 F500
N5010 G1 Y64.877
N5020 G2 X0.5 Y67.475 I3 J0
N5030 G1 X3.253 Y69.065
N5040 G2 X3.986 Y69.367 I1.5 J-2.598
N5050 X117.982 I56.998 J-215.38
N5060 X118.714 Y69.065 I-0.768 J-2.9
N5070 G1 X121.467 Y67.475
N5080 G2 X122.967 Y64.877 I-1.5 J-2.598
N5090 G1 Y62.587
N5100 G2 X121.467 Y59.989 I-3 J0
N5110 G1 X119.146 Y58.648
N5120 G2 X117.072 Y58.302 I-1.5 J2.598
N5130 G3 X89.755 Y44.844 I-4.815 J-24.679
N5140 G1 X89.754 Y44.842
N5150 X80.086 Y25.555
N5160 G3 X80.466 Y24.249 I0.894 J-0.448
N5170 G2 X80.532 Y24.206 I-0.514 J-0.858
N5180 G3 X109.419 Y10.667 I51.602 J72.514
N5190 G2 X109.485 Y10.647 I-0.255 J-0.967
N5200 X112.869 Y2.217 I-1.921 J-5.665
N5210 X104.065 Y0.13 I-5.305 J2.765
N5220 G3 X17.655 I-43.205 J-74.245
N5230 G2 X8.851 Y2.218 I-3.498 J4.852
N5240 X12.235 Y10.647 I5.305 J2.764
N5250 X12.302 Y10.667 I0.321 J-0.947
N5260 G3 X41.209 Y24.201 I-22.671 J86.064
N5270 G2 X41.268 Y24.239 I0.58 J-0.815
N5280 G3 X41.641 Y25.541 I-0.521 J0.854
N5290 G1 X31.966 Y44.842
N5300 G3 X4.88 Y58.292 I-22.478 J-11.268
N5310 G2 X2.83 Y58.643 I-0.55 J2.949
N5320 G1 X0.5 Y59.989
N5330 G2 X-0.932 Y61.953 I1.5 J2.598
N5340 G1 Z-4.5 F80
N5350 G2 X-1 Y62.587 I2.932 J0.634 F500
N5360 G1 Y64.877
N5370 G2 X0.5 Y67.475 I3 J0
N5380 G1 X3.253 Y69.065
N5390 G2 X3.986 Y69.367 I1.5 J-2.598
N5400 X117.982 I56.998 J-215.38
N5410 X118.714 Y69.065 I-0.768 J-2.9
N5420 G1 X121.467 Y67.475
N5430 G2 X122.967 Y64.877 I-1.5 J-2.598
N5440 G1 Y62.587
N5450 G2 X121.467 Y59.989 I-3 J0
N5460 G1 X119.146 Y58.648
N5470 G2 X117.072 Y58.302 I-1.5 J2.598
N5480 G3 X89.755 Y44.844 I-4.815 J-24.679
N5490 G1 X89.754 Y44.842
N5500 X80.086 Y25.555
N5510 G3 X80.466 Y24.249 I0.894 J-0.448
N5520 G2 X80.532 Y24.206 I-0.514 J-0.858
N5530 G3 X109.419 Y10.667 I51.602 J72.514
N5540 G2 X109.485 Y10.647 I-0.255 J-0.967
N5550 X112.869 Y2.217 I-1.921 J-5.665
N5560 X104.065 Y0.13 I-5.305 J2.765
N5570 G3 X17.655 I-43.205 J-74.245
N5580 G2 X8.851 Y2.218 I-3.498 J4.852
N5590 X12.235 Y10.647 I5.305 J2.764
N5600 X12.302 Y10.667 I0.321 J-0.947
N5610 G3 X41.209 Y24.201 I-22.671 J86.064
N5620 G2 X41.268 Y24.239 I0.58 J-0.815
N5630 G3 X41.641 Y25.541 I-0.521 J0.854
N5640 G1 X31.966 Y44.842
N5650 G3 X4.88 Y58.292 I-22.478 J-11.268
N5660 G2 X2.83 Y58.643 I-0.55 J2.949
N5670 G1 X0.5 Y59.989
N5680 G2 X-0.932 Y61.953 I1.5 J2.598
N5690 G1 Z-5.7 F80
N5700 G2 X-1 Y62.587 I2.932 J0.634 F500
N5710 G1 Y64.877
N5720 G2 X0.5 Y67.475 I3 J0
N5730 G1 X3.253 Y69.065
N5740 G2 X3.986 Y69.367 I1.5 J-2.598
N5750 X117.982 I56.998 J-215.38
N5760 X118.714 Y69.065 I-0.768 J-2.9
N5770 G1 X121.467 Y67.475
N5780 G2 X122.967 Y64.877 I-1.5 J-2.598
N5790 G1 Y62.587
N5800 G2 X121.467 Y59.989 I-3 J0
N5810 G1 X119.146 Y58.648
N5820 G2 X117.072 Y58.302 I-1.5 J2.598
N5830 G3 X89.755 Y44.844 I-4.815 J-24.679
N5840 G1 X89.754 Y44.842
N5850 X80.086 Y25.555
N5860 G3 X80.466 Y24.249 I0.894 J-0.448
N5870 G2 X80.532 Y24.206 I-0.514 J-0.858
N5880 G3 X109.419 Y10.667 I51.602 J72.514
N5890 G2 X109.485 Y10.647 I-0.255 J-0.967
N5900 X112.869 Y2.217 I-1.921 J-5.665
N5910 X104.065 Y0.13 I-5.305 J2.765
N5920 G3 X17.655 I-43.205 J-74.245
N5930 G2 X8.851 Y2.218 I-3.498 J4.852
N5940 X12.235 Y10.647 I5.305 J2.764
N5950 X12.302 Y10.667 I0.321 J-0.947
N5960 G3 X41.209 Y24.201 I-22.671 J86.064
N5970 G2 X41.268 Y24.239 I0.58 J-0.815
N5980 G3 X41.641 Y25.541 I-0.521 J0.854
N5990 G1 X31.966 Y44.842
N6000 G3 X4.88 Y58.292 I-22.478 J-11.268
N6010 G2 X2.83 Y58.643 I-0.55 J2.949
N6020 G1 X0.5 Y59.989
N6030 G2 X-0.932 Y61.953 I1.5 J2.598
N6040 G0 Z10
N6060 Z10
N6070 X0 Y0
N6080 M30
%
