%
(1001)
(T1 D=2 CR=0 - ZMIN=-5.7 - flat end mill)
N10 G90 G94
N20 G17
N30 G21
N40 M9
N50 G0 Z10
N60 X0 Y0

(2D ??1)
N70 T1 M6
N80 S8000 M3
N90 G54
N110 G0 X53 Y52.5
N120 G43 Z10
N130 Z5
N140 G1 Z2.5 F80
N150 Z-1.5
N160 X50.586 F500
N170 G3 Y51.5 I1.414 J-0.5
N180 G1 X53.414
N190 G3 Y52.5 I-1.414 J0.5
N200 G1 X53
N210 Z-3 F80
N220 X50.586 F500
N230 G3 Y51.5 I1.414 J-0.5
N240 G1 X53.414
N250 G3 Y52.5 I-1.414 J0.5
N260 G1 X53
N270 Z-4.5 F80
N280 X50.586 F500
N290 G3 Y51.5 I1.414 J-0.5
N300 G1 X53.414
N310 G3 Y52.5 I-1.414 J0.5
N320 G1 X53
N330 Z-5.7 F80
N340 X50.586 F500
N350 G3 Y51.5 I1.414 J-0.5
N360 G1 X53.414
N370 G3 Y52.5 I-1.414 J0.5
N380 G1 X53
N390 G0 Z5
N400 X62.6 Y52
N410 G1 Z2.5 F80
N420 Z-1.5
N430 G3 X61.4 I-0.6 J0 F500
N440 X62.6 I0.6 J0
N450 G1 Z-3 F80
N460 G3 X61.4 I-0.6 J0 F500
N470 X62.6 I0.6 J0
N480 G1 Z-4.5 F80
N490 G3 X61.4 I-0.6 J0 F500
N500 X62.6 I0.6 J0
N510 G1 Z-5.7 F80
N520 G3 X61.4 I-0.6 J0 F500
N530 X62.6 I0.6 J0
N540 G0 Z5
N550 X42.6
N560 G1 Z2.5 F80
N570 Z-1.5
N580 G3 X41.4 I-0.6 J0 F500
N590 X42.6 I0.6 J0
N600 G1 Z-3 F80
N610 G3 X41.4 I-0.6 J0 F500
N620 X42.6 I0.6 J0
N630 G1 Z-4.5 F80
N640 G3 X41.4 I-0.6 J0 F500
N650 X42.6 I0.6 J0
N660 G1 Z-5.7 F80
N670 G3 X41.4 I-0.6 J0 F500
N680 X42.6 I0.6 J0
N690 G0 Z5
N700 X18.248 Y56.098
N710 G1 Z2.5 F80
N720 Z-1.5
N730 G3 X4.038 Y62.034 I-7.942 J0.964 F500
N740 X3.031 Y53.736 I47.962 J-10.034
N750 X18.248 Y56.098 I7.275 J3.327
N760 G1 Z-3 F80
N770 G3 X4.038 Y62.034 I-7.942 J0.964 F500
N780 X3.031 Y53.736 I47.962 J-10.034
N790 X18.248 Y56.098 I7.275 J3.327
N800 G1 Z-4.5 F80
N810 G3 X4.038 Y62.034 I-7.942 J0.964 F500
N820 X3.031 Y53.736 I47.962 J-10.034
N830 X18.248 Y56.098 I7.275 J3.327
N840 G1 Z-5.7 F80
N850 G3 X4.038 Y62.034 I-7.942 J0.964 F500
N860 X3.031 Y53.736 I47.962 J-10.034
N870 X18.248 Y56.098 I7.275 J3.327
N880 G0 Z5
N890 X24.019 Y71.314
N900 G1 Z2.5 F80
N910 Z-1.5
N920 G3 X14.195 Y83.174 I-6.584 J4.545 F500
N930 X9.446 Y76.294 I37.805 J-31.173
N940 X24.019 Y71.314 I7.988 J-0.435
N950 G1 Z-3 F80
N960 G3 X14.195 Y83.174 I-6.584 J4.545 F500
N970 X9.446 Y76.294 I37.805 J-31.173
N980 X24.019 Y71.314 I7.988 J-0.435
N990 G1 Z-4.5 F80
N1000 G3 X14.195 Y83.174 I-6.584 J4.545 F500
N1010 X9.446 Y76.294 I37.805 J-31.173
N1020 X24.019 Y71.314 I7.988 J-0.435
N1030 G1 Z-5.7 F80
N1040 G3 X14.195 Y83.174 I-6.584 J4.545 F500
N1050 X9.446 Y76.294 I37.805 J-31.173
N1060 X24.019 Y71.314 I7.988 J-0.435
N1070 G0 Z5
N1080 X36.199 Y82.106
N1090 G1 Z2.5 F80
N1100 Z-1.5
N1110 G3 X33.012 Y97.172 I-3.718 J7.084 F500
N1120 X25.611 Y93.287 I18.987 J-45.172
N1130 X36.199 Y82.106 I6.871 J-4.098
N1140 G1 Z-3 F80
N1150 G3 X33.012 Y97.172 I-3.718 J7.084 F500
N1160 X25.611 Y93.287 I18.987 J-45.172
N1170 X36.199 Y82.106 I6.871 J-4.098
N1180 G1 Z-4.5 F80
N1190 G3 X33.012 Y97.172 I-3.718 J7.084 F500
N1200 X25.611 Y93.287 I18.987 J-45.172
N1210 X36.199 Y82.106 I6.871 J-4.098
N1220 G1 Z-5.7 F80
N1230 G3 X33.012 Y97.172 I-3.718 J7.084 F500
N1240 X25.611 Y93.287 I18.987 J-45.172
N1250 X36.199 Y82.106 I6.871 J-4.098
N1260 G0 Z5
N1270 X51.958 Y86
N1280 G1 Z2.5 F80
N1290 Z-1.5
N1300 G3 X56.18 Y100.822 I0.042 J8 F500
N1310 X47.82 I-4.18 J-48.822
N1320 X51.958 Y86 I4.18 J-6.822
N1330 G1 Z-3 F80
N1340 G3 X56.18 Y100.822 I0.042 J8 F500
N1350 X47.82 I-4.18 J-48.822
N1360 X51.958 Y86 I4.18 J-6.822
N1370 G1 Z-4.5 F80
N1380 G3 X56.18 Y100.822 I0.042 J8 F500
N1390 X47.82 I-4.18 J-48.822
N1400 X51.958 Y86 I4.18 J-6.822
N1410 G1 Z-5.7 F80
N1420 G3 X56.18 Y100.822 I0.042 J8 F500
N1430 X47.82 I-4.18 J-48.822
N1440 X51.958 Y86 I4.18 J-6.822
N1450 G0 Z5
N1460 X74.771 Y95.387
N1470 G1 Z2.5 F80
N1480 Z-1.5
N1490 G3 X70.988 Y97.172 I-22.771 J-43.387 F500
N1500 X67.801 Y82.106 I0.531 J-7.982
N1510 X78.389 Y93.287 I3.718 J7.084
N1520 X74.771 Y95.387 I-26.389 J-41.287
N1530 G1 Z-3 F80
N1540 G3 X70.988 Y97.172 I-22.771 J-43.387 F500
N1550 X67.801 Y82.106 I0.531 J-7.982
N1560 X78.389 Y93.287 I3.718 J7.084
N1570 X74.771 Y95.387 I-26.389 J-41.287
N1580 G1 Z-4.5 F80
N1590 G3 X70.988 Y97.172 I-22.771 J-43.387 F500
N1600 X67.801 Y82.106 I0.531 J-7.982
N1610 X78.389 Y93.287 I3.718 J7.084
N1620 X74.771 Y95.387 I-26.389 J-41.287
N1630 G1 Z-5.7 F80
N1640 G3 X70.988 Y97.172 I-22.771 J-43.387 F500
N1650 X67.801 Y82.106 I0.531 J-7.982
N1660 X78.389 Y93.287 I3.718 J7.084
N1670 X74.771 Y95.387 I-26.389 J-41.287
N1680 G0 Z5
N1690 X92.326 Y79.835
N1700 G1 Z2.5 F80
N1710 Z-1.5
N1720 G3 X89.805 Y83.174 I-40.326 J-27.835 F500
N1730 X79.981 Y71.314 I-3.24 J-7.315
N1740 X94.554 Y76.294 I6.584 J4.545
N1750 X92.326 Y79.835 I-42.554 J-24.294
N1760 G1 Z-3 F80
N1770 G3 X89.805 Y83.174 I-40.326 J-27.835 F500
N1780 X79.981 Y71.314 I-3.24 J-7.315
N1790 X94.554 Y76.294 I6.584 J4.545
N1800 X92.326 Y79.835 I-42.554 J-24.294
N1810 G1 Z-4.5 F80
N1820 G3 X89.805 Y83.174 I-40.326 J-27.835 F500
N1830 X79.981 Y71.314 I-3.24 J-7.315
N1840 X94.554 Y76.294 I6.584 J4.545
N1850 X92.326 Y79.835 I-42.554 J-24.294
N1860 G1 Z-5.7 F80
N1870 G3 X89.805 Y83.174 I-40.326 J-27.835 F500
N1880 X79.981 Y71.314 I-3.24 J-7.315
N1890 X94.554 Y76.294 I6.584 J4.545
N1900 X92.326 Y79.835 I-42.554 J-24.294
N1910 G0 Z5
N1920 X100.643 Y57.906
N1930 G1 Z2.5 F80
N1940 Z-1.5
N1950 G3 X99.962 Y62.034 I-48.643 J-5.904 F500
N1960 X85.752 Y56.099 I-6.268 J-4.971
N1970 X100.969 Y53.736 I7.942 J0.964
N1980 X100.643 Y57.906 I-48.969 J-1.733
N1990 G1 Z-3 F80
N2000 G3 X99.962 Y62.034 I-48.643 J-5.904 F500
N2010 X85.752 Y56.099 I-6.268 J-4.971
N2020 X100.969 Y53.736 I7.942 J0.964
N2030 X100.643 Y57.906 I-48.969 J-1.733
N2040 G1 Z-4.5 F80
N2050 G3 X99.962 Y62.034 I-48.643 J-5.904 F500
N2060 X85.752 Y56.099 I-6.268 J-4.971
N2070 X100.969 Y53.736 I7.942 J0.964
N2080 X100.643 Y57.906 I-48.969 J-1.733
N2090 G1 Z-5.7 F80
N2100 G3 X99.962 Y62.034 I-48.643 J-5.904 F500
N2110 X85.752 Y56.099 I-6.268 J-4.971
N2120 X100.969 Y53.736 I7.942 J0.964
N2130 X100.643 Y57.906 I-48.969 J-1.733
N2140 G0 Z5
N2150 X83.806 Y39.983
N2160 G1 Z2.5 F80
N2170 Z-1.5
N2180 G3 X96.167 Y30.78 I7.465 J-2.876 F500
N2190 X99.131 Y38.596 I-44.167 J21.219
N2200 X83.806 Y39.983 I-7.86 J-1.489
N2210 G1 Z-3 F80
N2220 G3 X96.167 Y30.78 I7.465 J-2.876 F500
N2230 X99.131 Y38.596 I-44.167 J21.219
N2240 X83.806 Y39.983 I-7.86 J-1.489
N2250 G1 Z-4.5 F80
N2260 G3 X96.167 Y30.78 I7.465 J-2.876 F500
N2270 X99.131 Y38.596 I-44.167 J21.219
N2280 X83.806 Y39.983 I-7.86 J-1.489
N2290 G1 Z-5.7 F80
N2300 G3 X96.167 Y30.78 I7.465 J-2.876 F500
N2310 X99.131 Y38.596 I-44.167 J21.219
N2320 X83.806 Y39.983 I-7.86 J-1.489
N2330 G0 Z5
N2340 X84.493 Y15.323
N2350 G1 Z2.5 F80
N2360 Z-1.5
N2370 G3 X87.503 Y18.228 I-32.493 J36.677 F500
N2380 X74.546 Y26.551 I-7.652 J2.334
N2390 X81.246 Y12.685 I5.305 J-5.988
N2400 X84.493 Y15.323 I-29.246 J39.315
N2410 G1 Z-3 F80
N2420 G3 X87.503 Y18.228 I-32.493 J36.677 F500
N2430 X74.546 Y26.551 I-7.652 J2.334
N2440 X81.246 Y12.685 I5.305 J-5.988
N2450 X84.493 Y15.323 I-29.246 J39.315
N2460 G1 Z-4.5 F80
N2470 G3 X87.503 Y18.228 I-32.493 J36.677 F500
N2480 X74.546 Y26.551 I-7.652 J2.334
N2490 X81.246 Y12.685 I5.305 J-5.988
N2500 X84.493 Y15.323 I-29.246 J39.315
N2510 G1 Z-5.7 F80
N2520 G3 X87.503 Y18.228 I-32.493 J36.677 F500
N2530 X74.546 Y26.551 I-7.652 J2.334
N2540 X81.246 Y12.685 I5.305 J-5.988
N2550 X84.493 Y15.323 I-29.246 J39.315
N2560 G0 Z5
N2570 X63.726 Y4.424
N2580 G1 Z2.5 F80
N2590 Z-1.5
N2600 G3 X67.742 Y5.598 I-11.726 J47.576 F500
N2610 X60.137 Y18.988 I-5.691 J5.623
N2620 X59.625 Y3.597 I1.914 J-7.768
N2630 X63.726 Y4.424 I-7.625 J48.403
N2640 G1 Z-3 F80
N2650 G3 X67.742 Y5.598 I-11.726 J47.576 F500
N2660 X60.137 Y18.988 I-5.691 J5.623
N2670 X59.625 Y3.597 I1.914 J-7.768
N2680 X63.726 Y4.424 I-7.625 J48.403
N2690 G1 Z-4.5 F80
N2700 G3 X67.742 Y5.598 I-11.726 J47.576 F500
N2710 X60.137 Y18.988 I-5.691 J5.623
N2720 X59.625 Y3.597 I1.914 J-7.768
N2730 X63.726 Y4.424 I-7.625 J48.403
N2740 G1 Z-5.7 F80
N2750 G3 X67.742 Y5.598 I-11.726 J47.576 F500
N2760 X60.137 Y18.988 I-5.691 J5.623
N2770 X59.625 Y3.597 I1.914 J-7.768
N2780 X63.726 Y4.424 I-7.625 J48.403
N2790 G0 Z5
N2800 X43.904 Y18.978
N2810 G1 Z2.5 F80
N2820 Z-1.5
N2830 G3 X36.258 Y5.598 I-1.956 J-7.757 F500
N2840 X44.375 Y3.597 I15.742 J46.403
N2850 X43.904 Y18.978 I-2.426 J7.623
N2860 G1 Z-3 F80
N2870 G3 X36.258 Y5.598 I-1.956 J-7.757 F500
N2880 X44.375 Y3.597 I15.742 J46.403
N2890 X43.904 Y18.978 I-2.426 J7.623
N2900 G1 Z-4.5 F80
N2910 G3 X36.258 Y5.598 I-1.956 J-7.757 F500
N2920 X44.375 Y3.597 I15.742 J46.403
N2930 X43.904 Y18.978 I-2.426 J7.623
N2940 G1 Z-5.7 F80
N2950 G3 X36.258 Y5.598 I-1.956 J-7.757 F500
N2960 X44.375 Y3.597 I15.742 J46.403
N2970 X43.904 Y18.978 I-2.426 J7.623
N2980 G0 Z5
N2990 X29.454 Y26.551
N3000 G1 Z2.5 F80
N3010 Z-1.5
N3020 G3 X16.497 Y18.228 I-5.305 J-5.988 F500
N3030 X22.754 Y12.685 I35.503 J33.772
N3040 X29.454 Y26.551 I1.395 J7.877
N3050 G1 Z-3 F80
N3060 G3 X16.497 Y18.228 I-5.305 J-5.988 F500
N3070 X22.754 Y12.685 I35.503 J33.772
N3080 X29.454 Y26.551 I1.395 J7.877
N3090 G1 Z-4.5 F80
N3100 G3 X16.497 Y18.228 I-5.305 J-5.988 F500
N3110 X22.754 Y12.685 I35.503 J33.772
N3120 X29.454 Y26.551 I1.395 J7.877
N3130 G1 Z-5.7 F80
N3140 G3 X16.497 Y18.228 I-5.305 J-5.988 F500
N3150 X22.754 Y12.685 I35.503 J33.772
N3160 X29.454 Y26.551 I1.395 J7.877
N3170 G0 Z5
N3180 X20.209 Y39.943
N3190 G1 Z2.5 F80
N3200 Z-1.5
N3210 G3 X4.869 Y38.596 I-7.48 J-2.837 F500
N3220 X7.833 Y30.78 I47.131 J13.404
N3230 X20.209 Y39.943 I4.896 J6.327
N3240 G1 Z-3 F80
N3250 G3 X4.869 Y38.596 I-7.48 J-2.837 F500
N3260 X7.833 Y30.78 I47.131 J13.404
N3270 X20.209 Y39.943 I4.896 J6.327
N3280 G1 Z-4.5 F80
N3290 G3 X4.869 Y38.596 I-7.48 J-2.837 F500
N3300 X7.833 Y30.78 I47.131 J13.404
N3310 X20.209 Y39.943 I4.896 J6.327
N3320 G1 Z-5.7 F80
N3330 G3 X4.869 Y38.596 I-7.48 J-2.837 F500
N3340 X7.833 Y30.78 I47.131 J13.404
N3350 X20.209 Y39.943 I4.896 J6.327
N3360 G0 Z10

(2D ??2)
N3380 X-1 Y52
N3390 Z10
N3400 Z5
N3410 G1 Z2.5 F80
N3420 Z-1.5
N3430 G2 X105 I53 J0 F500
N3440 X-1 I-53 J0
N3450 G1 Z-3 F80
N3460 G2 X105 I53 J0 F500
N3470 X-1 I-53 J0
N3480 G1 Z-4.5 F80
N3490 G2 X105 I53 J0 F500
N3500 X-1 I-53 J0
N3510 G1 Z-5.7 F80
N3520 G2 X105 I53 J0 F500
N3530 X-1 I-53 J0
N3540 G0 Z10
N3560 Z10
N3570 X0 Y0
N3580 M30
%
