%
( File Created by VCarve Pro )
T1 M6
G21 G90
G17
G0 Z 20.000
G0 X 0.000 Y 0.000
G0 X 8.599 Y 8.000 Z 6.000
G1   Z -1.450 F15000.0
G1 X 8.597 Y 8.047  F39000.0
X 8.592 Y 8.094 
X 8.583 Y 8.140 
X 8.570 Y 8.185 
X 8.554 Y 8.229 
X 8.534 Y 8.272 
X 8.511 Y 8.313 
X 8.485 Y 8.352 
X 8.456 Y 8.389 
X 8.424 Y 8.424 
X 8.389 Y 8.456 
X 8.352 Y 8.485 
X 8.313 Y 8.511 
X 8.272 Y 8.534 
X 8.229 Y 8.554 
X 8.185 Y 8.570 
X 8.140 Y 8.583 
X 8.094 Y 8.592 
X 8.047 Y 8.597 
X 8.000 Y 8.599 
X 7.953 Y 8.597 
X 7.906 Y 8.592 
X 7.860 Y 8.583 
X 7.815 Y 8.570 
X 7.771 Y 8.554 
X 7.728 Y 8.534 
X 7.687 Y 8.511 
X 7.648 Y 8.485 
X 7.611 Y 8.456 
X 7.576 Y 8.424 
X 7.544 Y 8.389 
X 7.515 Y 8.352 
X 7.489 Y 8.313 
X 7.466 Y 8.272 
X 7.446 Y 8.229 
X 7.430 Y 8.185 
X 7.417 Y 8.140 
X 7.408 Y 8.094 
X 7.403 Y 8.047 
X 7.401 Y 8.000 
X 7.403 Y 7.953 
X 7.408 Y 7.906 
X 7.417 Y 7.860 
X 7.430 Y 7.815 
X 7.446 Y 7.771 
X 7.466 Y 7.728 
X 7.489 Y 7.687 
X 7.515 Y 7.648 
X 7.544 Y 7.611 
X 7.576 Y 7.576 
X 7.611 Y 7.544 
X 7.648 Y 7.515 
X 7.687 Y 7.489 
X 7.728 Y 7.466 
X 7.771 Y 7.446 
X 7.815 Y 7.430 
X 7.860 Y 7.417 
X 7.906 Y 7.408 
X 7.953 Y 7.403 
X 8.000 Y 7.401 
X 8.047 Y 7.403 
X 8.094 Y 7.408 
X 8.140 Y 7.417 
X 8.185 Y 7.430 
X 8.229 Y 7.446 
X 8.272 Y 7.466 
X 8.313 Y 7.489 
X 8.352 Y 7.515 
X 8.389 Y 7.544 
X 8.424 Y 7.576 
X 8.456 Y 7.611 
X 8.485 Y 7.648 
X 8.511 Y 7.687 
X 8.534 Y 7.728 
X 8.554 Y 7.771 
X 8.570 Y 7.815 
X 8.583 Y 7.860 
X 8.592 Y 7.906 
X 8.597 Y 7.953 
X 8.599 Y 8.000 
G1   Z -2.900 F15000.0
G1 X 8.597 Y 8.047  F39000.0
X 8.592 Y 8.094 
X 8.583 Y 8.140 
X 8.570 Y 8.185 
X 8.554 Y 8.229 
X 8.534 Y 8.272 
X 8.511 Y 8.313 
X 8.485 Y 8.352 
X 8.456 Y 8.389 
X 8.424 Y 8.424 
X 8.389 Y 8.456 
X 8.352 Y 8.485 
X 8.313 Y 8.511 
X 8.272 Y 8.534 
X 8.229 Y 8.554 
X 8.185 Y 8.570 
X 8.140 Y 8.583 
X 8.094 Y 8.592 
X 8.047 Y 8.597 
X 8.000 Y 8.599 
X 7.953 Y 8.597 
X 7.906 Y 8.592 
X 7.860 Y 8.583 
X 7.815 Y 8.570 
X 7.771 Y 8.554 
X 7.728 Y 8.534 
X 7.687 Y 8.511 
X 7.648 Y 8.485 
X 7.611 Y 8.456 
X 7.576 Y 8.424 
X 7.544 Y 8.389 
X 7.515 Y 8.352 
X 7.489 Y 8.313 
X 7.466 Y 8.272 
X 7.446 Y 8.229 
X 7.430 Y 8.185 
X 7.417 Y 8.140 
X 7.408 Y 8.094 
X 7.403 Y 8.047 
X 7.401 Y 8.000 
X 7.403 Y 7.953 
X 7.408 Y 7.906 
X 7.417 Y 7.860 
X 7.430 Y 7.815 
X 7.446 Y 7.771 
X 7.466 Y 7.728 
X 7.489 Y 7.687 
X 7.515 Y 7.648 
X 7.544 Y 7.611 
X 7.576 Y 7.576 
X 7.611 Y 7.544 
X 7.648 Y 7.515 
X 7.687 Y 7.489 
X 7.728 Y 7.466 
X 7.771 Y 7.446 
X 7.815 Y 7.430 
X 7.860 Y 7.417 
X 7.906 Y 7.408 
X 7.953 Y 7.403 
X 8.000 Y 7.401 
X 8.047 Y 7.403 
X 8.094 Y 7.408 
X 8.140 Y 7.417 
X 8.185 Y 7.430 
X 8.229 Y 7.446 
X 8.272 Y 7.466 
X 8.313 Y 7.489 
X 8.352 Y 7.515 
X 8.389 Y 7.544 
X 8.424 Y 7.576 
X 8.456 Y 7.611 
X 8.485 Y 7.648 
X 8.511 Y 7.687 
X 8.534 Y 7.728 
X 8.554 Y 7.771 
X 8.570 Y 7.815 
X 8.583 Y 7.860 
X 8.592 Y 7.906 
X 8.597 Y 7.953 
X 8.599 Y 8.000 
G1   Z -4.350 F15000.0
G1 X 8.597 Y 8.047  F39000.0
X 8.592 Y 8.094 
X 8.583 Y 8.140 
X 8.570 Y 8.185 
X 8.554 Y 8.229 
X 8.534 Y 8.272 
X 8.511 Y 8.313 
X 8.485 Y 8.352 
X 8.456 Y 8.389 
X 8.424 Y 8.424 
X 8.389 Y 8.456 
X 8.352 Y 8.485 
X 8.313 Y 8.511 
X 8.272 Y 8.534 
X 8.229 Y 8.554 
X 8.185 Y 8.570 
X 8.140 Y 8.583 
X 8.094 Y 8.592 
X 8.047 Y 8.597 
X 8.000 Y 8.599 
X 7.953 Y 8.597 
X 7.906 Y 8.592 
X 7.860 Y 8.583 
X 7.815 Y 8.570 
X 7.771 Y 8.554 
X 7.728 Y 8.534 
X 7.687 Y 8.511 
X 7.648 Y 8.485 
X 7.611 Y 8.456 
X 7.576 Y 8.424 
X 7.544 Y 8.389 
X 7.515 Y 8.352 
X 7.489 Y 8.313 
X 7.466 Y 8.272 
X 7.446 Y 8.229 
X 7.430 Y 8.185 
X 7.417 Y 8.140 
X 7.408 Y 8.094 
X 7.403 Y 8.047 
X 7.401 Y 8.000 
X 7.403 Y 7.953 
X 7.408 Y 7.906 
X 7.417 Y 7.860 
X 7.430 Y 7.815 
X 7.446 Y 7.771 
X 7.466 Y 7.728 
X 7.489 Y 7.687 
X 7.515 Y 7.648 
X 7.544 Y 7.611 
X 7.576 Y 7.576 
X 7.611 Y 7.544 
X 7.648 Y 7.515 
X 7.687 Y 7.489 
X 7.728 Y 7.466 
X 7.771 Y 7.446 
X 7.815 Y 7.430 
X 7.860 Y 7.417 
X 7.906 Y 7.408 
X 7.953 Y 7.403 
X 8.000 Y 7.401 
X 8.047 Y 7.403 
X 8.094 Y 7.408 
X 8.140 Y 7.417 
X 8.185 Y 7.430 
X 8.229 Y 7.446 
X 8.272 Y 7.466 
X 8.313 Y 7.489 
X 8.352 Y 7.515 
X 8.389 Y 7.544 
X 8.424 Y 7.576 
X 8.456 Y 7.611 
X 8.485 Y 7.648 
X 8.511 Y 7.687 
X 8.534 Y 7.728 
X 8.554 Y 7.771 
X 8.570 Y 7.815 
X 8.583 Y 7.860 
X 8.592 Y 7.906 
X 8.597 Y 7.953 
X 8.599 Y 8.000 
G1   Z -5.800 F15000.0
G1 X 8.597 Y 8.047  F39000.0
X 8.592 Y 8.094 
X 8.583 Y 8.140 
X 8.570 Y 8.185 
X 8.554 Y 8.229 
X 8.534 Y 8.272 
X 8.511 Y 8.313 
X 8.485 Y 8.352 
X 8.456 Y 8.389 
X 8.424 Y 8.424 
X 8.389 Y 8.456 
X 8.352 Y 8.485 
X 8.313 Y 8.511 
X 8.272 Y 8.534 
X 8.229 Y 8.554 
X 8.185 Y 8.570 
X 8.140 Y 8.583 
X 8.094 Y 8.592 
X 8.047 Y 8.597 
X 8.000 Y 8.599 
X 7.953 Y 8.597 
X 7.906 Y 8.592 
X 7.860 Y 8.583 
X 7.815 Y 8.570 
X 7.771 Y 8.554 
X 7.728 Y 8.534 
X 7.687 Y 8.511 
X 7.648 Y 8.485 
X 7.611 Y 8.456 
X 7.576 Y 8.424 
X 7.544 Y 8.389 
X 7.515 Y 8.352 
X 7.489 Y 8.313 
X 7.466 Y 8.272 
X 7.446 Y 8.229 
X 7.430 Y 8.185 
X 7.417 Y 8.140 
X 7.408 Y 8.094 
X 7.403 Y 8.047 
X 7.401 Y 8.000 
X 7.403 Y 7.953 
X 7.408 Y 7.906 
X 7.417 Y 7.860 
X 7.430 Y 7.815 
X 7.446 Y 7.771 
X 7.466 Y 7.728 
X 7.489 Y 7.687 
X 7.515 Y 7.648 
X 7.544 Y 7.611 
X 7.576 Y 7.576 
X 7.611 Y 7.544 
X 7.648 Y 7.515 
X 7.687 Y 7.489 
X 7.728 Y 7.466 
X 7.771 Y 7.446 
X 7.815 Y 7.430 
X 7.860 Y 7.417 
X 7.906 Y 7.408 
X 7.953 Y 7.403 
X 8.000 Y 7.401 
X 8.047 Y 7.403 
X 8.094 Y 7.408 
X 8.140 Y 7.417 
X 8.185 Y 7.430 
X 8.229 Y 7.446 
X 8.272 Y 7.466 
X 8.313 Y 7.489 
X 8.352 Y 7.515 
X 8.389 Y 7.544 
X 8.424 Y 7.576 
X 8.456 Y 7.611 
X 8.485 Y 7.648 
X 8.511 Y 7.687 
X 8.534 Y 7.728 
X 8.554 Y 7.771 
X 8.570 Y 7.815 
X 8.583 Y 7.860 
X 8.592 Y 7.906 
X 8.597 Y 7.953 
X 8.599 Y 8.000 
G0   Z 6.000
G0 X 23.896 Y 23.000 
G1   Z -1.450 F15000.0
G1 X 23.894 Y 23.047  F39000.0
X 23.888 Y 23.094 
X 23.879 Y 23.140 
X 23.866 Y 23.185 
X 23.850 Y 23.229 
X 23.830 Y 23.272 
X 23.807 Y 23.313 
X 23.781 Y 23.352 
X 23.752 Y 23.389 
X 23.720 Y 23.424 
X 23.686 Y 23.456 
X 23.649 Y 23.485 
X 23.610 Y 23.511 
X 23.568 Y 23.534 
X 23.526 Y 23.554 
X 23.482 Y 23.570 
X 23.436 Y 23.583 
X 23.390 Y 23.592 
X 23.343 Y 23.597 
X 23.296 Y 23.599 
X 23.249 Y 23.597 
X 23.203 Y 23.592 
X 23.157 Y 23.583 
X 23.111 Y 23.570 
X 23.067 Y 23.554 
X 23.024 Y 23.534 
X 22.983 Y 23.511 
X 22.944 Y 23.485 
X 22.907 Y 23.456 
X 22.873 Y 23.424 
X 22.841 Y 23.389 
X 22.812 Y 23.352 
X 22.785 Y 23.313 
X 22.763 Y 23.272 
X 22.743 Y 23.229 
X 22.727 Y 23.185 
X 22.714 Y 23.140 
X 22.705 Y 23.094 
X 22.699 Y 23.047 
X 22.697 Y 23.000 
X 22.699 Y 22.953 
X 22.705 Y 22.906 
X 22.714 Y 22.860 
X 22.727 Y 22.815 
X 22.743 Y 22.771 
X 22.763 Y 22.728 
X 22.785 Y 22.687 
X 22.812 Y 22.648 
X 22.841 Y 22.611 
X 22.873 Y 22.576 
X 22.907 Y 22.544 
X 22.944 Y 22.515 
X 22.983 Y 22.489 
X 23.024 Y 22.466 
X 23.067 Y 22.446 
X 23.111 Y 22.430 
X 23.157 Y 22.417 
X 23.203 Y 22.408 
X 23.249 Y 22.403 
X 23.296 Y 22.401 
X 23.343 Y 22.403 
X 23.390 Y 22.408 
X 23.436 Y 22.417 
X 23.482 Y 22.430 
X 23.526 Y 22.446 
X 23.568 Y 22.466 
X 23.610 Y 22.489 
X 23.649 Y 22.515 
X 23.686 Y 22.544 
X 23.720 Y 22.576 
X 23.752 Y 22.611 
X 23.781 Y 22.648 
X 23.807 Y 22.687 
X 23.830 Y 22.728 
X 23.850 Y 22.771 
X 23.866 Y 22.815 
X 23.879 Y 22.860 
X 23.888 Y 22.906 
X 23.894 Y 22.953 
X 23.896 Y 23.000 
G1   Z -2.900 F15000.0
G1 X 23.894 Y 23.047  F39000.0
X 23.888 Y 23.094 
X 23.879 Y 23.140 
X 23.866 Y 23.185 
X 23.850 Y 23.229 
X 23.830 Y 23.272 
X 23.807 Y 23.313 
X 23.781 Y 23.352 
X 23.752 Y 23.389 
X 23.720 Y 23.424 
X 23.686 Y 23.456 
X 23.649 Y 23.485 
X 23.610 Y 23.511 
X 23.568 Y 23.534 
X 23.526 Y 23.554 
X 23.482 Y 23.570 
X 23.436 Y 23.583 
X 23.390 Y 23.592 
X 23.343 Y 23.597 
X 23.296 Y 23.599 
X 23.249 Y 23.597 
X 23.203 Y 23.592 
X 23.157 Y 23.583 
X 23.111 Y 23.570 
X 23.067 Y 23.554 
X 23.024 Y 23.534 
X 22.983 Y 23.511 
X 22.944 Y 23.485 
X 22.907 Y 23.456 
X 22.873 Y 23.424 
X 22.841 Y 23.389 
X 22.812 Y 23.352 
X 22.785 Y 23.313 
X 22.763 Y 23.272 
X 22.743 Y 23.229 
X 22.727 Y 23.185 
X 22.714 Y 23.140 
X 22.705 Y 23.094 
X 22.699 Y 23.047 
X 22.697 Y 23.000 
X 22.699 Y 22.953 
X 22.705 Y 22.906 
X 22.714 Y 22.860 
X 22.727 Y 22.815 
X 22.743 Y 22.771 
X 22.763 Y 22.728 
X 22.785 Y 22.687 
X 22.812 Y 22.648 
X 22.841 Y 22.611 
X 22.873 Y 22.576 
X 22.907 Y 22.544 
X 22.944 Y 22.515 
X 22.983 Y 22.489 
X 23.024 Y 22.466 
X 23.067 Y 22.446 
X 23.111 Y 22.430 
X 23.157 Y 22.417 
X 23.203 Y 22.408 
X 23.249 Y 22.403 
X 23.296 Y 22.401 
X 23.343 Y 22.403 
X 23.390 Y 22.408 
X 23.436 Y 22.417 
X 23.482 Y 22.430 
X 23.526 Y 22.446 
X 23.568 Y 22.466 
X 23.610 Y 22.489 
X 23.649 Y 22.515 
X 23.686 Y 22.544 
X 23.720 Y 22.576 
X 23.752 Y 22.611 
X 23.781 Y 22.648 
X 23.807 Y 22.687 
X 23.830 Y 22.728 
X 23.850 Y 22.771 
X 23.866 Y 22.815 
X 23.879 Y 22.860 
X 23.888 Y 22.906 
X 23.894 Y 22.953 
X 23.896 Y 23.000 
G1   Z -4.350 F15000.0
G1 X 23.894 Y 23.047  F39000.0
X 23.888 Y 23.094 
X 23.879 Y 23.140 
X 23.866 Y 23.185 
X 23.850 Y 23.229 
X 23.830 Y 23.272 
X 23.807 Y 23.313 
X 23.781 Y 23.352 
X 23.752 Y 23.389 
X 23.720 Y 23.424 
X 23.686 Y 23.456 
X 23.649 Y 23.485 
X 23.610 Y 23.511 
X 23.568 Y 23.534 
X 23.526 Y 23.554 
X 23.482 Y 23.570 
X 23.436 Y 23.583 
X 23.390 Y 23.592 
X 23.343 Y 23.597 
X 23.296 Y 23.599 
X 23.249 Y 23.597 
X 23.203 Y 23.592 
X 23.157 Y 23.583 
X 23.111 Y 23.570 
X 23.067 Y 23.554 
X 23.024 Y 23.534 
X 22.983 Y 23.511 
X 22.944 Y 23.485 
X 22.907 Y 23.456 
X 22.873 Y 23.424 
X 22.841 Y 23.389 
X 22.812 Y 23.352 
X 22.785 Y 23.313 
X 22.763 Y 23.272 
X 22.743 Y 23.229 
X 22.727 Y 23.185 
X 22.714 Y 23.140 
X 22.705 Y 23.094 
X 22.699 Y 23.047 
X 22.697 Y 23.000 
X 22.699 Y 22.953 
X 22.705 Y 22.906 
X 22.714 Y 22.860 
X 22.727 Y 22.815 
X 22.743 Y 22.771 
X 22.763 Y 22.728 
X 22.785 Y 22.687 
X 22.812 Y 22.648 
X 22.841 Y 22.611 
X 22.873 Y 22.576 
X 22.907 Y 22.544 
X 22.944 Y 22.515 
X 22.983 Y 22.489 
X 23.024 Y 22.466 
X 23.067 Y 22.446 
X 23.111 Y 22.430 
X 23.157 Y 22.417 
X 23.203 Y 22.408 
X 23.249 Y 22.403 
X 23.296 Y 22.401 
X 23.343 Y 22.403 
X 23.390 Y 22.408 
X 23.436 Y 22.417 
X 23.482 Y 22.430 
X 23.526 Y 22.446 
X 23.568 Y 22.466 
X 23.610 Y 22.489 
X 23.649 Y 22.515 
X 23.686 Y 22.544 
X 23.720 Y 22.576 
X 23.752 Y 22.611 
X 23.781 Y 22.648 
X 23.807 Y 22.687 
X 23.830 Y 22.728 
X 23.850 Y 22.771 
X 23.866 Y 22.815 
X 23.879 Y 22.860 
X 23.888 Y 22.906 
X 23.894 Y 22.953 
X 23.896 Y 23.000 
G1   Z -5.800 F15000.0
G1 X 23.894 Y 23.047  F39000.0
X 23.888 Y 23.094 
X 23.879 Y 23.140 
X 23.866 Y 23.185 
X 23.850 Y 23.229 
X 23.830 Y 23.272 
X 23.807 Y 23.313 
X 23.781 Y 23.352 
X 23.752 Y 23.389 
X 23.720 Y 23.424 
X 23.686 Y 23.456 
X 23.649 Y 23.485 
X 23.610 Y 23.511 
X 23.568 Y 23.534 
X 23.526 Y 23.554 
X 23.482 Y 23.570 
X 23.436 Y 23.583 
X 23.390 Y 23.592 
X 23.343 Y 23.597 
X 23.296 Y 23.599 
X 23.249 Y 23.597 
X 23.203 Y 23.592 
X 23.157 Y 23.583 
X 23.111 Y 23.570 
X 23.067 Y 23.554 
X 23.024 Y 23.534 
X 22.983 Y 23.511 
X 22.944 Y 23.485 
X 22.907 Y 23.456 
X 22.873 Y 23.424 
X 22.841 Y 23.389 
X 22.812 Y 23.352 
X 22.785 Y 23.313 
X 22.763 Y 23.272 
X 22.743 Y 23.229 
X 22.727 Y 23.185 
X 22.714 Y 23.140 
X 22.705 Y 23.094 
X 22.699 Y 23.047 
X 22.697 Y 23.000 
X 22.699 Y 22.953 
X 22.705 Y 22.906 
X 22.714 Y 22.860 
X 22.727 Y 22.815 
X 22.743 Y 22.771 
X 22.763 Y 22.728 
X 22.785 Y 22.687 
X 22.812 Y 22.648 
X 22.841 Y 22.611 
X 22.873 Y 22.576 
X 22.907 Y 22.544 
X 22.944 Y 22.515 
X 22.983 Y 22.489 
X 23.024 Y 22.466 
X 23.067 Y 22.446 
X 23.111 Y 22.430 
X 23.157 Y 22.417 
X 23.203 Y 22.408 
X 23.249 Y 22.403 
X 23.296 Y 22.401 
X 23.343 Y 22.403 
X 23.390 Y 22.408 
X 23.436 Y 22.417 
X 23.482 Y 22.430 
X 23.526 Y 22.446 
X 23.568 Y 22.466 
X 23.610 Y 22.489 
X 23.649 Y 22.515 
X 23.686 Y 22.544 
X 23.720 Y 22.576 
X 23.752 Y 22.611 
X 23.781 Y 22.648 
X 23.807 Y 22.687 
X 23.830 Y 22.728 
X 23.850 Y 22.771 
X 23.866 Y 22.815 
X 23.879 Y 22.860 
X 23.888 Y 22.906 
X 23.894 Y 22.953 
X 23.896 Y 23.000 
G0   Z 6.000
G0 X 39.150 Y 8.000 
G1   Z -1.450 F15000.0
G3 X 38.000 Y 9.150 I-1.150 J0.000 F39000.0
G3 X 36.850 Y 8.000 I0.000 J-1.150
G3 X 38.000 Y 6.850 I1.150 J0.000
G3 X 39.150 Y 8.000 I0.000 J1.150
G1   Z -2.900 F15000.0
G3 X 38.000 Y 9.150 I-1.150 J0.000 F39000.0
G3 X 36.850 Y 8.000 I0.000 J-1.150
G3 X 38.000 Y 6.850 I1.150 J0.000
G3 X 39.150 Y 8.000 I0.000 J1.150
G1   Z -4.350 F15000.0
G3 X 38.000 Y 9.150 I-1.150 J0.000 F39000.0
G3 X 36.850 Y 8.000 I0.000 J-1.150
G3 X 38.000 Y 6.850 I1.150 J0.000
G3 X 39.150 Y 8.000 I0.000 J1.150
G1   Z -5.800 F15000.0
G3 X 38.000 Y 9.150 I-1.150 J0.000 F39000.0
G3 X 36.850 Y 8.000 I0.000 J-1.150
G3 X 38.000 Y 6.850 I1.150 J0.000
G3 X 39.150 Y 8.000 I0.000 J1.150
G0   Z 6.000
G0 X 53.150  
G1   Z -1.450 F15000.0
G3 X 52.000 Y 9.150 I-1.150 J0.000 F39000.0
G3 X 50.850 Y 8.000 I0.000 J-1.150
G3 X 52.000 Y 6.850 I1.150 J0.000
G3 X 53.150 Y 8.000 I0.000 J1.150
G1   Z -2.900 F15000.0
G3 X 52.000 Y 9.150 I-1.150 J0.000 F39000.0
G3 X 50.850 Y 8.000 I0.000 J-1.150
G3 X 52.000 Y 6.850 I1.150 J0.000
G3 X 53.150 Y 8.000 I0.000 J1.150
G1   Z -4.350 F15000.0
G3 X 52.000 Y 9.150 I-1.150 J0.000 F39000.0
G3 X 50.850 Y 8.000 I0.000 J-1.150
G3 X 52.000 Y 6.850 I1.150 J0.000
G3 X 53.150 Y 8.000 I0.000 J1.150
G1   Z -5.800 F15000.0
G3 X 52.000 Y 9.150 I-1.150 J0.000 F39000.0
G3 X 50.850 Y 8.000 I0.000 J-1.150
G3 X 52.000 Y 6.850 I1.150 J0.000
G3 X 53.150 Y 8.000 I0.000 J1.150
G0   Z 6.000
G0 X 79.150  
G1   Z -1.450 F15000.0
G3 X 78.000 Y 9.150 I-1.150 J0.000 F39000.0
G3 X 76.850 Y 8.000 I0.000 J-1.150
G3 X 78.000 Y 6.850 I1.150 J0.000
G3 X 79.150 Y 8.000 I0.000 J1.150
G1   Z -2.900 F15000.0
G3 X 78.000 Y 9.150 I-1.150 J0.000 F39000.0
G3 X 76.850 Y 8.000 I0.000 J-1.150
G3 X 78.000 Y 6.850 I1.150 J0.000
G3 X 79.150 Y 8.000 I0.000 J1.150
G1   Z -4.350 F15000.0
G3 X 78.000 Y 9.150 I-1.150 J0.000 F39000.0
G3 X 76.850 Y 8.000 I0.000 J-1.150
G3 X 78.000 Y 6.850 I1.150 J0.000
G3 X 79.150 Y 8.000 I0.000 J1.150
G1   Z -5.800 F15000.0
G3 X 78.000 Y 9.150 I-1.150 J0.000 F39000.0
G3 X 76.850 Y 8.000 I0.000 J-1.150
G3 X 78.000 Y 6.850 I1.150 J0.000
G3 X 79.150 Y 8.000 I0.000 J1.150
G0   Z 6.000
G0 X 93.150  
G1   Z -1.450 F15000.0
G3 X 92.000 Y 9.150 I-1.150 J0.000 F39000.0
G3 X 90.850 Y 8.000 I0.000 J-1.150
G3 X 92.000 Y 6.850 I1.150 J0.000
G3 X 93.150 Y 8.000 I0.000 J1.150
G1   Z -2.900 F15000.0
G3 X 92.000 Y 9.150 I-1.150 J0.000 F39000.0
G3 X 90.850 Y 8.000 I0.000 J-1.150
G3 X 92.000 Y 6.850 I1.150 J0.000
G3 X 93.150 Y 8.000 I0.000 J1.150
G1   Z -4.350 F15000.0
G3 X 92.000 Y 9.150 I-1.150 J0.000 F39000.0
G3 X 90.850 Y 8.000 I0.000 J-1.150
G3 X 92.000 Y 6.850 I1.150 J0.000
G3 X 93.150 Y 8.000 I0.000 J1.150
G1   Z -5.800 F15000.0
G3 X 92.000 Y 9.150 I-1.150 J0.000 F39000.0
G3 X 90.850 Y 8.000 I0.000 J-1.150
G3 X 92.000 Y 6.850 I1.150 J0.000
G3 X 93.150 Y 8.000 I0.000 J1.150
G0   Z 6.000
G0 X 107.303 Y 23.000 
G1   Z -1.450 F15000.0
G1 X 107.301 Y 23.047  F39000.0
X 107.295 Y 23.094 
X 107.286 Y 23.140 
X 107.273 Y 23.185 
X 107.257 Y 23.229 
X 107.237 Y 23.272 
X 107.215 Y 23.313 
X 107.188 Y 23.352 
X 107.159 Y 23.389 
X 107.127 Y 23.424 
X 107.093 Y 23.456 
X 107.056 Y 23.485 
X 107.017 Y 23.511 
X 106.976 Y 23.534 
X 106.933 Y 23.554 
X 106.889 Y 23.570 
X 106.843 Y 23.583 
X 106.797 Y 23.592 
X 106.751 Y 23.597 
X 106.704 Y 23.599 
X 106.657 Y 23.597 
X 106.610 Y 23.592 
X 106.564 Y 23.583 
X 106.518 Y 23.570 
X 106.474 Y 23.554 
X 106.432 Y 23.534 
X 106.390 Y 23.511 
X 106.351 Y 23.485 
X 106.314 Y 23.456 
X 106.280 Y 23.424 
X 106.248 Y 23.389 
X 106.219 Y 23.352 
X 106.193 Y 23.313 
X 106.170 Y 23.272 
X 106.150 Y 23.229 
X 106.134 Y 23.185 
X 106.121 Y 23.140 
X 106.112 Y 23.094 
X 106.106 Y 23.047 
X 106.104 Y 23.000 
X 106.106 Y 22.953 
X 106.112 Y 22.906 
X 106.121 Y 22.860 
X 106.134 Y 22.815 
X 106.150 Y 22.771 
X 106.170 Y 22.728 
X 106.193 Y 22.687 
X 106.219 Y 22.648 
X 106.248 Y 22.611 
X 106.280 Y 22.576 
X 106.314 Y 22.544 
X 106.351 Y 22.515 
X 106.390 Y 22.489 
X 106.432 Y 22.466 
X 106.474 Y 22.446 
X 106.518 Y 22.430 
X 106.564 Y 22.417 
X 106.610 Y 22.408 
X 106.657 Y 22.403 
X 106.704 Y 22.401 
X 106.751 Y 22.403 
X 106.797 Y 22.408 
X 106.843 Y 22.417 
X 106.889 Y 22.430 
X 106.933 Y 22.446 
X 106.976 Y 22.466 
X 107.017 Y 22.489 
X 107.056 Y 22.515 
X 107.093 Y 22.544 
X 107.127 Y 22.576 
X 107.159 Y 22.611 
X 107.188 Y 22.648 
X 107.215 Y 22.687 
X 107.237 Y 22.728 
X 107.257 Y 22.771 
X 107.273 Y 22.815 
X 107.286 Y 22.860 
X 107.295 Y 22.906 
X 107.301 Y 22.953 
X 107.303 Y 23.000 
G1   Z -2.900 F15000.0
G1 X 107.301 Y 23.047  F39000.0
X 107.295 Y 23.094 
X 107.286 Y 23.140 
X 107.273 Y 23.185 
X 107.257 Y 23.229 
X 107.237 Y 23.272 
X 107.215 Y 23.313 
X 107.188 Y 23.352 
X 107.159 Y 23.389 
X 107.127 Y 23.424 
X 107.093 Y 23.456 
X 107.056 Y 23.485 
X 107.017 Y 23.511 
X 106.976 Y 23.534 
X 106.933 Y 23.554 
X 106.889 Y 23.570 
X 106.843 Y 23.583 
X 106.797 Y 23.592 
X 106.751 Y 23.597 
X 106.704 Y 23.599 
X 106.657 Y 23.597 
X 106.610 Y 23.592 
X 106.564 Y 23.583 
X 106.518 Y 23.570 
X 106.474 Y 23.554 
X 106.432 Y 23.534 
X 106.390 Y 23.511 
X 106.351 Y 23.485 
X 106.314 Y 23.456 
X 106.280 Y 23.424 
X 106.248 Y 23.389 
X 106.219 Y 23.352 
X 106.193 Y 23.313 
X 106.170 Y 23.272 
X 106.150 Y 23.229 
X 106.134 Y 23.185 
X 106.121 Y 23.140 
X 106.112 Y 23.094 
X 106.106 Y 23.047 
X 106.104 Y 23.000 
X 106.106 Y 22.953 
X 106.112 Y 22.906 
X 106.121 Y 22.860 
X 106.134 Y 22.815 
X 106.150 Y 22.771 
X 106.170 Y 22.728 
X 106.193 Y 22.687 
X 106.219 Y 22.648 
X 106.248 Y 22.611 
X 106.280 Y 22.576 
X 106.314 Y 22.544 
X 106.351 Y 22.515 
X 106.390 Y 22.489 
X 106.432 Y 22.466 
X 106.474 Y 22.446 
X 106.518 Y 22.430 
X 106.564 Y 22.417 
X 106.610 Y 22.408 
X 106.657 Y 22.403 
X 106.704 Y 22.401 
X 106.751 Y 22.403 
X 106.797 Y 22.408 
X 106.843 Y 22.417 
X 106.889 Y 22.430 
X 106.933 Y 22.446 
X 106.976 Y 22.466 
X 107.017 Y 22.489 
X 107.056 Y 22.515 
X 107.093 Y 22.544 
X 107.127 Y 22.576 
X 107.159 Y 22.611 
X 107.188 Y 22.648 
X 107.215 Y 22.687 
X 107.237 Y 22.728 
X 107.257 Y 22.771 
X 107.273 Y 22.815 
X 107.286 Y 22.860 
X 107.295 Y 22.906 
X 107.301 Y 22.953 
X 107.303 Y 23.000 
G1   Z -4.350 F15000.0
G1 X 107.301 Y 23.047  F39000.0
X 107.295 Y 23.094 
X 107.286 Y 23.140 
X 107.273 Y 23.185 
X 107.257 Y 23.229 
X 107.237 Y 23.272 
X 107.215 Y 23.313 
X 107.188 Y 23.352 
X 107.159 Y 23.389 
X 107.127 Y 23.424 
X 107.093 Y 23.456 
X 107.056 Y 23.485 
X 107.017 Y 23.511 
X 106.976 Y 23.534 
X 106.933 Y 23.554 
X 106.889 Y 23.570 
X 106.843 Y 23.583 
X 106.797 Y 23.592 
X 106.751 Y 23.597 
X 106.704 Y 23.599 
X 106.657 Y 23.597 
X 106.610 Y 23.592 
X 106.564 Y 23.583 
X 106.518 Y 23.570 
X 106.474 Y 23.554 
X 106.432 Y 23.534 
X 106.390 Y 23.511 
X 106.351 Y 23.485 
X 106.314 Y 23.456 
X 106.280 Y 23.424 
X 106.248 Y 23.389 
X 106.219 Y 23.352 
X 106.193 Y 23.313 
X 106.170 Y 23.272 
X 106.150 Y 23.229 
X 106.134 Y 23.185 
X 106.121 Y 23.140 
X 106.112 Y 23.094 
X 106.106 Y 23.047 
X 106.104 Y 23.000 
X 106.106 Y 22.953 
X 106.112 Y 22.906 
X 106.121 Y 22.860 
X 106.134 Y 22.815 
X 106.150 Y 22.771 
X 106.170 Y 22.728 
X 106.193 Y 22.687 
X 106.219 Y 22.648 
X 106.248 Y 22.611 
X 106.280 Y 22.576 
X 106.314 Y 22.544 
X 106.351 Y 22.515 
X 106.390 Y 22.489 
X 106.432 Y 22.466 
X 106.474 Y 22.446 
X 106.518 Y 22.430 
X 106.564 Y 22.417 
X 106.610 Y 22.408 
X 106.657 Y 22.403 
X 106.704 Y 22.401 
X 106.751 Y 22.403 
X 106.797 Y 22.408 
X 106.843 Y 22.417 
X 106.889 Y 22.430 
X 106.933 Y 22.446 
X 106.976 Y 22.466 
X 107.017 Y 22.489 
X 107.056 Y 22.515 
X 107.093 Y 22.544 
X 107.127 Y 22.576 
X 107.159 Y 22.611 
X 107.188 Y 22.648 
X 107.215 Y 22.687 
X 107.237 Y 22.728 
X 107.257 Y 22.771 
X 107.273 Y 22.815 
X 107.286 Y 22.860 
X 107.295 Y 22.906 
X 107.301 Y 22.953 
X 107.303 Y 23.000 
G1   Z -5.800 F15000.0
G1 X 107.301 Y 23.047  F39000.0
X 107.295 Y 23.094 
X 107.286 Y 23.140 
X 107.273 Y 23.185 
X 107.257 Y 23.229 
X 107.237 Y 23.272 
X 107.215 Y 23.313 
X 107.188 Y 23.352 
X 107.159 Y 23.389 
X 107.127 Y 23.424 
X 107.093 Y 23.456 
X 107.056 Y 23.485 
X 107.017 Y 23.511 
X 106.976 Y 23.534 
X 106.933 Y 23.554 
X 106.889 Y 23.570 
X 106.843 Y 23.583 
X 106.797 Y 23.592 
X 106.751 Y 23.597 
X 106.704 Y 23.599 
X 106.657 Y 23.597 
X 106.610 Y 23.592 
X 106.564 Y 23.583 
X 106.518 Y 23.570 
X 106.474 Y 23.554 
X 106.432 Y 23.534 
X 106.390 Y 23.511 
X 106.351 Y 23.485 
X 106.314 Y 23.456 
X 106.280 Y 23.424 
X 106.248 Y 23.389 
X 106.219 Y 23.352 
X 106.193 Y 23.313 
X 106.170 Y 23.272 
X 106.150 Y 23.229 
X 106.134 Y 23.185 
X 106.121 Y 23.140 
X 106.112 Y 23.094 
X 106.106 Y 23.047 
X 106.104 Y 23.000 
X 106.106 Y 22.953 
X 106.112 Y 22.906 
X 106.121 Y 22.860 
X 106.134 Y 22.815 
X 106.150 Y 22.771 
X 106.170 Y 22.728 
X 106.193 Y 22.687 
X 106.219 Y 22.648 
X 106.248 Y 22.611 
X 106.280 Y 22.576 
X 106.314 Y 22.544 
X 106.351 Y 22.515 
X 106.390 Y 22.489 
X 106.432 Y 22.466 
X 106.474 Y 22.446 
X 106.518 Y 22.430 
X 106.564 Y 22.417 
X 106.610 Y 22.408 
X 106.657 Y 22.403 
X 106.704 Y 22.401 
X 106.751 Y 22.403 
X 106.797 Y 22.408 
X 106.843 Y 22.417 
X 106.889 Y 22.430 
X 106.933 Y 22.446 
X 106.976 Y 22.466 
X 107.017 Y 22.489 
X 107.056 Y 22.515 
X 107.093 Y 22.544 
X 107.127 Y 22.576 
X 107.159 Y 22.611 
X 107.188 Y 22.648 
X 107.215 Y 22.687 
X 107.237 Y 22.728 
X 107.257 Y 22.771 
X 107.273 Y 22.815 
X 107.286 Y 22.860 
X 107.295 Y 22.906 
X 107.301 Y 22.953 
X 107.303 Y 23.000 
G0   Z 6.000
G0 X 122.599 Y 8.000 
G1   Z -1.450 F15000.0
G1 X 122.597 Y 8.047  F39000.0
X 122.592 Y 8.094 
X 122.583 Y 8.140 
X 122.570 Y 8.185 
X 122.554 Y 8.229 
X 122.534 Y 8.272 
X 122.511 Y 8.313 
X 122.485 Y 8.352 
X 122.456 Y 8.389 
X 122.424 Y 8.424 
X 122.389 Y 8.456 
X 122.352 Y 8.485 
X 122.313 Y 8.511 
X 122.272 Y 8.534 
X 122.229 Y 8.554 
X 122.185 Y 8.570 
X 122.140 Y 8.583 
X 122.094 Y 8.592 
X 122.047 Y 8.597 
X 122.000 Y 8.599 
X 121.953 Y 8.597 
X 121.906 Y 8.592 
X 121.860 Y 8.583 
X 121.815 Y 8.570 
X 121.771 Y 8.554 
X 121.728 Y 8.534 
X 121.687 Y 8.511 
X 121.648 Y 8.485 
X 121.611 Y 8.456 
X 121.576 Y 8.424 
X 121.544 Y 8.389 
X 121.515 Y 8.352 
X 121.489 Y 8.313 
X 121.466 Y 8.272 
X 121.446 Y 8.229 
X 121.430 Y 8.185 
X 121.417 Y 8.140 
X 121.408 Y 8.094 
X 121.403 Y 8.047 
X 121.401 Y 8.000 
X 121.403 Y 7.953 
X 121.408 Y 7.906 
X 121.417 Y 7.860 
X 121.430 Y 7.815 
X 121.446 Y 7.771 
X 121.466 Y 7.728 
X 121.489 Y 7.687 
X 121.515 Y 7.648 
X 121.544 Y 7.611 
X 121.576 Y 7.576 
X 121.611 Y 7.544 
X 121.648 Y 7.515 
X 121.687 Y 7.489 
X 121.728 Y 7.466 
X 121.771 Y 7.446 
X 121.815 Y 7.430 
X 121.860 Y 7.417 
X 121.906 Y 7.408 
X 121.953 Y 7.403 
X 122.000 Y 7.401 
X 122.047 Y 7.403 
X 122.094 Y 7.408 
X 122.140 Y 7.417 
X 122.185 Y 7.430 
X 122.229 Y 7.446 
X 122.272 Y 7.466 
X 122.313 Y 7.489 
X 122.352 Y 7.515 
X 122.389 Y 7.544 
X 122.424 Y 7.576 
X 122.456 Y 7.611 
X 122.485 Y 7.648 
X 122.511 Y 7.687 
X 122.534 Y 7.728 
X 122.554 Y 7.771 
X 122.570 Y 7.815 
X 122.583 Y 7.860 
X 122.592 Y 7.906 
X 122.597 Y 7.953 
X 122.599 Y 8.000 
G1   Z -2.900 F15000.0
G1 X 122.597 Y 8.047  F39000.0
X 122.592 Y 8.094 
X 122.583 Y 8.140 
X 122.570 Y 8.185 
X 122.554 Y 8.229 
X 122.534 Y 8.272 
X 122.511 Y 8.313 
X 122.485 Y 8.352 
X 122.456 Y 8.389 
X 122.424 Y 8.424 
X 122.389 Y 8.456 
X 122.352 Y 8.485 
X 122.313 Y 8.511 
X 122.272 Y 8.534 
X 122.229 Y 8.554 
X 122.185 Y 8.570 
X 122.140 Y 8.583 
X 122.094 Y 8.592 
X 122.047 Y 8.597 
X 122.000 Y 8.599 
X 121.953 Y 8.597 
X 121.906 Y 8.592 
X 121.860 Y 8.583 
X 121.815 Y 8.570 
X 121.771 Y 8.554 
X 121.728 Y 8.534 
X 121.687 Y 8.511 
X 121.648 Y 8.485 
X 121.611 Y 8.456 
X 121.576 Y 8.424 
X 121.544 Y 8.389 
X 121.515 Y 8.352 
X 121.489 Y 8.313 
X 121.466 Y 8.272 
X 121.446 Y 8.229 
X 121.430 Y 8.185 
X 121.417 Y 8.140 
X 121.408 Y 8.094 
X 121.403 Y 8.047 
X 121.401 Y 8.000 
X 121.403 Y 7.953 
X 121.408 Y 7.906 
X 121.417 Y 7.860 
X 121.430 Y 7.815 
X 121.446 Y 7.771 
X 121.466 Y 7.728 
X 121.489 Y 7.687 
X 121.515 Y 7.648 
X 121.544 Y 7.611 
X 121.576 Y 7.576 
X 121.611 Y 7.544 
X 121.648 Y 7.515 
X 121.687 Y 7.489 
X 121.728 Y 7.466 
X 121.771 Y 7.446 
X 121.815 Y 7.430 
X 121.860 Y 7.417 
X 121.906 Y 7.408 
X 121.953 Y 7.403 
X 122.000 Y 7.401 
X 122.047 Y 7.403 
X 122.094 Y 7.408 
X 122.140 Y 7.417 
X 122.185 Y 7.430 
X 122.229 Y 7.446 
X 122.272 Y 7.466 
X 122.313 Y 7.489 
X 122.352 Y 7.515 
X 122.389 Y 7.544 
X 122.424 Y 7.576 
X 122.456 Y 7.611 
X 122.485 Y 7.648 
X 122.511 Y 7.687 
X 122.534 Y 7.728 
X 122.554 Y 7.771 
X 122.570 Y 7.815 
X 122.583 Y 7.860 
X 122.592 Y 7.906 
X 122.597 Y 7.953 
X 122.599 Y 8.000 
G1   Z -4.350 F15000.0
G1 X 122.597 Y 8.047  F39000.0
X 122.592 Y 8.094 
X 122.583 Y 8.140 
X 122.570 Y 8.185 
X 122.554 Y 8.229 
X 122.534 Y 8.272 
X 122.511 Y 8.313 
X 122.485 Y 8.352 
X 122.456 Y 8.389 
X 122.424 Y 8.424 
X 122.389 Y 8.456 
X 122.352 Y 8.485 
X 122.313 Y 8.511 
X 122.272 Y 8.534 
X 122.229 Y 8.554 
X 122.185 Y 8.570 
X 122.140 Y 8.583 
X 122.094 Y 8.592 
X 122.047 Y 8.597 
X 122.000 Y 8.599 
X 121.953 Y 8.597 
X 121.906 Y 8.592 
X 121.860 Y 8.583 
X 121.815 Y 8.570 
X 121.771 Y 8.554 
X 121.728 Y 8.534 
X 121.687 Y 8.511 
X 121.648 Y 8.485 
X 121.611 Y 8.456 
X 121.576 Y 8.424 
X 121.544 Y 8.389 
X 121.515 Y 8.352 
X 121.489 Y 8.313 
X 121.466 Y 8.272 
X 121.446 Y 8.229 
X 121.430 Y 8.185 
X 121.417 Y 8.140 
X 121.408 Y 8.094 
X 121.403 Y 8.047 
X 121.401 Y 8.000 
X 121.403 Y 7.953 
X 121.408 Y 7.906 
X 121.417 Y 7.860 
X 121.430 Y 7.815 
X 121.446 Y 7.771 
X 121.466 Y 7.728 
X 121.489 Y 7.687 
X 121.515 Y 7.648 
X 121.544 Y 7.611 
X 121.576 Y 7.576 
X 121.611 Y 7.544 
X 121.648 Y 7.515 
X 121.687 Y 7.489 
X 121.728 Y 7.466 
X 121.771 Y 7.446 
X 121.815 Y 7.430 
X 121.860 Y 7.417 
X 121.906 Y 7.408 
X 121.953 Y 7.403 
X 122.000 Y 7.401 
X 122.047 Y 7.403 
X 122.094 Y 7.408 
X 122.140 Y 7.417 
X 122.185 Y 7.430 
X 122.229 Y 7.446 
X 122.272 Y 7.466 
X 122.313 Y 7.489 
X 122.352 Y 7.515 
X 122.389 Y 7.544 
X 122.424 Y 7.576 
X 122.456 Y 7.611 
X 122.485 Y 7.648 
X 122.511 Y 7.687 
X 122.534 Y 7.728 
X 122.554 Y 7.771 
X 122.570 Y 7.815 
X 122.583 Y 7.860 
X 122.592 Y 7.906 
X 122.597 Y 7.953 
X 122.599 Y 8.000 
G1   Z -5.800 F15000.0
G1 X 122.597 Y 8.047  F39000.0
X 122.592 Y 8.094 
X 122.583 Y 8.140 
X 122.570 Y 8.185 
X 122.554 Y 8.229 
X 122.534 Y 8.272 
X 122.511 Y 8.313 
X 122.485 Y 8.352 
X 122.456 Y 8.389 
X 122.424 Y 8.424 
X 122.389 Y 8.456 
X 122.352 Y 8.485 
X 122.313 Y 8.511 
X 122.272 Y 8.534 
X 122.229 Y 8.554 
X 122.185 Y 8.570 
X 122.140 Y 8.583 
X 122.094 Y 8.592 
X 122.047 Y 8.597 
X 122.000 Y 8.599 
X 121.953 Y 8.597 
X 121.906 Y 8.592 
X 121.860 Y 8.583 
X 121.815 Y 8.570 
X 121.771 Y 8.554 
X 121.728 Y 8.534 
X 121.687 Y 8.511 
X 121.648 Y 8.485 
X 121.611 Y 8.456 
X 121.576 Y 8.424 
X 121.544 Y 8.389 
X 121.515 Y 8.352 
X 121.489 Y 8.313 
X 121.466 Y 8.272 
X 121.446 Y 8.229 
X 121.430 Y 8.185 
X 121.417 Y 8.140 
X 121.408 Y 8.094 
X 121.403 Y 8.047 
X 121.401 Y 8.000 
X 121.403 Y 7.953 
X 121.408 Y 7.906 
X 121.417 Y 7.860 
X 121.430 Y 7.815 
X 121.446 Y 7.771 
X 121.466 Y 7.728 
X 121.489 Y 7.687 
X 121.515 Y 7.648 
X 121.544 Y 7.611 
X 121.576 Y 7.576 
X 121.611 Y 7.544 
X 121.648 Y 7.515 
X 121.687 Y 7.489 
X 121.728 Y 7.466 
X 121.771 Y 7.446 
X 121.815 Y 7.430 
X 121.860 Y 7.417 
X 121.906 Y 7.408 
X 121.953 Y 7.403 
X 122.000 Y 7.401 
X 122.047 Y 7.403 
X 122.094 Y 7.408 
X 122.140 Y 7.417 
X 122.185 Y 7.430 
X 122.229 Y 7.446 
X 122.272 Y 7.466 
X 122.313 Y 7.489 
X 122.352 Y 7.515 
X 122.389 Y 7.544 
X 122.424 Y 7.576 
X 122.456 Y 7.611 
X 122.485 Y 7.648 
X 122.511 Y 7.687 
X 122.534 Y 7.728 
X 122.554 Y 7.771 
X 122.570 Y 7.815 
X 122.583 Y 7.860 
X 122.592 Y 7.906 
X 122.597 Y 7.953 
X 122.599 Y 8.000 
G0   Z 6.000
G0 X 73.000 Y 27.000 
G1   Z -1.450 F15000.0
G3 X 65.000 Y 35.000 I-8.000 J0.000 F39000.0
G3 X 57.000 Y 27.000 I0.000 J-8.000
G3 X 65.000 Y 19.000 I8.000 J0.000
G3 X 73.000 Y 27.000 I0.000 J8.000
G1   Z -2.900 F15000.0
G3 X 65.000 Y 35.000 I-8.000 J0.000 F39000.0
G3 X 57.000 Y 27.000 I0.000 J-8.000
G3 X 65.000 Y 19.000 I8.000 J0.000
G3 X 73.000 Y 27.000 I0.000 J8.000
G1   Z -4.350 F15000.0
G3 X 65.000 Y 35.000 I-8.000 J0.000 F39000.0
G3 X 57.000 Y 27.000 I0.000 J-8.000
G3 X 65.000 Y 19.000 I8.000 J0.000
G3 X 73.000 Y 27.000 I0.000 J8.000
G1   Z -5.800 F15000.0
G3 X 65.000 Y 35.000 I-8.000 J0.000 F39000.0
G3 X 57.000 Y 27.000 I0.000 J-8.000
G3 X 65.000 Y 19.000 I8.000 J0.000
G3 X 73.000 Y 27.000 I0.000 J8.000
G0   Z 6.000
G0 X 122.599 Y 82.000 
G1   Z -1.450 F15000.0
G1 X 122.597 Y 82.047  F39000.0
X 122.592 Y 82.094 
X 122.583 Y 82.140 
X 122.570 Y 82.185 
X 122.554 Y 82.229 
X 122.534 Y 82.272 
X 122.511 Y 82.313 
X 122.485 Y 82.352 
X 122.456 Y 82.389 
X 122.424 Y 82.424 
X 122.389 Y 82.456 
X 122.352 Y 82.485 
X 122.313 Y 82.511 
X 122.272 Y 82.534 
X 122.229 Y 82.554 
X 122.185 Y 82.570 
X 122.140 Y 82.583 
X 122.094 Y 82.592 
X 122.047 Y 82.597 
X 122.000 Y 82.599 
X 121.953 Y 82.597 
X 121.906 Y 82.592 
X 121.860 Y 82.583 
X 121.815 Y 82.570 
X 121.771 Y 82.554 
X 121.728 Y 82.534 
X 121.687 Y 82.511 
X 121.648 Y 82.485 
X 121.611 Y 82.456 
X 121.576 Y 82.424 
X 121.544 Y 82.389 
X 121.515 Y 82.352 
X 121.489 Y 82.313 
X 121.466 Y 82.272 
X 121.446 Y 82.229 
X 121.430 Y 82.185 
X 121.417 Y 82.140 
X 121.408 Y 82.094 
X 121.403 Y 82.047 
X 121.401 Y 82.000 
X 121.403 Y 81.953 
X 121.408 Y 81.906 
X 121.417 Y 81.860 
X 121.430 Y 81.815 
X 121.446 Y 81.771 
X 121.466 Y 81.728 
X 121.489 Y 81.687 
X 121.515 Y 81.648 
X 121.544 Y 81.611 
X 121.576 Y 81.576 
X 121.611 Y 81.544 
X 121.648 Y 81.515 
X 121.687 Y 81.489 
X 121.728 Y 81.466 
X 121.771 Y 81.446 
X 121.815 Y 81.430 
X 121.860 Y 81.417 
X 121.906 Y 81.408 
X 121.953 Y 81.403 
X 122.000 Y 81.401 
X 122.047 Y 81.403 
X 122.094 Y 81.408 
X 122.140 Y 81.417 
X 122.185 Y 81.430 
X 122.229 Y 81.446 
X 122.272 Y 81.466 
X 122.313 Y 81.489 
X 122.352 Y 81.515 
X 122.389 Y 81.544 
X 122.424 Y 81.576 
X 122.456 Y 81.611 
X 122.485 Y 81.648 
X 122.511 Y 81.687 
X 122.534 Y 81.728 
X 122.554 Y 81.771 
X 122.570 Y 81.815 
X 122.583 Y 81.860 
X 122.592 Y 81.906 
X 122.597 Y 81.953 
X 122.599 Y 82.000 
G1   Z -2.900 F15000.0
G1 X 122.597 Y 82.047  F39000.0
X 122.592 Y 82.094 
X 122.583 Y 82.140 
X 122.570 Y 82.185 
X 122.554 Y 82.229 
X 122.534 Y 82.272 
X 122.511 Y 82.313 
X 122.485 Y 82.352 
X 122.456 Y 82.389 
X 122.424 Y 82.424 
X 122.389 Y 82.456 
X 122.352 Y 82.485 
X 122.313 Y 82.511 
X 122.272 Y 82.534 
X 122.229 Y 82.554 
X 122.185 Y 82.570 
X 122.140 Y 82.583 
X 122.094 Y 82.592 
X 122.047 Y 82.597 
X 122.000 Y 82.599 
X 121.953 Y 82.597 
X 121.906 Y 82.592 
X 121.860 Y 82.583 
X 121.815 Y 82.570 
X 121.771 Y 82.554 
X 121.728 Y 82.534 
X 121.687 Y 82.511 
X 121.648 Y 82.485 
X 121.611 Y 82.456 
X 121.576 Y 82.424 
X 121.544 Y 82.389 
X 121.515 Y 82.352 
X 121.489 Y 82.313 
X 121.466 Y 82.272 
X 121.446 Y 82.229 
X 121.430 Y 82.185 
X 121.417 Y 82.140 
X 121.408 Y 82.094 
X 121.403 Y 82.047 
X 121.401 Y 82.000 
X 121.403 Y 81.953 
X 121.408 Y 81.906 
X 121.417 Y 81.860 
X 121.430 Y 81.815 
X 121.446 Y 81.771 
X 121.466 Y 81.728 
X 121.489 Y 81.687 
X 121.515 Y 81.648 
X 121.544 Y 81.611 
X 121.576 Y 81.576 
X 121.611 Y 81.544 
X 121.648 Y 81.515 
X 121.687 Y 81.489 
X 121.728 Y 81.466 
X 121.771 Y 81.446 
X 121.815 Y 81.430 
X 121.860 Y 81.417 
X 121.906 Y 81.408 
X 121.953 Y 81.403 
X 122.000 Y 81.401 
X 122.047 Y 81.403 
X 122.094 Y 81.408 
X 122.140 Y 81.417 
X 122.185 Y 81.430 
X 122.229 Y 81.446 
X 122.272 Y 81.466 
X 122.313 Y 81.489 
X 122.352 Y 81.515 
X 122.389 Y 81.544 
X 122.424 Y 81.576 
X 122.456 Y 81.611 
X 122.485 Y 81.648 
X 122.511 Y 81.687 
X 122.534 Y 81.728 
X 122.554 Y 81.771 
X 122.570 Y 81.815 
X 122.583 Y 81.860 
X 122.592 Y 81.906 
X 122.597 Y 81.953 
X 122.599 Y 82.000 
G1   Z -4.350 F15000.0
G1 X 122.597 Y 82.047  F39000.0
X 122.592 Y 82.094 
X 122.583 Y 82.140 
X 122.570 Y 82.185 
X 122.554 Y 82.229 
X 122.534 Y 82.272 
X 122.511 Y 82.313 
X 122.485 Y 82.352 
X 122.456 Y 82.389 
X 122.424 Y 82.424 
X 122.389 Y 82.456 
X 122.352 Y 82.485 
X 122.313 Y 82.511 
X 122.272 Y 82.534 
X 122.229 Y 82.554 
X 122.185 Y 82.570 
X 122.140 Y 82.583 
X 122.094 Y 82.592 
X 122.047 Y 82.597 
X 122.000 Y 82.599 
X 121.953 Y 82.597 
X 121.906 Y 82.592 
X 121.860 Y 82.583 
X 121.815 Y 82.570 
X 121.771 Y 82.554 
X 121.728 Y 82.534 
X 121.687 Y 82.511 
X 121.648 Y 82.485 
X 121.611 Y 82.456 
X 121.576 Y 82.424 
X 121.544 Y 82.389 
X 121.515 Y 82.352 
X 121.489 Y 82.313 
X 121.466 Y 82.272 
X 121.446 Y 82.229 
X 121.430 Y 82.185 
X 121.417 Y 82.140 
X 121.408 Y 82.094 
X 121.403 Y 82.047 
X 121.401 Y 82.000 
X 121.403 Y 81.953 
X 121.408 Y 81.906 
X 121.417 Y 81.860 
X 121.430 Y 81.815 
X 121.446 Y 81.771 
X 121.466 Y 81.728 
X 121.489 Y 81.687 
X 121.515 Y 81.648 
X 121.544 Y 81.611 
X 121.576 Y 81.576 
X 121.611 Y 81.544 
X 121.648 Y 81.515 
X 121.687 Y 81.489 
X 121.728 Y 81.466 
X 121.771 Y 81.446 
X 121.815 Y 81.430 
X 121.860 Y 81.417 
X 121.906 Y 81.408 
X 121.953 Y 81.403 
X 122.000 Y 81.401 
X 122.047 Y 81.403 
X 122.094 Y 81.408 
X 122.140 Y 81.417 
X 122.185 Y 81.430 
X 122.229 Y 81.446 
X 122.272 Y 81.466 
X 122.313 Y 81.489 
X 122.352 Y 81.515 
X 122.389 Y 81.544 
X 122.424 Y 81.576 
X 122.456 Y 81.611 
X 122.485 Y 81.648 
X 122.511 Y 81.687 
X 122.534 Y 81.728 
X 122.554 Y 81.771 
X 122.570 Y 81.815 
X 122.583 Y 81.860 
X 122.592 Y 81.906 
X 122.597 Y 81.953 
X 122.599 Y 82.000 
G1   Z -5.800 F15000.0
G1 X 122.597 Y 82.047  F39000.0
X 122.592 Y 82.094 
X 122.583 Y 82.140 
X 122.570 Y 82.185 
X 122.554 Y 82.229 
X 122.534 Y 82.272 
X 122.511 Y 82.313 
X 122.485 Y 82.352 
X 122.456 Y 82.389 
X 122.424 Y 82.424 
X 122.389 Y 82.456 
X 122.352 Y 82.485 
X 122.313 Y 82.511 
X 122.272 Y 82.534 
X 122.229 Y 82.554 
X 122.185 Y 82.570 
X 122.140 Y 82.583 
X 122.094 Y 82.592 
X 122.047 Y 82.597 
X 122.000 Y 82.599 
X 121.953 Y 82.597 
X 121.906 Y 82.592 
X 121.860 Y 82.583 
X 121.815 Y 82.570 
X 121.771 Y 82.554 
X 121.728 Y 82.534 
X 121.687 Y 82.511 
X 121.648 Y 82.485 
X 121.611 Y 82.456 
X 121.576 Y 82.424 
X 121.544 Y 82.389 
X 121.515 Y 82.352 
X 121.489 Y 82.313 
X 121.466 Y 82.272 
X 121.446 Y 82.229 
X 121.430 Y 82.185 
X 121.417 Y 82.140 
X 121.408 Y 82.094 
X 121.403 Y 82.047 
X 121.401 Y 82.000 
X 121.403 Y 81.953 
X 121.408 Y 81.906 
X 121.417 Y 81.860 
X 121.430 Y 81.815 
X 121.446 Y 81.771 
X 121.466 Y 81.728 
X 121.489 Y 81.687 
X 121.515 Y 81.648 
X 121.544 Y 81.611 
X 121.576 Y 81.576 
X 121.611 Y 81.544 
X 121.648 Y 81.515 
X 121.687 Y 81.489 
X 121.728 Y 81.466 
X 121.771 Y 81.446 
X 121.815 Y 81.430 
X 121.860 Y 81.417 
X 121.906 Y 81.408 
X 121.953 Y 81.403 
X 122.000 Y 81.401 
X 122.047 Y 81.403 
X 122.094 Y 81.408 
X 122.140 Y 81.417 
X 122.185 Y 81.430 
X 122.229 Y 81.446 
X 122.272 Y 81.466 
X 122.313 Y 81.489 
X 122.352 Y 81.515 
X 122.389 Y 81.544 
X 122.424 Y 81.576 
X 122.456 Y 81.611 
X 122.485 Y 81.648 
X 122.511 Y 81.687 
X 122.534 Y 81.728 
X 122.554 Y 81.771 
X 122.570 Y 81.815 
X 122.583 Y 81.860 
X 122.592 Y 81.906 
X 122.597 Y 81.953 
X 122.599 Y 82.000 
G0   Z 6.000
G0  Y 186.724 
G1   Z -1.450 F15000.0
G1 X 122.597 Y 186.771  F39000.0
X 122.592 Y 186.818 
X 122.583 Y 186.864 
X 122.570 Y 186.909 
X 122.554 Y 186.953 
X 122.534 Y 186.996 
X 122.511 Y 187.037 
X 122.485 Y 187.076 
X 122.456 Y 187.113 
X 122.424 Y 187.148 
X 122.389 Y 187.180 
X 122.352 Y 187.209 
X 122.313 Y 187.235 
X 122.272 Y 187.258 
X 122.229 Y 187.278 
X 122.185 Y 187.294 
X 122.140 Y 187.307 
X 122.094 Y 187.316 
X 122.047 Y 187.321 
X 122.000 Y 187.323 
X 121.953 Y 187.321 
X 121.906 Y 187.316 
X 121.860 Y 187.307 
X 121.815 Y 187.294 
X 121.771 Y 187.278 
X 121.728 Y 187.258 
X 121.687 Y 187.235 
X 121.648 Y 187.209 
X 121.611 Y 187.180 
X 121.576 Y 187.148 
X 121.544 Y 187.113 
X 121.515 Y 187.076 
X 121.489 Y 187.037 
X 121.466 Y 186.996 
X 121.446 Y 186.953 
X 121.430 Y 186.909 
X 121.417 Y 186.864 
X 121.408 Y 186.818 
X 121.403 Y 186.771 
X 121.401 Y 186.724 
X 121.403 Y 186.677 
X 121.408 Y 186.630 
X 121.417 Y 186.584 
X 121.430 Y 186.539 
X 121.446 Y 186.495 
X 121.466 Y 186.452 
X 121.489 Y 186.411 
X 121.515 Y 186.372 
X 121.544 Y 186.335 
X 121.576 Y 186.300 
X 121.611 Y 186.268 
X 121.648 Y 186.239 
X 121.687 Y 186.213 
X 121.728 Y 186.190 
X 121.771 Y 186.170 
X 121.815 Y 186.154 
X 121.860 Y 186.141 
X 121.906 Y 186.132 
X 121.953 Y 186.127 
X 122.000 Y 186.125 
X 122.047 Y 186.127 
X 122.094 Y 186.132 
X 122.140 Y 186.141 
X 122.185 Y 186.154 
X 122.229 Y 186.170 
X 122.272 Y 186.190 
X 122.313 Y 186.213 
X 122.352 Y 186.239 
X 122.389 Y 186.268 
X 122.424 Y 186.300 
X 122.456 Y 186.335 
X 122.485 Y 186.372 
X 122.511 Y 186.411 
X 122.534 Y 186.452 
X 122.554 Y 186.495 
X 122.570 Y 186.539 
X 122.583 Y 186.584 
X 122.592 Y 186.630 
X 122.597 Y 186.677 
X 122.599 Y 186.724 
G1   Z -2.900 F15000.0
G1 X 122.597 Y 186.771  F39000.0
X 122.592 Y 186.818 
X 122.583 Y 186.864 
X 122.570 Y 186.909 
X 122.554 Y 186.953 
X 122.534 Y 186.996 
X 122.511 Y 187.037 
X 122.485 Y 187.076 
X 122.456 Y 187.113 
X 122.424 Y 187.148 
X 122.389 Y 187.180 
X 122.352 Y 187.209 
X 122.313 Y 187.235 
X 122.272 Y 187.258 
X 122.229 Y 187.278 
X 122.185 Y 187.294 
X 122.140 Y 187.307 
X 122.094 Y 187.316 
X 122.047 Y 187.321 
X 122.000 Y 187.323 
X 121.953 Y 187.321 
X 121.906 Y 187.316 
X 121.860 Y 187.307 
X 121.815 Y 187.294 
X 121.771 Y 187.278 
X 121.728 Y 187.258 
X 121.687 Y 187.235 
X 121.648 Y 187.209 
X 121.611 Y 187.180 
X 121.576 Y 187.148 
X 121.544 Y 187.113 
X 121.515 Y 187.076 
X 121.489 Y 187.037 
X 121.466 Y 186.996 
X 121.446 Y 186.953 
X 121.430 Y 186.909 
X 121.417 Y 186.864 
X 121.408 Y 186.818 
X 121.403 Y 186.771 
X 121.401 Y 186.724 
X 121.403 Y 186.677 
X 121.408 Y 186.630 
X 121.417 Y 186.584 
X 121.430 Y 186.539 
X 121.446 Y 186.495 
X 121.466 Y 186.452 
X 121.489 Y 186.411 
X 121.515 Y 186.372 
X 121.544 Y 186.335 
X 121.576 Y 186.300 
X 121.611 Y 186.268 
X 121.648 Y 186.239 
X 121.687 Y 186.213 
X 121.728 Y 186.190 
X 121.771 Y 186.170 
X 121.815 Y 186.154 
X 121.860 Y 186.141 
X 121.906 Y 186.132 
X 121.953 Y 186.127 
X 122.000 Y 186.125 
X 122.047 Y 186.127 
X 122.094 Y 186.132 
X 122.140 Y 186.141 
X 122.185 Y 186.154 
X 122.229 Y 186.170 
X 122.272 Y 186.190 
X 122.313 Y 186.213 
X 122.352 Y 186.239 
X 122.389 Y 186.268 
X 122.424 Y 186.300 
X 122.456 Y 186.335 
X 122.485 Y 186.372 
X 122.511 Y 186.411 
X 122.534 Y 186.452 
X 122.554 Y 186.495 
X 122.570 Y 186.539 
X 122.583 Y 186.584 
X 122.592 Y 186.630 
X 122.597 Y 186.677 
X 122.599 Y 186.724 
G1   Z -4.350 F15000.0
G1 X 122.597 Y 186.771  F39000.0
X 122.592 Y 186.818 
X 122.583 Y 186.864 
X 122.570 Y 186.909 
X 122.554 Y 186.953 
X 122.534 Y 186.996 
X 122.511 Y 187.037 
X 122.485 Y 187.076 
X 122.456 Y 187.113 
X 122.424 Y 187.148 
X 122.389 Y 187.180 
X 122.352 Y 187.209 
X 122.313 Y 187.235 
X 122.272 Y 187.258 
X 122.229 Y 187.278 
X 122.185 Y 187.294 
X 122.140 Y 187.307 
X 122.094 Y 187.316 
X 122.047 Y 187.321 
X 122.000 Y 187.323 
X 121.953 Y 187.321 
X 121.906 Y 187.316 
X 121.860 Y 187.307 
X 121.815 Y 187.294 
X 121.771 Y 187.278 
X 121.728 Y 187.258 
X 121.687 Y 187.235 
X 121.648 Y 187.209 
X 121.611 Y 187.180 
X 121.576 Y 187.148 
X 121.544 Y 187.113 
X 121.515 Y 187.076 
X 121.489 Y 187.037 
X 121.466 Y 186.996 
X 121.446 Y 186.953 
X 121.430 Y 186.909 
X 121.417 Y 186.864 
X 121.408 Y 186.818 
X 121.403 Y 186.771 
X 121.401 Y 186.724 
X 121.403 Y 186.677 
X 121.408 Y 186.630 
X 121.417 Y 186.584 
X 121.430 Y 186.539 
X 121.446 Y 186.495 
X 121.466 Y 186.452 
X 121.489 Y 186.411 
X 121.515 Y 186.372 
X 121.544 Y 186.335 
X 121.576 Y 186.300 
X 121.611 Y 186.268 
X 121.648 Y 186.239 
X 121.687 Y 186.213 
X 121.728 Y 186.190 
X 121.771 Y 186.170 
X 121.815 Y 186.154 
X 121.860 Y 186.141 
X 121.906 Y 186.132 
X 121.953 Y 186.127 
X 122.000 Y 186.125 
X 122.047 Y 186.127 
X 122.094 Y 186.132 
X 122.140 Y 186.141 
X 122.185 Y 186.154 
X 122.229 Y 186.170 
X 122.272 Y 186.190 
X 122.313 Y 186.213 
X 122.352 Y 186.239 
X 122.389 Y 186.268 
X 122.424 Y 186.300 
X 122.456 Y 186.335 
X 122.485 Y 186.372 
X 122.511 Y 186.411 
X 122.534 Y 186.452 
X 122.554 Y 186.495 
X 122.570 Y 186.539 
X 122.583 Y 186.584 
X 122.592 Y 186.630 
X 122.597 Y 186.677 
X 122.599 Y 186.724 
G1   Z -5.800 F15000.0
G1 X 122.597 Y 186.771  F39000.0
X 122.592 Y 186.818 
X 122.583 Y 186.864 
X 122.570 Y 186.909 
X 122.554 Y 186.953 
X 122.534 Y 186.996 
X 122.511 Y 187.037 
X 122.485 Y 187.076 
X 122.456 Y 187.113 
X 122.424 Y 187.148 
X 122.389 Y 187.180 
X 122.352 Y 187.209 
X 122.313 Y 187.235 
X 122.272 Y 187.258 
X 122.229 Y 187.278 
X 122.185 Y 187.294 
X 122.140 Y 187.307 
X 122.094 Y 187.316 
X 122.047 Y 187.321 
X 122.000 Y 187.323 
X 121.953 Y 187.321 
X 121.906 Y 187.316 
X 121.860 Y 187.307 
X 121.815 Y 187.294 
X 121.771 Y 187.278 
X 121.728 Y 187.258 
X 121.687 Y 187.235 
X 121.648 Y 187.209 
X 121.611 Y 187.180 
X 121.576 Y 187.148 
X 121.544 Y 187.113 
X 121.515 Y 187.076 
X 121.489 Y 187.037 
X 121.466 Y 186.996 
X 121.446 Y 186.953 
X 121.430 Y 186.909 
X 121.417 Y 186.864 
X 121.408 Y 186.818 
X 121.403 Y 186.771 
X 121.401 Y 186.724 
X 121.403 Y 186.677 
X 121.408 Y 186.630 
X 121.417 Y 186.584 
X 121.430 Y 186.539 
X 121.446 Y 186.495 
X 121.466 Y 186.452 
X 121.489 Y 186.411 
X 121.515 Y 186.372 
X 121.544 Y 186.335 
X 121.576 Y 186.300 
X 121.611 Y 186.268 
X 121.648 Y 186.239 
X 121.687 Y 186.213 
X 121.728 Y 186.190 
X 121.771 Y 186.170 
X 121.815 Y 186.154 
X 121.860 Y 186.141 
X 121.906 Y 186.132 
X 121.953 Y 186.127 
X 122.000 Y 186.125 
X 122.047 Y 186.127 
X 122.094 Y 186.132 
X 122.140 Y 186.141 
X 122.185 Y 186.154 
X 122.229 Y 186.170 
X 122.272 Y 186.190 
X 122.313 Y 186.213 
X 122.352 Y 186.239 
X 122.389 Y 186.268 
X 122.424 Y 186.300 
X 122.456 Y 186.335 
X 122.485 Y 186.372 
X 122.511 Y 186.411 
X 122.534 Y 186.452 
X 122.554 Y 186.495 
X 122.570 Y 186.539 
X 122.583 Y 186.584 
X 122.592 Y 186.630 
X 122.597 Y 186.677 
X 122.599 Y 186.724 
G0   Z 6.000
G0 X 93.150  
G1   Z -1.450 F15000.0
G3 X 92.000 Y 187.874 I-1.150 J0.000 F39000.0
G3 X 90.850 Y 186.724 I0.000 J-1.150
G3 X 92.000 Y 185.574 I1.150 J0.000
G3 X 93.150 Y 186.724 I0.000 J1.150
G1   Z -2.900 F15000.0
G3 X 92.000 Y 187.874 I-1.150 J0.000 F39000.0
G3 X 90.850 Y 186.724 I0.000 J-1.150
G3 X 92.000 Y 185.574 I1.150 J0.000
G3 X 93.150 Y 186.724 I0.000 J1.150
G1   Z -4.350 F15000.0
G3 X 92.000 Y 187.874 I-1.150 J0.000 F39000.0
G3 X 90.850 Y 186.724 I0.000 J-1.150
G3 X 92.000 Y 185.574 I1.150 J0.000
G3 X 93.150 Y 186.724 I0.000 J1.150
G1   Z -5.800 F15000.0
G3 X 92.000 Y 187.874 I-1.150 J0.000 F39000.0
G3 X 90.850 Y 186.724 I0.000 J-1.150
G3 X 92.000 Y 185.574 I1.150 J0.000
G3 X 93.150 Y 186.724 I0.000 J1.150
G0   Z 6.000
G0 X 79.150  
G1   Z -1.450 F15000.0
G3 X 78.000 Y 187.874 I-1.150 J0.000 F39000.0
G3 X 76.850 Y 186.724 I0.000 J-1.150
G3 X 78.000 Y 185.574 I1.150 J0.000
G3 X 79.150 Y 186.724 I0.000 J1.150
G1   Z -2.900 F15000.0
G3 X 78.000 Y 187.874 I-1.150 J0.000 F39000.0
G3 X 76.850 Y 186.724 I0.000 J-1.150
G3 X 78.000 Y 185.574 I1.150 J0.000
G3 X 79.150 Y 186.724 I0.000 J1.150
G1   Z -4.350 F15000.0
G3 X 78.000 Y 187.874 I-1.150 J0.000 F39000.0
G3 X 76.850 Y 186.724 I0.000 J-1.150
G3 X 78.000 Y 185.574 I1.150 J0.000
G3 X 79.150 Y 186.724 I0.000 J1.150
G1   Z -5.800 F15000.0
G3 X 78.000 Y 187.874 I-1.150 J0.000 F39000.0
G3 X 76.850 Y 186.724 I0.000 J-1.150
G3 X 78.000 Y 185.574 I1.150 J0.000
G3 X 79.150 Y 186.724 I0.000 J1.150
G0   Z 6.000
G0 X 53.150  
G1   Z -1.450 F15000.0
G3 X 52.000 Y 187.874 I-1.150 J0.000 F39000.0
G3 X 50.850 Y 186.724 I0.000 J-1.150
G3 X 52.000 Y 185.574 I1.150 J0.000
G3 X 53.150 Y 186.724 I0.000 J1.150
G1   Z -2.900 F15000.0
G3 X 52.000 Y 187.874 I-1.150 J0.000 F39000.0
G3 X 50.850 Y 186.724 I0.000 J-1.150
G3 X 52.000 Y 185.574 I1.150 J0.000
G3 X 53.150 Y 186.724 I0.000 J1.150
G1   Z -4.350 F15000.0
G3 X 52.000 Y 187.874 I-1.150 J0.000 F39000.0
G3 X 50.850 Y 186.724 I0.000 J-1.150
G3 X 52.000 Y 185.574 I1.150 J0.000
G3 X 53.150 Y 186.724 I0.000 J1.150
G1   Z -5.800 F15000.0
G3 X 52.000 Y 187.874 I-1.150 J0.000 F39000.0
G3 X 50.850 Y 186.724 I0.000 J-1.150
G3 X 52.000 Y 185.574 I1.150 J0.000
G3 X 53.150 Y 186.724 I0.000 J1.150
G0   Z 6.000
G0 X 39.150  
G1   Z -1.450 F15000.0
G3 X 38.000 Y 187.874 I-1.150 J0.000 F39000.0
G3 X 36.850 Y 186.724 I0.000 J-1.150
G3 X 38.000 Y 185.574 I1.150 J0.000
G3 X 39.150 Y 186.724 I0.000 J1.150
G1   Z -2.900 F15000.0
G3 X 38.000 Y 187.874 I-1.150 J0.000 F39000.0
G3 X 36.850 Y 186.724 I0.000 J-1.150
G3 X 38.000 Y 185.574 I1.150 J0.000
G3 X 39.150 Y 186.724 I0.000 J1.150
G1   Z -4.350 F15000.0
G3 X 38.000 Y 187.874 I-1.150 J0.000 F39000.0
G3 X 36.850 Y 186.724 I0.000 J-1.150
G3 X 38.000 Y 185.574 I1.150 J0.000
G3 X 39.150 Y 186.724 I0.000 J1.150
G1   Z -5.800 F15000.0
G3 X 38.000 Y 187.874 I-1.150 J0.000 F39000.0
G3 X 36.850 Y 186.724 I0.000 J-1.150
G3 X 38.000 Y 185.574 I1.150 J0.000
G3 X 39.150 Y 186.724 I0.000 J1.150
G0   Z 6.000
G0 X 8.599  
G1   Z -1.450 F15000.0
G1 X 8.597 Y 186.771  F39000.0
X 8.592 Y 186.818 
X 8.583 Y 186.864 
X 8.570 Y 186.909 
X 8.554 Y 186.953 
X 8.534 Y 186.996 
X 8.511 Y 187.037 
X 8.485 Y 187.076 
X 8.456 Y 187.113 
X 8.424 Y 187.148 
X 8.389 Y 187.180 
X 8.352 Y 187.209 
X 8.313 Y 187.235 
X 8.272 Y 187.258 
X 8.229 Y 187.278 
X 8.185 Y 187.294 
X 8.140 Y 187.307 
X 8.094 Y 187.316 
X 8.047 Y 187.321 
X 8.000 Y 187.323 
X 7.953 Y 187.321 
X 7.906 Y 187.316 
X 7.860 Y 187.307 
X 7.815 Y 187.294 
X 7.771 Y 187.278 
X 7.728 Y 187.258 
X 7.687 Y 187.235 
X 7.648 Y 187.209 
X 7.611 Y 187.180 
X 7.576 Y 187.148 
X 7.544 Y 187.113 
X 7.515 Y 187.076 
X 7.489 Y 187.037 
X 7.466 Y 186.996 
X 7.446 Y 186.953 
X 7.430 Y 186.909 
X 7.417 Y 186.864 
X 7.408 Y 186.818 
X 7.403 Y 186.771 
X 7.401 Y 186.724 
X 7.403 Y 186.677 
X 7.408 Y 186.630 
X 7.417 Y 186.584 
X 7.430 Y 186.539 
X 7.446 Y 186.495 
X 7.466 Y 186.452 
X 7.489 Y 186.411 
X 7.515 Y 186.372 
X 7.544 Y 186.335 
X 7.576 Y 186.300 
X 7.611 Y 186.268 
X 7.648 Y 186.239 
X 7.687 Y 186.213 
X 7.728 Y 186.190 
X 7.771 Y 186.170 
X 7.815 Y 186.154 
X 7.860 Y 186.141 
X 7.906 Y 186.132 
X 7.953 Y 186.127 
X 8.000 Y 186.125 
X 8.047 Y 186.127 
X 8.094 Y 186.132 
X 8.140 Y 186.141 
X 8.185 Y 186.154 
X 8.229 Y 186.170 
X 8.272 Y 186.190 
X 8.313 Y 186.213 
X 8.352 Y 186.239 
X 8.389 Y 186.268 
X 8.424 Y 186.300 
X 8.456 Y 186.335 
X 8.485 Y 186.372 
X 8.511 Y 186.411 
X 8.534 Y 186.452 
X 8.554 Y 186.495 
X 8.570 Y 186.539 
X 8.583 Y 186.584 
X 8.592 Y 186.630 
X 8.597 Y 186.677 
X 8.599 Y 186.724 
G1   Z -2.900 F15000.0
G1 X 8.597 Y 186.771  F39000.0
X 8.592 Y 186.818 
X 8.583 Y 186.864 
X 8.570 Y 186.909 
X 8.554 Y 186.953 
X 8.534 Y 186.996 
X 8.511 Y 187.037 
X 8.485 Y 187.076 
X 8.456 Y 187.113 
X 8.424 Y 187.148 
X 8.389 Y 187.180 
X 8.352 Y 187.209 
X 8.313 Y 187.235 
X 8.272 Y 187.258 
X 8.229 Y 187.278 
X 8.185 Y 187.294 
X 8.140 Y 187.307 
X 8.094 Y 187.316 
X 8.047 Y 187.321 
X 8.000 Y 187.323 
X 7.953 Y 187.321 
X 7.906 Y 187.316 
X 7.860 Y 187.307 
X 7.815 Y 187.294 
X 7.771 Y 187.278 
X 7.728 Y 187.258 
X 7.687 Y 187.235 
X 7.648 Y 187.209 
X 7.611 Y 187.180 
X 7.576 Y 187.148 
X 7.544 Y 187.113 
X 7.515 Y 187.076 
X 7.489 Y 187.037 
X 7.466 Y 186.996 
X 7.446 Y 186.953 
X 7.430 Y 186.909 
X 7.417 Y 186.864 
X 7.408 Y 186.818 
X 7.403 Y 186.771 
X 7.401 Y 186.724 
X 7.403 Y 186.677 
X 7.408 Y 186.630 
X 7.417 Y 186.584 
X 7.430 Y 186.539 
X 7.446 Y 186.495 
X 7.466 Y 186.452 
X 7.489 Y 186.411 
X 7.515 Y 186.372 
X 7.544 Y 186.335 
X 7.576 Y 186.300 
X 7.611 Y 186.268 
X 7.648 Y 186.239 
X 7.687 Y 186.213 
X 7.728 Y 186.190 
X 7.771 Y 186.170 
X 7.815 Y 186.154 
X 7.860 Y 186.141 
X 7.906 Y 186.132 
X 7.953 Y 186.127 
X 8.000 Y 186.125 
X 8.047 Y 186.127 
X 8.094 Y 186.132 
X 8.140 Y 186.141 
X 8.185 Y 186.154 
X 8.229 Y 186.170 
X 8.272 Y 186.190 
X 8.313 Y 186.213 
X 8.352 Y 186.239 
X 8.389 Y 186.268 
X 8.424 Y 186.300 
X 8.456 Y 186.335 
X 8.485 Y 186.372 
X 8.511 Y 186.411 
X 8.534 Y 186.452 
X 8.554 Y 186.495 
X 8.570 Y 186.539 
X 8.583 Y 186.584 
X 8.592 Y 186.630 
X 8.597 Y 186.677 
X 8.599 Y 186.724 
G1   Z -4.350 F15000.0
G1 X 8.597 Y 186.771  F39000.0
X 8.592 Y 186.818 
X 8.583 Y 186.864 
X 8.570 Y 186.909 
X 8.554 Y 186.953 
X 8.534 Y 186.996 
X 8.511 Y 187.037 
X 8.485 Y 187.076 
X 8.456 Y 187.113 
X 8.424 Y 187.148 
X 8.389 Y 187.180 
X 8.352 Y 187.209 
X 8.313 Y 187.235 
X 8.272 Y 187.258 
X 8.229 Y 187.278 
X 8.185 Y 187.294 
X 8.140 Y 187.307 
X 8.094 Y 187.316 
X 8.047 Y 187.321 
X 8.000 Y 187.323 
X 7.953 Y 187.321 
X 7.906 Y 187.316 
X 7.860 Y 187.307 
X 7.815 Y 187.294 
X 7.771 Y 187.278 
X 7.728 Y 187.258 
X 7.687 Y 187.235 
X 7.648 Y 187.209 
X 7.611 Y 187.180 
X 7.576 Y 187.148 
X 7.544 Y 187.113 
X 7.515 Y 187.076 
X 7.489 Y 187.037 
X 7.466 Y 186.996 
X 7.446 Y 186.953 
X 7.430 Y 186.909 
X 7.417 Y 186.864 
X 7.408 Y 186.818 
X 7.403 Y 186.771 
X 7.401 Y 186.724 
X 7.403 Y 186.677 
X 7.408 Y 186.630 
X 7.417 Y 186.584 
X 7.430 Y 186.539 
X 7.446 Y 186.495 
X 7.466 Y 186.452 
X 7.489 Y 186.411 
X 7.515 Y 186.372 
X 7.544 Y 186.335 
X 7.576 Y 186.300 
X 7.611 Y 186.268 
X 7.648 Y 186.239 
X 7.687 Y 186.213 
X 7.728 Y 186.190 
X 7.771 Y 186.170 
X 7.815 Y 186.154 
X 7.860 Y 186.141 
X 7.906 Y 186.132 
X 7.953 Y 186.127 
X 8.000 Y 186.125 
X 8.047 Y 186.127 
X 8.094 Y 186.132 
X 8.140 Y 186.141 
X 8.185 Y 186.154 
X 8.229 Y 186.170 
X 8.272 Y 186.190 
X 8.313 Y 186.213 
X 8.352 Y 186.239 
X 8.389 Y 186.268 
X 8.424 Y 186.300 
X 8.456 Y 186.335 
X 8.485 Y 186.372 
X 8.511 Y 186.411 
X 8.534 Y 186.452 
X 8.554 Y 186.495 
X 8.570 Y 186.539 
X 8.583 Y 186.584 
X 8.592 Y 186.630 
X 8.597 Y 186.677 
X 8.599 Y 186.724 
G1   Z -5.800 F15000.0
G1 X 8.597 Y 186.771  F39000.0
X 8.592 Y 186.818 
X 8.583 Y 186.864 
X 8.570 Y 186.909 
X 8.554 Y 186.953 
X 8.534 Y 186.996 
X 8.511 Y 187.037 
X 8.485 Y 187.076 
X 8.456 Y 187.113 
X 8.424 Y 187.148 
X 8.389 Y 187.180 
X 8.352 Y 187.209 
X 8.313 Y 187.235 
X 8.272 Y 187.258 
X 8.229 Y 187.278 
X 8.185 Y 187.294 
X 8.140 Y 187.307 
X 8.094 Y 187.316 
X 8.047 Y 187.321 
X 8.000 Y 187.323 
X 7.953 Y 187.321 
X 7.906 Y 187.316 
X 7.860 Y 187.307 
X 7.815 Y 187.294 
X 7.771 Y 187.278 
X 7.728 Y 187.258 
X 7.687 Y 187.235 
X 7.648 Y 187.209 
X 7.611 Y 187.180 
X 7.576 Y 187.148 
X 7.544 Y 187.113 
X 7.515 Y 187.076 
X 7.489 Y 187.037 
X 7.466 Y 186.996 
X 7.446 Y 186.953 
X 7.430 Y 186.909 
X 7.417 Y 186.864 
X 7.408 Y 186.818 
X 7.403 Y 186.771 
X 7.401 Y 186.724 
X 7.403 Y 186.677 
X 7.408 Y 186.630 
X 7.417 Y 186.584 
X 7.430 Y 186.539 
X 7.446 Y 186.495 
X 7.466 Y 186.452 
X 7.489 Y 186.411 
X 7.515 Y 186.372 
X 7.544 Y 186.335 
X 7.576 Y 186.300 
X 7.611 Y 186.268 
X 7.648 Y 186.239 
X 7.687 Y 186.213 
X 7.728 Y 186.190 
X 7.771 Y 186.170 
X 7.815 Y 186.154 
X 7.860 Y 186.141 
X 7.906 Y 186.132 
X 7.953 Y 186.127 
X 8.000 Y 186.125 
X 8.047 Y 186.127 
X 8.094 Y 186.132 
X 8.140 Y 186.141 
X 8.185 Y 186.154 
X 8.229 Y 186.170 
X 8.272 Y 186.190 
X 8.313 Y 186.213 
X 8.352 Y 186.239 
X 8.389 Y 186.268 
X 8.424 Y 186.300 
X 8.456 Y 186.335 
X 8.485 Y 186.372 
X 8.511 Y 186.411 
X 8.534 Y 186.452 
X 8.554 Y 186.495 
X 8.570 Y 186.539 
X 8.583 Y 186.584 
X 8.592 Y 186.630 
X 8.597 Y 186.677 
X 8.599 Y 186.724 
G0   Z 6.000
G0  Y 82.000 
G1   Z -1.450 F15000.0
G1 X 8.597 Y 82.047  F39000.0
X 8.592 Y 82.094 
X 8.583 Y 82.140 
X 8.570 Y 82.185 
X 8.554 Y 82.229 
X 8.534 Y 82.272 
X 8.511 Y 82.313 
X 8.485 Y 82.352 
X 8.456 Y 82.389 
X 8.424 Y 82.424 
X 8.389 Y 82.456 
X 8.352 Y 82.485 
X 8.313 Y 82.511 
X 8.272 Y 82.534 
X 8.229 Y 82.554 
X 8.185 Y 82.570 
X 8.140 Y 82.583 
X 8.094 Y 82.592 
X 8.047 Y 82.597 
X 8.000 Y 82.599 
X 7.953 Y 82.597 
X 7.906 Y 82.592 
X 7.860 Y 82.583 
X 7.815 Y 82.570 
X 7.771 Y 82.554 
X 7.728 Y 82.534 
X 7.687 Y 82.511 
X 7.648 Y 82.485 
X 7.611 Y 82.456 
X 7.576 Y 82.424 
X 7.544 Y 82.389 
X 7.515 Y 82.352 
X 7.489 Y 82.313 
X 7.466 Y 82.272 
X 7.446 Y 82.229 
X 7.430 Y 82.185 
X 7.417 Y 82.140 
X 7.408 Y 82.094 
X 7.403 Y 82.047 
X 7.401 Y 82.000 
X 7.403 Y 81.953 
X 7.408 Y 81.906 
X 7.417 Y 81.860 
X 7.430 Y 81.815 
X 7.446 Y 81.771 
X 7.466 Y 81.728 
X 7.489 Y 81.687 
X 7.515 Y 81.648 
X 7.544 Y 81.611 
X 7.576 Y 81.576 
X 7.611 Y 81.544 
X 7.648 Y 81.515 
X 7.687 Y 81.489 
X 7.728 Y 81.466 
X 7.771 Y 81.446 
X 7.815 Y 81.430 
X 7.860 Y 81.417 
X 7.906 Y 81.408 
X 7.953 Y 81.403 
X 8.000 Y 81.401 
X 8.047 Y 81.403 
X 8.094 Y 81.408 
X 8.140 Y 81.417 
X 8.185 Y 81.430 
X 8.229 Y 81.446 
X 8.272 Y 81.466 
X 8.313 Y 81.489 
X 8.352 Y 81.515 
X 8.389 Y 81.544 
X 8.424 Y 81.576 
X 8.456 Y 81.611 
X 8.485 Y 81.648 
X 8.511 Y 81.687 
X 8.534 Y 81.728 
X 8.554 Y 81.771 
X 8.570 Y 81.815 
X 8.583 Y 81.860 
X 8.592 Y 81.906 
X 8.597 Y 81.953 
X 8.599 Y 82.000 
G1   Z -2.900 F15000.0
G1 X 8.597 Y 82.047  F39000.0
X 8.592 Y 82.094 
X 8.583 Y 82.140 
X 8.570 Y 82.185 
X 8.554 Y 82.229 
X 8.534 Y 82.272 
X 8.511 Y 82.313 
X 8.485 Y 82.352 
X 8.456 Y 82.389 
X 8.424 Y 82.424 
X 8.389 Y 82.456 
X 8.352 Y 82.485 
X 8.313 Y 82.511 
X 8.272 Y 82.534 
X 8.229 Y 82.554 
X 8.185 Y 82.570 
X 8.140 Y 82.583 
X 8.094 Y 82.592 
X 8.047 Y 82.597 
X 8.000 Y 82.599 
X 7.953 Y 82.597 
X 7.906 Y 82.592 
X 7.860 Y 82.583 
X 7.815 Y 82.570 
X 7.771 Y 82.554 
X 7.728 Y 82.534 
X 7.687 Y 82.511 
X 7.648 Y 82.485 
X 7.611 Y 82.456 
X 7.576 Y 82.424 
X 7.544 Y 82.389 
X 7.515 Y 82.352 
X 7.489 Y 82.313 
X 7.466 Y 82.272 
X 7.446 Y 82.229 
X 7.430 Y 82.185 
X 7.417 Y 82.140 
X 7.408 Y 82.094 
X 7.403 Y 82.047 
X 7.401 Y 82.000 
X 7.403 Y 81.953 
X 7.408 Y 81.906 
X 7.417 Y 81.860 
X 7.430 Y 81.815 
X 7.446 Y 81.771 
X 7.466 Y 81.728 
X 7.489 Y 81.687 
X 7.515 Y 81.648 
X 7.544 Y 81.611 
X 7.576 Y 81.576 
X 7.611 Y 81.544 
X 7.648 Y 81.515 
X 7.687 Y 81.489 
X 7.728 Y 81.466 
X 7.771 Y 81.446 
X 7.815 Y 81.430 
X 7.860 Y 81.417 
X 7.906 Y 81.408 
X 7.953 Y 81.403 
X 8.000 Y 81.401 
X 8.047 Y 81.403 
X 8.094 Y 81.408 
X 8.140 Y 81.417 
X 8.185 Y 81.430 
X 8.229 Y 81.446 
X 8.272 Y 81.466 
X 8.313 Y 81.489 
X 8.352 Y 81.515 
X 8.389 Y 81.544 
X 8.424 Y 81.576 
X 8.456 Y 81.611 
X 8.485 Y 81.648 
X 8.511 Y 81.687 
X 8.534 Y 81.728 
X 8.554 Y 81.771 
X 8.570 Y 81.815 
X 8.583 Y 81.860 
X 8.592 Y 81.906 
X 8.597 Y 81.953 
X 8.599 Y 82.000 
G1   Z -4.350 F15000.0
G1 X 8.597 Y 82.047  F39000.0
X 8.592 Y 82.094 
X 8.583 Y 82.140 
X 8.570 Y 82.185 
X 8.554 Y 82.229 
X 8.534 Y 82.272 
X 8.511 Y 82.313 
X 8.485 Y 82.352 
X 8.456 Y 82.389 
X 8.424 Y 82.424 
X 8.389 Y 82.456 
X 8.352 Y 82.485 
X 8.313 Y 82.511 
X 8.272 Y 82.534 
X 8.229 Y 82.554 
X 8.185 Y 82.570 
X 8.140 Y 82.583 
X 8.094 Y 82.592 
X 8.047 Y 82.597 
X 8.000 Y 82.599 
X 7.953 Y 82.597 
X 7.906 Y 82.592 
X 7.860 Y 82.583 
X 7.815 Y 82.570 
X 7.771 Y 82.554 
X 7.728 Y 82.534 
X 7.687 Y 82.511 
X 7.648 Y 82.485 
X 7.611 Y 82.456 
X 7.576 Y 82.424 
X 7.544 Y 82.389 
X 7.515 Y 82.352 
X 7.489 Y 82.313 
X 7.466 Y 82.272 
X 7.446 Y 82.229 
X 7.430 Y 82.185 
X 7.417 Y 82.140 
X 7.408 Y 82.094 
X 7.403 Y 82.047 
X 7.401 Y 82.000 
X 7.403 Y 81.953 
X 7.408 Y 81.906 
X 7.417 Y 81.860 
X 7.430 Y 81.815 
X 7.446 Y 81.771 
X 7.466 Y 81.728 
X 7.489 Y 81.687 
X 7.515 Y 81.648 
X 7.544 Y 81.611 
X 7.576 Y 81.576 
X 7.611 Y 81.544 
X 7.648 Y 81.515 
X 7.687 Y 81.489 
X 7.728 Y 81.466 
X 7.771 Y 81.446 
X 7.815 Y 81.430 
X 7.860 Y 81.417 
X 7.906 Y 81.408 
X 7.953 Y 81.403 
X 8.000 Y 81.401 
X 8.047 Y 81.403 
X 8.094 Y 81.408 
X 8.140 Y 81.417 
X 8.185 Y 81.430 
X 8.229 Y 81.446 
X 8.272 Y 81.466 
X 8.313 Y 81.489 
X 8.352 Y 81.515 
X 8.389 Y 81.544 
X 8.424 Y 81.576 
X 8.456 Y 81.611 
X 8.485 Y 81.648 
X 8.511 Y 81.687 
X 8.534 Y 81.728 
X 8.554 Y 81.771 
X 8.570 Y 81.815 
X 8.583 Y 81.860 
X 8.592 Y 81.906 
X 8.597 Y 81.953 
X 8.599 Y 82.000 
G1   Z -5.800 F15000.0
G1 X 8.597 Y 82.047  F39000.0
X 8.592 Y 82.094 
X 8.583 Y 82.140 
X 8.570 Y 82.185 
X 8.554 Y 82.229 
X 8.534 Y 82.272 
X 8.511 Y 82.313 
X 8.485 Y 82.352 
X 8.456 Y 82.389 
X 8.424 Y 82.424 
X 8.389 Y 82.456 
X 8.352 Y 82.485 
X 8.313 Y 82.511 
X 8.272 Y 82.534 
X 8.229 Y 82.554 
X 8.185 Y 82.570 
X 8.140 Y 82.583 
X 8.094 Y 82.592 
X 8.047 Y 82.597 
X 8.000 Y 82.599 
X 7.953 Y 82.597 
X 7.906 Y 82.592 
X 7.860 Y 82.583 
X 7.815 Y 82.570 
X 7.771 Y 82.554 
X 7.728 Y 82.534 
X 7.687 Y 82.511 
X 7.648 Y 82.485 
X 7.611 Y 82.456 
X 7.576 Y 82.424 
X 7.544 Y 82.389 
X 7.515 Y 82.352 
X 7.489 Y 82.313 
X 7.466 Y 82.272 
X 7.446 Y 82.229 
X 7.430 Y 82.185 
X 7.417 Y 82.140 
X 7.408 Y 82.094 
X 7.403 Y 82.047 
X 7.401 Y 82.000 
X 7.403 Y 81.953 
X 7.408 Y 81.906 
X 7.417 Y 81.860 
X 7.430 Y 81.815 
X 7.446 Y 81.771 
X 7.466 Y 81.728 
X 7.489 Y 81.687 
X 7.515 Y 81.648 
X 7.544 Y 81.611 
X 7.576 Y 81.576 
X 7.611 Y 81.544 
X 7.648 Y 81.515 
X 7.687 Y 81.489 
X 7.728 Y 81.466 
X 7.771 Y 81.446 
X 7.815 Y 81.430 
X 7.860 Y 81.417 
X 7.906 Y 81.408 
X 7.953 Y 81.403 
X 8.000 Y 81.401 
X 8.047 Y 81.403 
X 8.094 Y 81.408 
X 8.140 Y 81.417 
X 8.185 Y 81.430 
X 8.229 Y 81.446 
X 8.272 Y 81.466 
X 8.313 Y 81.489 
X 8.352 Y 81.515 
X 8.389 Y 81.544 
X 8.424 Y 81.576 
X 8.456 Y 81.611 
X 8.485 Y 81.648 
X 8.511 Y 81.687 
X 8.534 Y 81.728 
X 8.554 Y 81.771 
X 8.570 Y 81.815 
X 8.583 Y 81.860 
X 8.592 Y 81.906 
X 8.597 Y 81.953 
X 8.599 Y 82.000 
G0   Z 6.000
G0 X 129.000 Y 124.362 Z 6.000
G1   Z -1.450 F15000.0
G1 X 115.000   F39000.0
 Y 98.362 
X 129.000  
 Y 124.362 
G1   Z -2.900 F15000.0
G1 X 115.000   F39000.0
 Y 98.362 
X 129.000  
 Y 124.362 
G1   Z -4.350 F15000.0
G1 X 115.000   F39000.0
 Y 98.362 
X 129.000  
 Y 124.362 
G1   Z -5.800 F15000.0
G1 X 115.000   F39000.0
 Y 98.362 
X 129.000  
 Y 124.362 
G0   Z 6.000
G0 X 1.000 Y 124.362 Z 6.000
G1   Z -1.450 F15000.0
G1  Y 98.362  F39000.0
X 15.000  
 Y 124.362 
X 1.000  
G1   Z -2.900 F15000.0
G1  Y 98.362  F39000.0
X 15.000  
 Y 124.362 
X 1.000  
G1   Z -4.350 F15000.0
G1  Y 98.362  F39000.0
X 15.000  
 Y 124.362 
X 1.000  
G1   Z -5.800 F15000.0
G1  Y 98.362  F39000.0
X 15.000  
 Y 124.362 
X 1.000  
G0   Z 6.000
G0 X 131.000 Y 129.724 Z 6.000
G1   Z -1.450 F15000.0
G1  Y -0.000  F39000.0
G2 X 130.000 Y -1.000 I-1.000 J0.000 
G1 X -0.000   
G2 X -1.000 Y -0.000 I0.000 J1.000 
G1  Y 194.724  
G2 X -0.000 Y 195.724 I1.000 J0.000 
G1 X 130.000   
G2 X 131.000 Y 194.724 I0.000 J-1.000 
G1  Y 165.724  
G2 X 130.000 Y 164.724 I-1.000 J0.000 
G1 X 15.000   
 Y 130.724 
X 130.000  
G2 X 131.000 Y 129.724 I0.000 J-1.000 
G1   Z -2.900 F15000.0
G1  Y -0.000  F39000.0
G2 X 130.000 Y -1.000 I-1.000 J0.000 
G1 X -0.000   
G2 X -1.000 Y -0.000 I0.000 J1.000 
G1  Y 194.724  
G2 X -0.000 Y 195.724 I1.000 J0.000 
G1 X 130.000   
G2 X 131.000 Y 194.724 I0.000 J-1.000 
G1  Y 165.724  
G2 X 130.000 Y 164.724 I-1.000 J0.000 
G1 X 15.000   
 Y 130.724 
X 130.000  
G2 X 131.000 Y 129.724 I0.000 J-1.000 
G1   Z -4.350 F15000.0
G1  Y -0.000  F39000.0
G2 X 130.000 Y -1.000 I-1.000 J0.000 
G1 X -0.000   
G2 X -1.000 Y -0.000 I0.000 J1.000 
G1  Y 194.724  
G2 X -0.000 Y 195.724 I1.000 J0.000 
G1 X 130.000   
G2 X 131.000 Y 194.724 I0.000 J-1.000 
G1  Y 165.724  
G2 X 130.000 Y 164.724 I-1.000 J0.000 
G1 X 15.000   
 Y 130.724 
X 130.000  
G2 X 131.000 Y 129.724 I0.000 J-1.000 
G1   Z -5.800 F15000.0
G1  Y -0.000  F39000.0
G2 X 130.000 Y -1.000 I-1.000 J0.000 
G1 X -0.000   
G2 X -1.000 Y -0.000 I0.000 J1.000 
G1  Y 194.724  
G2 X -0.000 Y 195.724 I1.000 J0.000 
G1 X 130.000   
G2 X 131.000 Y 194.724 I0.000 J-1.000 
G1  Y 165.724  
G2 X 130.000 Y 164.724 I-1.000 J0.000 
G1 X 15.000   
 Y 130.724 
X 130.000  
G2 X 131.000 Y 129.724 I0.000 J-1.000 
G0   Z 6.000
G0 Z 20.000
G0 X 0.000 Y 0.000
(END OF PROGRAM)
%
