%
( File Created by VCarve Pro )
T1 M6
G21 G90
G17
G0 Z 20.000
G0 X 0.000 Y 0.000
G0 X 35.100 Y 112.362 Z 6.000
G1   Z -1.450 F15000.0
G3 X 34.500 Y 112.962 I-0.600 J0.000 F39000.0
G3 X 33.900 Y 112.362 I0.000 J-0.600
G3 X 34.500 Y 111.762 I0.600 J0.000
G3 X 35.100 Y 112.362 I0.000 J0.600
G1   Z -2.900 F15000.0
G3 X 34.500 Y 112.962 I-0.600 J0.000 F39000.0
G3 X 33.900 Y 112.362 I0.000 J-0.600
G3 X 34.500 Y 111.762 I0.600 J0.000
G3 X 35.100 Y 112.362 I0.000 J0.600
G1   Z -4.350 F15000.0
G3 X 34.500 Y 112.962 I-0.600 J0.000 F39000.0
G3 X 33.900 Y 112.362 I0.000 J-0.600
G3 X 34.500 Y 111.762 I0.600 J0.000
G3 X 35.100 Y 112.362 I0.000 J0.600
G1   Z -5.800 F15000.0
G3 X 34.500 Y 112.962 I-0.600 J0.000 F39000.0
G3 X 33.900 Y 112.362 I0.000 J-0.600
G3 X 34.500 Y 111.762 I0.600 J0.000
G3 X 35.100 Y 112.362 I0.000 J0.600
G0   Z 6.000
G0 X 45.100  
G1   Z -1.450 F15000.0
G3 X 44.500 Y 112.962 I-0.600 J0.000 F39000.0
G3 X 43.900 Y 112.362 I0.000 J-0.600
G3 X 44.500 Y 111.762 I0.600 J0.000
G3 X 45.100 Y 112.362 I0.000 J0.600
G1   Z -2.900 F15000.0
G3 X 44.500 Y 112.962 I-0.600 J0.000 F39000.0
G3 X 43.900 Y 112.362 I0.000 J-0.600
G3 X 44.500 Y 111.762 I0.600 J0.000
G3 X 45.100 Y 112.362 I0.000 J0.600
G1   Z -4.350 F15000.0
G3 X 44.500 Y 112.962 I-0.600 J0.000 F39000.0
G3 X 43.900 Y 112.362 I0.000 J-0.600
G3 X 44.500 Y 111.762 I0.600 J0.000
G3 X 45.100 Y 112.362 I0.000 J0.600
G1   Z -5.800 F15000.0
G3 X 44.500 Y 112.962 I-0.600 J0.000 F39000.0
G3 X 43.900 Y 112.362 I0.000 J-0.600
G3 X 44.500 Y 111.762 I0.600 J0.000
G3 X 45.100 Y 112.362 I0.000 J0.600
G0   Z 6.000
G0 X 55.100  
G1   Z -1.450 F15000.0
G3 X 54.500 Y 112.962 I-0.600 J0.000 F39000.0
G3 X 53.900 Y 112.362 I0.000 J-0.600
G3 X 54.500 Y 111.762 I0.600 J0.000
G3 X 55.100 Y 112.362 I0.000 J0.600
G1   Z -2.900 F15000.0
G3 X 54.500 Y 112.962 I-0.600 J0.000 F39000.0
G3 X 53.900 Y 112.362 I0.000 J-0.600
G3 X 54.500 Y 111.762 I0.600 J0.000
G3 X 55.100 Y 112.362 I0.000 J0.600
G1   Z -4.350 F15000.0
G3 X 54.500 Y 112.962 I-0.600 J0.000 F39000.0
G3 X 53.900 Y 112.362 I0.000 J-0.600
G3 X 54.500 Y 111.762 I0.600 J0.000
G3 X 55.100 Y 112.362 I0.000 J0.600
G1   Z -5.800 F15000.0
G3 X 54.500 Y 112.962 I-0.600 J0.000 F39000.0
G3 X 53.900 Y 112.362 I0.000 J-0.600
G3 X 54.500 Y 111.762 I0.600 J0.000
G3 X 55.100 Y 112.362 I0.000 J0.600
G0   Z 6.000
G0 X 65.100  
G1   Z -1.450 F15000.0
G3 X 64.500 Y 112.962 I-0.600 J0.000 F39000.0
G3 X 63.900 Y 112.362 I0.000 J-0.600
G3 X 64.500 Y 111.762 I0.600 J0.000
G3 X 65.100 Y 112.362 I0.000 J0.600
G1   Z -2.900 F15000.0
G3 X 64.500 Y 112.962 I-0.600 J0.000 F39000.0
G3 X 63.900 Y 112.362 I0.000 J-0.600
G3 X 64.500 Y 111.762 I0.600 J0.000
G3 X 65.100 Y 112.362 I0.000 J0.600
G1   Z -4.350 F15000.0
G3 X 64.500 Y 112.962 I-0.600 J0.000 F39000.0
G3 X 63.900 Y 112.362 I0.000 J-0.600
G3 X 64.500 Y 111.762 I0.600 J0.000
G3 X 65.100 Y 112.362 I0.000 J0.600
G1   Z -5.800 F15000.0
G3 X 64.500 Y 112.962 I-0.600 J0.000 F39000.0
G3 X 63.900 Y 112.362 I0.000 J-0.600
G3 X 64.500 Y 111.762 I0.600 J0.000
G3 X 65.100 Y 112.362 I0.000 J0.600
G0   Z 6.000
G0 X 75.100  
G1   Z -1.450 F15000.0
G3 X 74.500 Y 112.962 I-0.600 J0.000 F39000.0
G3 X 73.900 Y 112.362 I0.000 J-0.600
G3 X 74.500 Y 111.762 I0.600 J0.000
G3 X 75.100 Y 112.362 I0.000 J0.600
G1   Z -2.900 F15000.0
G3 X 74.500 Y 112.962 I-0.600 J0.000 F39000.0
G3 X 73.900 Y 112.362 I0.000 J-0.600
G3 X 74.500 Y 111.762 I0.600 J0.000
G3 X 75.100 Y 112.362 I0.000 J0.600
G1   Z -4.350 F15000.0
G3 X 74.500 Y 112.962 I-0.600 J0.000 F39000.0
G3 X 73.900 Y 112.362 I0.000 J-0.600
G3 X 74.500 Y 111.762 I0.600 J0.000
G3 X 75.100 Y 112.362 I0.000 J0.600
G1   Z -5.800 F15000.0
G3 X 74.500 Y 112.962 I-0.600 J0.000 F39000.0
G3 X 73.900 Y 112.362 I0.000 J-0.600
G3 X 74.500 Y 111.762 I0.600 J0.000
G3 X 75.100 Y 112.362 I0.000 J0.600
G0   Z 6.000
G0 X 85.100  
G1   Z -1.450 F15000.0
G3 X 84.500 Y 112.962 I-0.600 J0.000 F39000.0
G3 X 83.900 Y 112.362 I0.000 J-0.600
G3 X 84.500 Y 111.762 I0.600 J0.000
G3 X 85.100 Y 112.362 I0.000 J0.600
G1   Z -2.900 F15000.0
G3 X 84.500 Y 112.962 I-0.600 J0.000 F39000.0
G3 X 83.900 Y 112.362 I0.000 J-0.600
G3 X 84.500 Y 111.762 I0.600 J0.000
G3 X 85.100 Y 112.362 I0.000 J0.600
G1   Z -4.350 F15000.0
G3 X 84.500 Y 112.962 I-0.600 J0.000 F39000.0
G3 X 83.900 Y 112.362 I0.000 J-0.600
G3 X 84.500 Y 111.762 I0.600 J0.000
G3 X 85.100 Y 112.362 I0.000 J0.600
G1   Z -5.800 F15000.0
G3 X 84.500 Y 112.962 I-0.600 J0.000 F39000.0
G3 X 83.900 Y 112.362 I0.000 J-0.600
G3 X 84.500 Y 111.762 I0.600 J0.000
G3 X 85.100 Y 112.362 I0.000 J0.600
G0   Z 6.000
G0 X 72.000 Y 97.362 
G1   Z -1.450 F15000.0
G3 X 65.000 Y 104.362 I-7.000 J0.000 F39000.0
G3 X 58.000 Y 97.362 I0.000 J-7.000
G3 X 65.000 Y 90.362 I7.000 J0.000
G3 X 72.000 Y 97.362 I0.000 J7.000
G1   Z -2.900 F15000.0
G3 X 65.000 Y 104.362 I-7.000 J0.000 F39000.0
G3 X 58.000 Y 97.362 I0.000 J-7.000
G3 X 65.000 Y 90.362 I7.000 J0.000
G3 X 72.000 Y 97.362 I0.000 J7.000
G1   Z -4.350 F15000.0
G3 X 65.000 Y 104.362 I-7.000 J0.000 F39000.0
G3 X 58.000 Y 97.362 I0.000 J-7.000
G3 X 65.000 Y 90.362 I7.000 J0.000
G3 X 72.000 Y 97.362 I0.000 J7.000
G1   Z -5.800 F15000.0
G3 X 65.000 Y 104.362 I-7.000 J0.000 F39000.0
G3 X 58.000 Y 97.362 I0.000 J-7.000
G3 X 65.000 Y 90.362 I7.000 J0.000
G3 X 72.000 Y 97.362 I0.000 J7.000
G0   Z 6.000
G0 X 75.100 Y 142.362 
G1   Z -1.450 F15000.0
G3 X 74.500 Y 142.962 I-0.600 J0.000 F39000.0
G3 X 73.900 Y 142.362 I0.000 J-0.600
G3 X 74.500 Y 141.762 I0.600 J0.000
G3 X 75.100 Y 142.362 I0.000 J0.600
G1   Z -2.900 F15000.0
G3 X 74.500 Y 142.962 I-0.600 J0.000 F39000.0
G3 X 73.900 Y 142.362 I0.000 J-0.600
G3 X 74.500 Y 141.762 I0.600 J0.000
G3 X 75.100 Y 142.362 I0.000 J0.600
G1   Z -4.350 F15000.0
G3 X 74.500 Y 142.962 I-0.600 J0.000 F39000.0
G3 X 73.900 Y 142.362 I0.000 J-0.600
G3 X 74.500 Y 141.762 I0.600 J0.000
G3 X 75.100 Y 142.362 I0.000 J0.600
G1   Z -5.800 F15000.0
G3 X 74.500 Y 142.962 I-0.600 J0.000 F39000.0
G3 X 73.900 Y 142.362 I0.000 J-0.600
G3 X 74.500 Y 141.762 I0.600 J0.000
G3 X 75.100 Y 142.362 I0.000 J0.600
G0   Z 6.000
G0 X 65.100  
G1   Z -1.450 F15000.0
G3 X 64.500 Y 142.962 I-0.600 J0.000 F39000.0
G3 X 63.900 Y 142.362 I0.000 J-0.600
G3 X 64.500 Y 141.762 I0.600 J0.000
G3 X 65.100 Y 142.362 I0.000 J0.600
G1   Z -2.900 F15000.0
G3 X 64.500 Y 142.962 I-0.600 J0.000 F39000.0
G3 X 63.900 Y 142.362 I0.000 J-0.600
G3 X 64.500 Y 141.762 I0.600 J0.000
G3 X 65.100 Y 142.362 I0.000 J0.600
G1   Z -4.350 F15000.0
G3 X 64.500 Y 142.962 I-0.600 J0.000 F39000.0
G3 X 63.900 Y 142.362 I0.000 J-0.600
G3 X 64.500 Y 141.762 I0.600 J0.000
G3 X 65.100 Y 142.362 I0.000 J0.600
G1   Z -5.800 F15000.0
G3 X 64.500 Y 142.962 I-0.600 J0.000 F39000.0
G3 X 63.900 Y 142.362 I0.000 J-0.600
G3 X 64.500 Y 141.762 I0.600 J0.000
G3 X 65.100 Y 142.362 I0.000 J0.600
G0   Z 6.000
G0 X 55.100  
G1   Z -1.450 F15000.0
G3 X 54.500 Y 142.962 I-0.600 J0.000 F39000.0
G3 X 53.900 Y 142.362 I0.000 J-0.600
G3 X 54.500 Y 141.762 I0.600 J0.000
G3 X 55.100 Y 142.362 I0.000 J0.600
G1   Z -2.900 F15000.0
G3 X 54.500 Y 142.962 I-0.600 J0.000 F39000.0
G3 X 53.900 Y 142.362 I0.000 J-0.600
G3 X 54.500 Y 141.762 I0.600 J0.000
G3 X 55.100 Y 142.362 I0.000 J0.600
G1   Z -4.350 F15000.0
G3 X 54.500 Y 142.962 I-0.600 J0.000 F39000.0
G3 X 53.900 Y 142.362 I0.000 J-0.600
G3 X 54.500 Y 141.762 I0.600 J0.000
G3 X 55.100 Y 142.362 I0.000 J0.600
G1   Z -5.800 F15000.0
G3 X 54.500 Y 142.962 I-0.600 J0.000 F39000.0
G3 X 53.900 Y 142.362 I0.000 J-0.600
G3 X 54.500 Y 141.762 I0.600 J0.000
G3 X 55.100 Y 142.362 I0.000 J0.600
G0   Z 6.000
G0 X 45.100  
G1   Z -1.450 F15000.0
G3 X 44.500 Y 142.962 I-0.600 J0.000 F39000.0
G3 X 43.900 Y 142.362 I0.000 J-0.600
G3 X 44.500 Y 141.762 I0.600 J0.000
G3 X 45.100 Y 142.362 I0.000 J0.600
G1   Z -2.900 F15000.0
G3 X 44.500 Y 142.962 I-0.600 J0.000 F39000.0
G3 X 43.900 Y 142.362 I0.000 J-0.600
G3 X 44.500 Y 141.762 I0.600 J0.000
G3 X 45.100 Y 142.362 I0.000 J0.600
G1   Z -4.350 F15000.0
G3 X 44.500 Y 142.962 I-0.600 J0.000 F39000.0
G3 X 43.900 Y 142.362 I0.000 J-0.600
G3 X 44.500 Y 141.762 I0.600 J0.000
G3 X 45.100 Y 142.362 I0.000 J0.600
G1   Z -5.800 F15000.0
G3 X 44.500 Y 142.962 I-0.600 J0.000 F39000.0
G3 X 43.900 Y 142.362 I0.000 J-0.600
G3 X 44.500 Y 141.762 I0.600 J0.000
G3 X 45.100 Y 142.362 I0.000 J0.600
G0   Z 6.000
G0 X 35.100  
G1   Z -1.450 F15000.0
G3 X 34.500 Y 142.962 I-0.600 J0.000 F39000.0
G3 X 33.900 Y 142.362 I0.000 J-0.600
G3 X 34.500 Y 141.762 I0.600 J0.000
G3 X 35.100 Y 142.362 I0.000 J0.600
G1   Z -2.900 F15000.0
G3 X 34.500 Y 142.962 I-0.600 J0.000 F39000.0
G3 X 33.900 Y 142.362 I0.000 J-0.600
G3 X 34.500 Y 141.762 I0.600 J0.000
G3 X 35.100 Y 142.362 I0.000 J0.600
G1   Z -4.350 F15000.0
G3 X 34.500 Y 142.962 I-0.600 J0.000 F39000.0
G3 X 33.900 Y 142.362 I0.000 J-0.600
G3 X 34.500 Y 141.762 I0.600 J0.000
G3 X 35.100 Y 142.362 I0.000 J0.600
G1   Z -5.800 F15000.0
G3 X 34.500 Y 142.962 I-0.600 J0.000 F39000.0
G3 X 33.900 Y 142.362 I0.000 J-0.600
G3 X 34.500 Y 141.762 I0.600 J0.000
G3 X 35.100 Y 142.362 I0.000 J0.600
G0   Z 6.000
G0 X 39.150 Y 186.724 
G1   Z -1.450 F15000.0
G3 X 38.000 Y 187.874 I-1.150 J0.000 F39000.0
G3 X 36.850 Y 186.724 I0.000 J-1.150
G3 X 38.000 Y 185.574 I1.150 J0.000
G3 X 39.150 Y 186.724 I0.000 J1.150
G1   Z -2.900 F15000.0
G3 X 38.000 Y 187.874 I-1.150 J0.000 F39000.0
G3 X 36.850 Y 186.724 I0.000 J-1.150
G3 X 38.000 Y 185.574 I1.150 J0.000
G3 X 39.150 Y 186.724 I0.000 J1.150
G1   Z -4.350 F15000.0
G3 X 38.000 Y 187.874 I-1.150 J0.000 F39000.0
G3 X 36.850 Y 186.724 I0.000 J-1.150
G3 X 38.000 Y 185.574 I1.150 J0.000
G3 X 39.150 Y 186.724 I0.000 J1.150
G1   Z -5.800 F15000.0
G3 X 38.000 Y 187.874 I-1.150 J0.000 F39000.0
G3 X 36.850 Y 186.724 I0.000 J-1.150
G3 X 38.000 Y 185.574 I1.150 J0.000
G3 X 39.150 Y 186.724 I0.000 J1.150
G0   Z 6.000
G0 X 53.150  
G1   Z -1.450 F15000.0
G3 X 52.000 Y 187.874 I-1.150 J0.000 F39000.0
G3 X 50.850 Y 186.724 I0.000 J-1.150
G3 X 52.000 Y 185.574 I1.150 J0.000
G3 X 53.150 Y 186.724 I0.000 J1.150
G1   Z -2.900 F15000.0
G3 X 52.000 Y 187.874 I-1.150 J0.000 F39000.0
G3 X 50.850 Y 186.724 I0.000 J-1.150
G3 X 52.000 Y 185.574 I1.150 J0.000
G3 X 53.150 Y 186.724 I0.000 J1.150
G1   Z -4.350 F15000.0
G3 X 52.000 Y 187.874 I-1.150 J0.000 F39000.0
G3 X 50.850 Y 186.724 I0.000 J-1.150
G3 X 52.000 Y 185.574 I1.150 J0.000
G3 X 53.150 Y 186.724 I0.000 J1.150
G1   Z -5.800 F15000.0
G3 X 52.000 Y 187.874 I-1.150 J0.000 F39000.0
G3 X 50.850 Y 186.724 I0.000 J-1.150
G3 X 52.000 Y 185.574 I1.150 J0.000
G3 X 53.150 Y 186.724 I0.000 J1.150
G0   Z 6.000
G0 X 79.150  
G1   Z -1.450 F15000.0
G3 X 78.000 Y 187.874 I-1.150 J0.000 F39000.0
G3 X 76.850 Y 186.724 I0.000 J-1.150
G3 X 78.000 Y 185.574 I1.150 J0.000
G3 X 79.150 Y 186.724 I0.000 J1.150
G1   Z -2.900 F15000.0
G3 X 78.000 Y 187.874 I-1.150 J0.000 F39000.0
G3 X 76.850 Y 186.724 I0.000 J-1.150
G3 X 78.000 Y 185.574 I1.150 J0.000
G3 X 79.150 Y 186.724 I0.000 J1.150
G1   Z -4.350 F15000.0
G3 X 78.000 Y 187.874 I-1.150 J0.000 F39000.0
G3 X 76.850 Y 186.724 I0.000 J-1.150
G3 X 78.000 Y 185.574 I1.150 J0.000
G3 X 79.150 Y 186.724 I0.000 J1.150
G1   Z -5.800 F15000.0
G3 X 78.000 Y 187.874 I-1.150 J0.000 F39000.0
G3 X 76.850 Y 186.724 I0.000 J-1.150
G3 X 78.000 Y 185.574 I1.150 J0.000
G3 X 79.150 Y 186.724 I0.000 J1.150
G0   Z 6.000
G0 X 93.150  
G1   Z -1.450 F15000.0
G3 X 92.000 Y 187.874 I-1.150 J0.000 F39000.0
G3 X 90.850 Y 186.724 I0.000 J-1.150
G3 X 92.000 Y 185.574 I1.150 J0.000
G3 X 93.150 Y 186.724 I0.000 J1.150
G1   Z -2.900 F15000.0
G3 X 92.000 Y 187.874 I-1.150 J0.000 F39000.0
G3 X 90.850 Y 186.724 I0.000 J-1.150
G3 X 92.000 Y 185.574 I1.150 J0.000
G3 X 93.150 Y 186.724 I0.000 J1.150
G1   Z -4.350 F15000.0
G3 X 92.000 Y 187.874 I-1.150 J0.000 F39000.0
G3 X 90.850 Y 186.724 I0.000 J-1.150
G3 X 92.000 Y 185.574 I1.150 J0.000
G3 X 93.150 Y 186.724 I0.000 J1.150
G1   Z -5.800 F15000.0
G3 X 92.000 Y 187.874 I-1.150 J0.000 F39000.0
G3 X 90.850 Y 186.724 I0.000 J-1.150
G3 X 92.000 Y 185.574 I1.150 J0.000
G3 X 93.150 Y 186.724 I0.000 J1.150
G0   Z 6.000
G0 X 73.000 Y 167.724 
G1   Z -1.450 F15000.0
G3 X 65.000 Y 175.724 I-8.000 J0.000 F39000.0
G3 X 57.000 Y 167.724 I0.000 J-8.000
G3 X 65.000 Y 159.724 I8.000 J0.000
G3 X 73.000 Y 167.724 I0.000 J8.000
G1   Z -2.900 F15000.0
G3 X 65.000 Y 175.724 I-8.000 J0.000 F39000.0
G3 X 57.000 Y 167.724 I0.000 J-8.000
G3 X 65.000 Y 159.724 I8.000 J0.000
G3 X 73.000 Y 167.724 I0.000 J8.000
G1   Z -4.350 F15000.0
G3 X 65.000 Y 175.724 I-8.000 J0.000 F39000.0
G3 X 57.000 Y 167.724 I0.000 J-8.000
G3 X 65.000 Y 159.724 I8.000 J0.000
G3 X 73.000 Y 167.724 I0.000 J8.000
G1   Z -5.800 F15000.0
G3 X 65.000 Y 175.724 I-8.000 J0.000 F39000.0
G3 X 57.000 Y 167.724 I0.000 J-8.000
G3 X 65.000 Y 159.724 I8.000 J0.000
G3 X 73.000 Y 167.724 I0.000 J8.000
G0   Z 6.000
G0 X 85.100 Y 142.362 
G1   Z -1.450 F15000.0
G3 X 84.500 Y 142.962 I-0.600 J0.000 F39000.0
G3 X 83.900 Y 142.362 I0.000 J-0.600
G3 X 84.500 Y 141.762 I0.600 J0.000
G3 X 85.100 Y 142.362 I0.000 J0.600
G1   Z -2.900 F15000.0
G3 X 84.500 Y 142.962 I-0.600 J0.000 F39000.0
G3 X 83.900 Y 142.362 I0.000 J-0.600
G3 X 84.500 Y 141.762 I0.600 J0.000
G3 X 85.100 Y 142.362 I0.000 J0.600
G1   Z -4.350 F15000.0
G3 X 84.500 Y 142.962 I-0.600 J0.000 F39000.0
G3 X 83.900 Y 142.362 I0.000 J-0.600
G3 X 84.500 Y 141.762 I0.600 J0.000
G3 X 85.100 Y 142.362 I0.000 J0.600
G1   Z -5.800 F15000.0
G3 X 84.500 Y 142.962 I-0.600 J0.000 F39000.0
G3 X 83.900 Y 142.362 I0.000 J-0.600
G3 X 84.500 Y 141.762 I0.600 J0.000
G3 X 85.100 Y 142.362 I0.000 J0.600
G0   Z 6.000
G0 X 122.599 Y 147.724 
G1   Z -1.450 F15000.0
G1 X 122.597 Y 147.771  F39000.0
X 122.592 Y 147.818 
X 122.583 Y 147.864 
X 122.570 Y 147.909 
X 122.554 Y 147.953 
X 122.534 Y 147.996 
X 122.511 Y 148.037 
X 122.485 Y 148.076 
X 122.456 Y 148.113 
X 122.424 Y 148.148 
X 122.389 Y 148.180 
X 122.352 Y 148.209 
X 122.313 Y 148.235 
X 122.272 Y 148.258 
X 122.229 Y 148.278 
X 122.185 Y 148.294 
X 122.140 Y 148.307 
X 122.094 Y 148.316 
X 122.047 Y 148.321 
X 122.000 Y 148.323 
X 121.953 Y 148.321 
X 121.906 Y 148.316 
X 121.860 Y 148.307 
X 121.815 Y 148.294 
X 121.771 Y 148.278 
X 121.728 Y 148.258 
X 121.687 Y 148.235 
X 121.648 Y 148.209 
X 121.611 Y 148.180 
X 121.576 Y 148.148 
X 121.544 Y 148.113 
X 121.515 Y 148.076 
X 121.489 Y 148.037 
X 121.466 Y 147.996 
X 121.446 Y 147.953 
X 121.430 Y 147.909 
X 121.417 Y 147.864 
X 121.408 Y 147.818 
X 121.403 Y 147.771 
X 121.401 Y 147.724 
X 121.403 Y 147.677 
X 121.408 Y 147.630 
X 121.417 Y 147.584 
X 121.430 Y 147.539 
X 121.446 Y 147.495 
X 121.466 Y 147.452 
X 121.489 Y 147.411 
X 121.515 Y 147.372 
X 121.544 Y 147.335 
X 121.576 Y 147.300 
X 121.611 Y 147.268 
X 121.648 Y 147.239 
X 121.687 Y 147.213 
X 121.728 Y 147.190 
X 121.771 Y 147.170 
X 121.815 Y 147.154 
X 121.860 Y 147.141 
X 121.906 Y 147.132 
X 121.953 Y 147.127 
X 122.000 Y 147.125 
X 122.047 Y 147.127 
X 122.094 Y 147.132 
X 122.140 Y 147.141 
X 122.185 Y 147.154 
X 122.229 Y 147.170 
X 122.272 Y 147.190 
X 122.313 Y 147.213 
X 122.352 Y 147.239 
X 122.389 Y 147.268 
X 122.424 Y 147.300 
X 122.456 Y 147.335 
X 122.485 Y 147.372 
X 122.511 Y 147.411 
X 122.534 Y 147.452 
X 122.554 Y 147.495 
X 122.570 Y 147.539 
X 122.583 Y 147.584 
X 122.592 Y 147.630 
X 122.597 Y 147.677 
X 122.599 Y 147.724 
G1   Z -2.900 F15000.0
G1 X 122.597 Y 147.771  F39000.0
X 122.592 Y 147.818 
X 122.583 Y 147.864 
X 122.570 Y 147.909 
X 122.554 Y 147.953 
X 122.534 Y 147.996 
X 122.511 Y 148.037 
X 122.485 Y 148.076 
X 122.456 Y 148.113 
X 122.424 Y 148.148 
X 122.389 Y 148.180 
X 122.352 Y 148.209 
X 122.313 Y 148.235 
X 122.272 Y 148.258 
X 122.229 Y 148.278 
X 122.185 Y 148.294 
X 122.140 Y 148.307 
X 122.094 Y 148.316 
X 122.047 Y 148.321 
X 122.000 Y 148.323 
X 121.953 Y 148.321 
X 121.906 Y 148.316 
X 121.860 Y 148.307 
X 121.815 Y 148.294 
X 121.771 Y 148.278 
X 121.728 Y 148.258 
X 121.687 Y 148.235 
X 121.648 Y 148.209 
X 121.611 Y 148.180 
X 121.576 Y 148.148 
X 121.544 Y 148.113 
X 121.515 Y 148.076 
X 121.489 Y 148.037 
X 121.466 Y 147.996 
X 121.446 Y 147.953 
X 121.430 Y 147.909 
X 121.417 Y 147.864 
X 121.408 Y 147.818 
X 121.403 Y 147.771 
X 121.401 Y 147.724 
X 121.403 Y 147.677 
X 121.408 Y 147.630 
X 121.417 Y 147.584 
X 121.430 Y 147.539 
X 121.446 Y 147.495 
X 121.466 Y 147.452 
X 121.489 Y 147.411 
X 121.515 Y 147.372 
X 121.544 Y 147.335 
X 121.576 Y 147.300 
X 121.611 Y 147.268 
X 121.648 Y 147.239 
X 121.687 Y 147.213 
X 121.728 Y 147.190 
X 121.771 Y 147.170 
X 121.815 Y 147.154 
X 121.860 Y 147.141 
X 121.906 Y 147.132 
X 121.953 Y 147.127 
X 122.000 Y 147.125 
X 122.047 Y 147.127 
X 122.094 Y 147.132 
X 122.140 Y 147.141 
X 122.185 Y 147.154 
X 122.229 Y 147.170 
X 122.272 Y 147.190 
X 122.313 Y 147.213 
X 122.352 Y 147.239 
X 122.389 Y 147.268 
X 122.424 Y 147.300 
X 122.456 Y 147.335 
X 122.485 Y 147.372 
X 122.511 Y 147.411 
X 122.534 Y 147.452 
X 122.554 Y 147.495 
X 122.570 Y 147.539 
X 122.583 Y 147.584 
X 122.592 Y 147.630 
X 122.597 Y 147.677 
X 122.599 Y 147.724 
G1   Z -4.350 F15000.0
G1 X 122.597 Y 147.771  F39000.0
X 122.592 Y 147.818 
X 122.583 Y 147.864 
X 122.570 Y 147.909 
X 122.554 Y 147.953 
X 122.534 Y 147.996 
X 122.511 Y 148.037 
X 122.485 Y 148.076 
X 122.456 Y 148.113 
X 122.424 Y 148.148 
X 122.389 Y 148.180 
X 122.352 Y 148.209 
X 122.313 Y 148.235 
X 122.272 Y 148.258 
X 122.229 Y 148.278 
X 122.185 Y 148.294 
X 122.140 Y 148.307 
X 122.094 Y 148.316 
X 122.047 Y 148.321 
X 122.000 Y 148.323 
X 121.953 Y 148.321 
X 121.906 Y 148.316 
X 121.860 Y 148.307 
X 121.815 Y 148.294 
X 121.771 Y 148.278 
X 121.728 Y 148.258 
X 121.687 Y 148.235 
X 121.648 Y 148.209 
X 121.611 Y 148.180 
X 121.576 Y 148.148 
X 121.544 Y 148.113 
X 121.515 Y 148.076 
X 121.489 Y 148.037 
X 121.466 Y 147.996 
X 121.446 Y 147.953 
X 121.430 Y 147.909 
X 121.417 Y 147.864 
X 121.408 Y 147.818 
X 121.403 Y 147.771 
X 121.401 Y 147.724 
X 121.403 Y 147.677 
X 121.408 Y 147.630 
X 121.417 Y 147.584 
X 121.430 Y 147.539 
X 121.446 Y 147.495 
X 121.466 Y 147.452 
X 121.489 Y 147.411 
X 121.515 Y 147.372 
X 121.544 Y 147.335 
X 121.576 Y 147.300 
X 121.611 Y 147.268 
X 121.648 Y 147.239 
X 121.687 Y 147.213 
X 121.728 Y 147.190 
X 121.771 Y 147.170 
X 121.815 Y 147.154 
X 121.860 Y 147.141 
X 121.906 Y 147.132 
X 121.953 Y 147.127 
X 122.000 Y 147.125 
X 122.047 Y 147.127 
X 122.094 Y 147.132 
X 122.140 Y 147.141 
X 122.185 Y 147.154 
X 122.229 Y 147.170 
X 122.272 Y 147.190 
X 122.313 Y 147.213 
X 122.352 Y 147.239 
X 122.389 Y 147.268 
X 122.424 Y 147.300 
X 122.456 Y 147.335 
X 122.485 Y 147.372 
X 122.511 Y 147.411 
X 122.534 Y 147.452 
X 122.554 Y 147.495 
X 122.570 Y 147.539 
X 122.583 Y 147.584 
X 122.592 Y 147.630 
X 122.597 Y 147.677 
X 122.599 Y 147.724 
G1   Z -5.800 F15000.0
G1 X 122.597 Y 147.771  F39000.0
X 122.592 Y 147.818 
X 122.583 Y 147.864 
X 122.570 Y 147.909 
X 122.554 Y 147.953 
X 122.534 Y 147.996 
X 122.511 Y 148.037 
X 122.485 Y 148.076 
X 122.456 Y 148.113 
X 122.424 Y 148.148 
X 122.389 Y 148.180 
X 122.352 Y 148.209 
X 122.313 Y 148.235 
X 122.272 Y 148.258 
X 122.229 Y 148.278 
X 122.185 Y 148.294 
X 122.140 Y 148.307 
X 122.094 Y 148.316 
X 122.047 Y 148.321 
X 122.000 Y 148.323 
X 121.953 Y 148.321 
X 121.906 Y 148.316 
X 121.860 Y 148.307 
X 121.815 Y 148.294 
X 121.771 Y 148.278 
X 121.728 Y 148.258 
X 121.687 Y 148.235 
X 121.648 Y 148.209 
X 121.611 Y 148.180 
X 121.576 Y 148.148 
X 121.544 Y 148.113 
X 121.515 Y 148.076 
X 121.489 Y 148.037 
X 121.466 Y 147.996 
X 121.446 Y 147.953 
X 121.430 Y 147.909 
X 121.417 Y 147.864 
X 121.408 Y 147.818 
X 121.403 Y 147.771 
X 121.401 Y 147.724 
X 121.403 Y 147.677 
X 121.408 Y 147.630 
X 121.417 Y 147.584 
X 121.430 Y 147.539 
X 121.446 Y 147.495 
X 121.466 Y 147.452 
X 121.489 Y 147.411 
X 121.515 Y 147.372 
X 121.544 Y 147.335 
X 121.576 Y 147.300 
X 121.611 Y 147.268 
X 121.648 Y 147.239 
X 121.687 Y 147.213 
X 121.728 Y 147.190 
X 121.771 Y 147.170 
X 121.815 Y 147.154 
X 121.860 Y 147.141 
X 121.906 Y 147.132 
X 121.953 Y 147.127 
X 122.000 Y 147.125 
X 122.047 Y 147.127 
X 122.094 Y 147.132 
X 122.140 Y 147.141 
X 122.185 Y 147.154 
X 122.229 Y 147.170 
X 122.272 Y 147.190 
X 122.313 Y 147.213 
X 122.352 Y 147.239 
X 122.389 Y 147.268 
X 122.424 Y 147.300 
X 122.456 Y 147.335 
X 122.485 Y 147.372 
X 122.511 Y 147.411 
X 122.534 Y 147.452 
X 122.554 Y 147.495 
X 122.570 Y 147.539 
X 122.583 Y 147.584 
X 122.592 Y 147.630 
X 122.597 Y 147.677 
X 122.599 Y 147.724 
G0   Z 6.000
G0  Y 186.724 
G1   Z -1.450 F15000.0
G1 X 122.597 Y 186.771  F39000.0
X 122.592 Y 186.818 
X 122.583 Y 186.864 
X 122.570 Y 186.909 
X 122.554 Y 186.953 
X 122.534 Y 186.996 
X 122.511 Y 187.037 
X 122.485 Y 187.076 
X 122.456 Y 187.113 
X 122.424 Y 187.148 
X 122.389 Y 187.180 
X 122.352 Y 187.209 
X 122.313 Y 187.235 
X 122.272 Y 187.258 
X 122.229 Y 187.278 
X 122.185 Y 187.294 
X 122.140 Y 187.307 
X 122.094 Y 187.316 
X 122.047 Y 187.321 
X 122.000 Y 187.323 
X 121.953 Y 187.321 
X 121.906 Y 187.316 
X 121.860 Y 187.307 
X 121.815 Y 187.294 
X 121.771 Y 187.278 
X 121.728 Y 187.258 
X 121.687 Y 187.235 
X 121.648 Y 187.209 
X 121.611 Y 187.180 
X 121.576 Y 187.148 
X 121.544 Y 187.113 
X 121.515 Y 187.076 
X 121.489 Y 187.037 
X 121.466 Y 186.996 
X 121.446 Y 186.953 
X 121.430 Y 186.909 
X 121.417 Y 186.864 
X 121.408 Y 186.818 
X 121.403 Y 186.771 
X 121.401 Y 186.724 
X 121.403 Y 186.677 
X 121.408 Y 186.630 
X 121.417 Y 186.584 
X 121.430 Y 186.539 
X 121.446 Y 186.495 
X 121.466 Y 186.452 
X 121.489 Y 186.411 
X 121.515 Y 186.372 
X 121.544 Y 186.335 
X 121.576 Y 186.300 
X 121.611 Y 186.268 
X 121.648 Y 186.239 
X 121.687 Y 186.213 
X 121.728 Y 186.190 
X 121.771 Y 186.170 
X 121.815 Y 186.154 
X 121.860 Y 186.141 
X 121.906 Y 186.132 
X 121.953 Y 186.127 
X 122.000 Y 186.125 
X 122.047 Y 186.127 
X 122.094 Y 186.132 
X 122.140 Y 186.141 
X 122.185 Y 186.154 
X 122.229 Y 186.170 
X 122.272 Y 186.190 
X 122.313 Y 186.213 
X 122.352 Y 186.239 
X 122.389 Y 186.268 
X 122.424 Y 186.300 
X 122.456 Y 186.335 
X 122.485 Y 186.372 
X 122.511 Y 186.411 
X 122.534 Y 186.452 
X 122.554 Y 186.495 
X 122.570 Y 186.539 
X 122.583 Y 186.584 
X 122.592 Y 186.630 
X 122.597 Y 186.677 
X 122.599 Y 186.724 
G1   Z -2.900 F15000.0
G1 X 122.597 Y 186.771  F39000.0
X 122.592 Y 186.818 
X 122.583 Y 186.864 
X 122.570 Y 186.909 
X 122.554 Y 186.953 
X 122.534 Y 186.996 
X 122.511 Y 187.037 
X 122.485 Y 187.076 
X 122.456 Y 187.113 
X 122.424 Y 187.148 
X 122.389 Y 187.180 
X 122.352 Y 187.209 
X 122.313 Y 187.235 
X 122.272 Y 187.258 
X 122.229 Y 187.278 
X 122.185 Y 187.294 
X 122.140 Y 187.307 
X 122.094 Y 187.316 
X 122.047 Y 187.321 
X 122.000 Y 187.323 
X 121.953 Y 187.321 
X 121.906 Y 187.316 
X 121.860 Y 187.307 
X 121.815 Y 187.294 
X 121.771 Y 187.278 
X 121.728 Y 187.258 
X 121.687 Y 187.235 
X 121.648 Y 187.209 
X 121.611 Y 187.180 
X 121.576 Y 187.148 
X 121.544 Y 187.113 
X 121.515 Y 187.076 
X 121.489 Y 187.037 
X 121.466 Y 186.996 
X 121.446 Y 186.953 
X 121.430 Y 186.909 
X 121.417 Y 186.864 
X 121.408 Y 186.818 
X 121.403 Y 186.771 
X 121.401 Y 186.724 
X 121.403 Y 186.677 
X 121.408 Y 186.630 
X 121.417 Y 186.584 
X 121.430 Y 186.539 
X 121.446 Y 186.495 
X 121.466 Y 186.452 
X 121.489 Y 186.411 
X 121.515 Y 186.372 
X 121.544 Y 186.335 
X 121.576 Y 186.300 
X 121.611 Y 186.268 
X 121.648 Y 186.239 
X 121.687 Y 186.213 
X 121.728 Y 186.190 
X 121.771 Y 186.170 
X 121.815 Y 186.154 
X 121.860 Y 186.141 
X 121.906 Y 186.132 
X 121.953 Y 186.127 
X 122.000 Y 186.125 
X 122.047 Y 186.127 
X 122.094 Y 186.132 
X 122.140 Y 186.141 
X 122.185 Y 186.154 
X 122.229 Y 186.170 
X 122.272 Y 186.190 
X 122.313 Y 186.213 
X 122.352 Y 186.239 
X 122.389 Y 186.268 
X 122.424 Y 186.300 
X 122.456 Y 186.335 
X 122.485 Y 186.372 
X 122.511 Y 186.411 
X 122.534 Y 186.452 
X 122.554 Y 186.495 
X 122.570 Y 186.539 
X 122.583 Y 186.584 
X 122.592 Y 186.630 
X 122.597 Y 186.677 
X 122.599 Y 186.724 
G1   Z -4.350 F15000.0
G1 X 122.597 Y 186.771  F39000.0
X 122.592 Y 186.818 
X 122.583 Y 186.864 
X 122.570 Y 186.909 
X 122.554 Y 186.953 
X 122.534 Y 186.996 
X 122.511 Y 187.037 
X 122.485 Y 187.076 
X 122.456 Y 187.113 
X 122.424 Y 187.148 
X 122.389 Y 187.180 
X 122.352 Y 187.209 
X 122.313 Y 187.235 
X 122.272 Y 187.258 
X 122.229 Y 187.278 
X 122.185 Y 187.294 
X 122.140 Y 187.307 
X 122.094 Y 187.316 
X 122.047 Y 187.321 
X 122.000 Y 187.323 
X 121.953 Y 187.321 
X 121.906 Y 187.316 
X 121.860 Y 187.307 
X 121.815 Y 187.294 
X 121.771 Y 187.278 
X 121.728 Y 187.258 
X 121.687 Y 187.235 
X 121.648 Y 187.209 
X 121.611 Y 187.180 
X 121.576 Y 187.148 
X 121.544 Y 187.113 
X 121.515 Y 187.076 
X 121.489 Y 187.037 
X 121.466 Y 186.996 
X 121.446 Y 186.953 
X 121.430 Y 186.909 
X 121.417 Y 186.864 
X 121.408 Y 186.818 
X 121.403 Y 186.771 
X 121.401 Y 186.724 
X 121.403 Y 186.677 
X 121.408 Y 186.630 
X 121.417 Y 186.584 
X 121.430 Y 186.539 
X 121.446 Y 186.495 
X 121.466 Y 186.452 
X 121.489 Y 186.411 
X 121.515 Y 186.372 
X 121.544 Y 186.335 
X 121.576 Y 186.300 
X 121.611 Y 186.268 
X 121.648 Y 186.239 
X 121.687 Y 186.213 
X 121.728 Y 186.190 
X 121.771 Y 186.170 
X 121.815 Y 186.154 
X 121.860 Y 186.141 
X 121.906 Y 186.132 
X 121.953 Y 186.127 
X 122.000 Y 186.125 
X 122.047 Y 186.127 
X 122.094 Y 186.132 
X 122.140 Y 186.141 
X 122.185 Y 186.154 
X 122.229 Y 186.170 
X 122.272 Y 186.190 
X 122.313 Y 186.213 
X 122.352 Y 186.239 
X 122.389 Y 186.268 
X 122.424 Y 186.300 
X 122.456 Y 186.335 
X 122.485 Y 186.372 
X 122.511 Y 186.411 
X 122.534 Y 186.452 
X 122.554 Y 186.495 
X 122.570 Y 186.539 
X 122.583 Y 186.584 
X 122.592 Y 186.630 
X 122.597 Y 186.677 
X 122.599 Y 186.724 
G1   Z -5.800 F15000.0
G1 X 122.597 Y 186.771  F39000.0
X 122.592 Y 186.818 
X 122.583 Y 186.864 
X 122.570 Y 186.909 
X 122.554 Y 186.953 
X 122.534 Y 186.996 
X 122.511 Y 187.037 
X 122.485 Y 187.076 
X 122.456 Y 187.113 
X 122.424 Y 187.148 
X 122.389 Y 187.180 
X 122.352 Y 187.209 
X 122.313 Y 187.235 
X 122.272 Y 187.258 
X 122.229 Y 187.278 
X 122.185 Y 187.294 
X 122.140 Y 187.307 
X 122.094 Y 187.316 
X 122.047 Y 187.321 
X 122.000 Y 187.323 
X 121.953 Y 187.321 
X 121.906 Y 187.316 
X 121.860 Y 187.307 
X 121.815 Y 187.294 
X 121.771 Y 187.278 
X 121.728 Y 187.258 
X 121.687 Y 187.235 
X 121.648 Y 187.209 
X 121.611 Y 187.180 
X 121.576 Y 187.148 
X 121.544 Y 187.113 
X 121.515 Y 187.076 
X 121.489 Y 187.037 
X 121.466 Y 186.996 
X 121.446 Y 186.953 
X 121.430 Y 186.909 
X 121.417 Y 186.864 
X 121.408 Y 186.818 
X 121.403 Y 186.771 
X 121.401 Y 186.724 
X 121.403 Y 186.677 
X 121.408 Y 186.630 
X 121.417 Y 186.584 
X 121.430 Y 186.539 
X 121.446 Y 186.495 
X 121.466 Y 186.452 
X 121.489 Y 186.411 
X 121.515 Y 186.372 
X 121.544 Y 186.335 
X 121.576 Y 186.300 
X 121.611 Y 186.268 
X 121.648 Y 186.239 
X 121.687 Y 186.213 
X 121.728 Y 186.190 
X 121.771 Y 186.170 
X 121.815 Y 186.154 
X 121.860 Y 186.141 
X 121.906 Y 186.132 
X 121.953 Y 186.127 
X 122.000 Y 186.125 
X 122.047 Y 186.127 
X 122.094 Y 186.132 
X 122.140 Y 186.141 
X 122.185 Y 186.154 
X 122.229 Y 186.170 
X 122.272 Y 186.190 
X 122.313 Y 186.213 
X 122.352 Y 186.239 
X 122.389 Y 186.268 
X 122.424 Y 186.300 
X 122.456 Y 186.335 
X 122.485 Y 186.372 
X 122.511 Y 186.411 
X 122.534 Y 186.452 
X 122.554 Y 186.495 
X 122.570 Y 186.539 
X 122.583 Y 186.584 
X 122.592 Y 186.630 
X 122.597 Y 186.677 
X 122.599 Y 186.724 
G0   Z 6.000
G0 X 8.599  
G1   Z -1.450 F15000.0
G1 X 8.597 Y 186.771  F39000.0
X 8.592 Y 186.818 
X 8.583 Y 186.864 
X 8.570 Y 186.909 
X 8.554 Y 186.953 
X 8.534 Y 186.996 
X 8.511 Y 187.037 
X 8.485 Y 187.076 
X 8.456 Y 187.113 
X 8.424 Y 187.148 
X 8.389 Y 187.180 
X 8.352 Y 187.209 
X 8.313 Y 187.235 
X 8.272 Y 187.258 
X 8.229 Y 187.278 
X 8.185 Y 187.294 
X 8.140 Y 187.307 
X 8.094 Y 187.316 
X 8.047 Y 187.321 
X 8.000 Y 187.323 
X 7.953 Y 187.321 
X 7.906 Y 187.316 
X 7.860 Y 187.307 
X 7.815 Y 187.294 
X 7.771 Y 187.278 
X 7.728 Y 187.258 
X 7.687 Y 187.235 
X 7.648 Y 187.209 
X 7.611 Y 187.180 
X 7.576 Y 187.148 
X 7.544 Y 187.113 
X 7.515 Y 187.076 
X 7.489 Y 187.037 
X 7.466 Y 186.996 
X 7.446 Y 186.953 
X 7.430 Y 186.909 
X 7.417 Y 186.864 
X 7.408 Y 186.818 
X 7.403 Y 186.771 
X 7.401 Y 186.724 
X 7.403 Y 186.677 
X 7.408 Y 186.630 
X 7.417 Y 186.584 
X 7.430 Y 186.539 
X 7.446 Y 186.495 
X 7.466 Y 186.452 
X 7.489 Y 186.411 
X 7.515 Y 186.372 
X 7.544 Y 186.335 
X 7.576 Y 186.300 
X 7.611 Y 186.268 
X 7.648 Y 186.239 
X 7.687 Y 186.213 
X 7.728 Y 186.190 
X 7.771 Y 186.170 
X 7.815 Y 186.154 
X 7.860 Y 186.141 
X 7.906 Y 186.132 
X 7.953 Y 186.127 
X 8.000 Y 186.125 
X 8.047 Y 186.127 
X 8.094 Y 186.132 
X 8.140 Y 186.141 
X 8.185 Y 186.154 
X 8.229 Y 186.170 
X 8.272 Y 186.190 
X 8.313 Y 186.213 
X 8.352 Y 186.239 
X 8.389 Y 186.268 
X 8.424 Y 186.300 
X 8.456 Y 186.335 
X 8.485 Y 186.372 
X 8.511 Y 186.411 
X 8.534 Y 186.452 
X 8.554 Y 186.495 
X 8.570 Y 186.539 
X 8.583 Y 186.584 
X 8.592 Y 186.630 
X 8.597 Y 186.677 
X 8.599 Y 186.724 
G1   Z -2.900 F15000.0
G1 X 8.597 Y 186.771  F39000.0
X 8.592 Y 186.818 
X 8.583 Y 186.864 
X 8.570 Y 186.909 
X 8.554 Y 186.953 
X 8.534 Y 186.996 
X 8.511 Y 187.037 
X 8.485 Y 187.076 
X 8.456 Y 187.113 
X 8.424 Y 187.148 
X 8.389 Y 187.180 
X 8.352 Y 187.209 
X 8.313 Y 187.235 
X 8.272 Y 187.258 
X 8.229 Y 187.278 
X 8.185 Y 187.294 
X 8.140 Y 187.307 
X 8.094 Y 187.316 
X 8.047 Y 187.321 
X 8.000 Y 187.323 
X 7.953 Y 187.321 
X 7.906 Y 187.316 
X 7.860 Y 187.307 
X 7.815 Y 187.294 
X 7.771 Y 187.278 
X 7.728 Y 187.258 
X 7.687 Y 187.235 
X 7.648 Y 187.209 
X 7.611 Y 187.180 
X 7.576 Y 187.148 
X 7.544 Y 187.113 
X 7.515 Y 187.076 
X 7.489 Y 187.037 
X 7.466 Y 186.996 
X 7.446 Y 186.953 
X 7.430 Y 186.909 
X 7.417 Y 186.864 
X 7.408 Y 186.818 
X 7.403 Y 186.771 
X 7.401 Y 186.724 
X 7.403 Y 186.677 
X 7.408 Y 186.630 
X 7.417 Y 186.584 
X 7.430 Y 186.539 
X 7.446 Y 186.495 
X 7.466 Y 186.452 
X 7.489 Y 186.411 
X 7.515 Y 186.372 
X 7.544 Y 186.335 
X 7.576 Y 186.300 
X 7.611 Y 186.268 
X 7.648 Y 186.239 
X 7.687 Y 186.213 
X 7.728 Y 186.190 
X 7.771 Y 186.170 
X 7.815 Y 186.154 
X 7.860 Y 186.141 
X 7.906 Y 186.132 
X 7.953 Y 186.127 
X 8.000 Y 186.125 
X 8.047 Y 186.127 
X 8.094 Y 186.132 
X 8.140 Y 186.141 
X 8.185 Y 186.154 
X 8.229 Y 186.170 
X 8.272 Y 186.190 
X 8.313 Y 186.213 
X 8.352 Y 186.239 
X 8.389 Y 186.268 
X 8.424 Y 186.300 
X 8.456 Y 186.335 
X 8.485 Y 186.372 
X 8.511 Y 186.411 
X 8.534 Y 186.452 
X 8.554 Y 186.495 
X 8.570 Y 186.539 
X 8.583 Y 186.584 
X 8.592 Y 186.630 
X 8.597 Y 186.677 
X 8.599 Y 186.724 
G1   Z -4.350 F15000.0
G1 X 8.597 Y 186.771  F39000.0
X 8.592 Y 186.818 
X 8.583 Y 186.864 
X 8.570 Y 186.909 
X 8.554 Y 186.953 
X 8.534 Y 186.996 
X 8.511 Y 187.037 
X 8.485 Y 187.076 
X 8.456 Y 187.113 
X 8.424 Y 187.148 
X 8.389 Y 187.180 
X 8.352 Y 187.209 
X 8.313 Y 187.235 
X 8.272 Y 187.258 
X 8.229 Y 187.278 
X 8.185 Y 187.294 
X 8.140 Y 187.307 
X 8.094 Y 187.316 
X 8.047 Y 187.321 
X 8.000 Y 187.323 
X 7.953 Y 187.321 
X 7.906 Y 187.316 
X 7.860 Y 187.307 
X 7.815 Y 187.294 
X 7.771 Y 187.278 
X 7.728 Y 187.258 
X 7.687 Y 187.235 
X 7.648 Y 187.209 
X 7.611 Y 187.180 
X 7.576 Y 187.148 
X 7.544 Y 187.113 
X 7.515 Y 187.076 
X 7.489 Y 187.037 
X 7.466 Y 186.996 
X 7.446 Y 186.953 
X 7.430 Y 186.909 
X 7.417 Y 186.864 
X 7.408 Y 186.818 
X 7.403 Y 186.771 
X 7.401 Y 186.724 
X 7.403 Y 186.677 
X 7.408 Y 186.630 
X 7.417 Y 186.584 
X 7.430 Y 186.539 
X 7.446 Y 186.495 
X 7.466 Y 186.452 
X 7.489 Y 186.411 
X 7.515 Y 186.372 
X 7.544 Y 186.335 
X 7.576 Y 186.300 
X 7.611 Y 186.268 
X 7.648 Y 186.239 
X 7.687 Y 186.213 
X 7.728 Y 186.190 
X 7.771 Y 186.170 
X 7.815 Y 186.154 
X 7.860 Y 186.141 
X 7.906 Y 186.132 
X 7.953 Y 186.127 
X 8.000 Y 186.125 
X 8.047 Y 186.127 
X 8.094 Y 186.132 
X 8.140 Y 186.141 
X 8.185 Y 186.154 
X 8.229 Y 186.170 
X 8.272 Y 186.190 
X 8.313 Y 186.213 
X 8.352 Y 186.239 
X 8.389 Y 186.268 
X 8.424 Y 186.300 
X 8.456 Y 186.335 
X 8.485 Y 186.372 
X 8.511 Y 186.411 
X 8.534 Y 186.452 
X 8.554 Y 186.495 
X 8.570 Y 186.539 
X 8.583 Y 186.584 
X 8.592 Y 186.630 
X 8.597 Y 186.677 
X 8.599 Y 186.724 
G1   Z -5.800 F15000.0
G1 X 8.597 Y 186.771  F39000.0
X 8.592 Y 186.818 
X 8.583 Y 186.864 
X 8.570 Y 186.909 
X 8.554 Y 186.953 
X 8.534 Y 186.996 
X 8.511 Y 187.037 
X 8.485 Y 187.076 
X 8.456 Y 187.113 
X 8.424 Y 187.148 
X 8.389 Y 187.180 
X 8.352 Y 187.209 
X 8.313 Y 187.235 
X 8.272 Y 187.258 
X 8.229 Y 187.278 
X 8.185 Y 187.294 
X 8.140 Y 187.307 
X 8.094 Y 187.316 
X 8.047 Y 187.321 
X 8.000 Y 187.323 
X 7.953 Y 187.321 
X 7.906 Y 187.316 
X 7.860 Y 187.307 
X 7.815 Y 187.294 
X 7.771 Y 187.278 
X 7.728 Y 187.258 
X 7.687 Y 187.235 
X 7.648 Y 187.209 
X 7.611 Y 187.180 
X 7.576 Y 187.148 
X 7.544 Y 187.113 
X 7.515 Y 187.076 
X 7.489 Y 187.037 
X 7.466 Y 186.996 
X 7.446 Y 186.953 
X 7.430 Y 186.909 
X 7.417 Y 186.864 
X 7.408 Y 186.818 
X 7.403 Y 186.771 
X 7.401 Y 186.724 
X 7.403 Y 186.677 
X 7.408 Y 186.630 
X 7.417 Y 186.584 
X 7.430 Y 186.539 
X 7.446 Y 186.495 
X 7.466 Y 186.452 
X 7.489 Y 186.411 
X 7.515 Y 186.372 
X 7.544 Y 186.335 
X 7.576 Y 186.300 
X 7.611 Y 186.268 
X 7.648 Y 186.239 
X 7.687 Y 186.213 
X 7.728 Y 186.190 
X 7.771 Y 186.170 
X 7.815 Y 186.154 
X 7.860 Y 186.141 
X 7.906 Y 186.132 
X 7.953 Y 186.127 
X 8.000 Y 186.125 
X 8.047 Y 186.127 
X 8.094 Y 186.132 
X 8.140 Y 186.141 
X 8.185 Y 186.154 
X 8.229 Y 186.170 
X 8.272 Y 186.190 
X 8.313 Y 186.213 
X 8.352 Y 186.239 
X 8.389 Y 186.268 
X 8.424 Y 186.300 
X 8.456 Y 186.335 
X 8.485 Y 186.372 
X 8.511 Y 186.411 
X 8.534 Y 186.452 
X 8.554 Y 186.495 
X 8.570 Y 186.539 
X 8.583 Y 186.584 
X 8.592 Y 186.630 
X 8.597 Y 186.677 
X 8.599 Y 186.724 
G0   Z 6.000
G0 X 8.599 Y 8.000 Z 6.000
G1   Z -1.450 F15000.0
G1 X 8.597 Y 8.047  F39000.0
X 8.592 Y 8.094 
X 8.583 Y 8.140 
X 8.570 Y 8.185 
X 8.554 Y 8.229 
X 8.534 Y 8.272 
X 8.511 Y 8.313 
X 8.485 Y 8.352 
X 8.456 Y 8.389 
X 8.424 Y 8.424 
X 8.389 Y 8.456 
X 8.352 Y 8.485 
X 8.313 Y 8.511 
X 8.272 Y 8.534 
X 8.229 Y 8.554 
X 8.185 Y 8.570 
X 8.140 Y 8.583 
X 8.094 Y 8.592 
X 8.047 Y 8.597 
X 8.000 Y 8.599 
X 7.953 Y 8.597 
X 7.906 Y 8.592 
X 7.860 Y 8.583 
X 7.815 Y 8.570 
X 7.771 Y 8.554 
X 7.728 Y 8.534 
X 7.687 Y 8.511 
X 7.648 Y 8.485 
X 7.611 Y 8.456 
X 7.576 Y 8.424 
X 7.544 Y 8.389 
X 7.515 Y 8.352 
X 7.489 Y 8.313 
X 7.466 Y 8.272 
X 7.446 Y 8.229 
X 7.430 Y 8.185 
X 7.417 Y 8.140 
X 7.408 Y 8.094 
X 7.403 Y 8.047 
X 7.401 Y 8.000 
X 7.403 Y 7.953 
X 7.408 Y 7.906 
X 7.417 Y 7.860 
X 7.430 Y 7.815 
X 7.446 Y 7.771 
X 7.466 Y 7.728 
X 7.489 Y 7.687 
X 7.515 Y 7.648 
X 7.544 Y 7.611 
X 7.576 Y 7.576 
X 7.611 Y 7.544 
X 7.648 Y 7.515 
X 7.687 Y 7.489 
X 7.728 Y 7.466 
X 7.771 Y 7.446 
X 7.815 Y 7.430 
X 7.860 Y 7.417 
X 7.906 Y 7.408 
X 7.953 Y 7.403 
X 8.000 Y 7.401 
X 8.047 Y 7.403 
X 8.094 Y 7.408 
X 8.140 Y 7.417 
X 8.185 Y 7.430 
X 8.229 Y 7.446 
X 8.272 Y 7.466 
X 8.313 Y 7.489 
X 8.352 Y 7.515 
X 8.389 Y 7.544 
X 8.424 Y 7.576 
X 8.456 Y 7.611 
X 8.485 Y 7.648 
X 8.511 Y 7.687 
X 8.534 Y 7.728 
X 8.554 Y 7.771 
X 8.570 Y 7.815 
X 8.583 Y 7.860 
X 8.592 Y 7.906 
X 8.597 Y 7.953 
X 8.599 Y 8.000 
G1   Z -2.900 F15000.0
G1 X 8.597 Y 8.047  F39000.0
X 8.592 Y 8.094 
X 8.583 Y 8.140 
X 8.570 Y 8.185 
X 8.554 Y 8.229 
X 8.534 Y 8.272 
X 8.511 Y 8.313 
X 8.485 Y 8.352 
X 8.456 Y 8.389 
X 8.424 Y 8.424 
X 8.389 Y 8.456 
X 8.352 Y 8.485 
X 8.313 Y 8.511 
X 8.272 Y 8.534 
X 8.229 Y 8.554 
X 8.185 Y 8.570 
X 8.140 Y 8.583 
X 8.094 Y 8.592 
X 8.047 Y 8.597 
X 8.000 Y 8.599 
X 7.953 Y 8.597 
X 7.906 Y 8.592 
X 7.860 Y 8.583 
X 7.815 Y 8.570 
X 7.771 Y 8.554 
X 7.728 Y 8.534 
X 7.687 Y 8.511 
X 7.648 Y 8.485 
X 7.611 Y 8.456 
X 7.576 Y 8.424 
X 7.544 Y 8.389 
X 7.515 Y 8.352 
X 7.489 Y 8.313 
X 7.466 Y 8.272 
X 7.446 Y 8.229 
X 7.430 Y 8.185 
X 7.417 Y 8.140 
X 7.408 Y 8.094 
X 7.403 Y 8.047 
X 7.401 Y 8.000 
X 7.403 Y 7.953 
X 7.408 Y 7.906 
X 7.417 Y 7.860 
X 7.430 Y 7.815 
X 7.446 Y 7.771 
X 7.466 Y 7.728 
X 7.489 Y 7.687 
X 7.515 Y 7.648 
X 7.544 Y 7.611 
X 7.576 Y 7.576 
X 7.611 Y 7.544 
X 7.648 Y 7.515 
X 7.687 Y 7.489 
X 7.728 Y 7.466 
X 7.771 Y 7.446 
X 7.815 Y 7.430 
X 7.860 Y 7.417 
X 7.906 Y 7.408 
X 7.953 Y 7.403 
X 8.000 Y 7.401 
X 8.047 Y 7.403 
X 8.094 Y 7.408 
X 8.140 Y 7.417 
X 8.185 Y 7.430 
X 8.229 Y 7.446 
X 8.272 Y 7.466 
X 8.313 Y 7.489 
X 8.352 Y 7.515 
X 8.389 Y 7.544 
X 8.424 Y 7.576 
X 8.456 Y 7.611 
X 8.485 Y 7.648 
X 8.511 Y 7.687 
X 8.534 Y 7.728 
X 8.554 Y 7.771 
X 8.570 Y 7.815 
X 8.583 Y 7.860 
X 8.592 Y 7.906 
X 8.597 Y 7.953 
X 8.599 Y 8.000 
G1   Z -4.350 F15000.0
G1 X 8.597 Y 8.047  F39000.0
X 8.592 Y 8.094 
X 8.583 Y 8.140 
X 8.570 Y 8.185 
X 8.554 Y 8.229 
X 8.534 Y 8.272 
X 8.511 Y 8.313 
X 8.485 Y 8.352 
X 8.456 Y 8.389 
X 8.424 Y 8.424 
X 8.389 Y 8.456 
X 8.352 Y 8.485 
X 8.313 Y 8.511 
X 8.272 Y 8.534 
X 8.229 Y 8.554 
X 8.185 Y 8.570 
X 8.140 Y 8.583 
X 8.094 Y 8.592 
X 8.047 Y 8.597 
X 8.000 Y 8.599 
X 7.953 Y 8.597 
X 7.906 Y 8.592 
X 7.860 Y 8.583 
X 7.815 Y 8.570 
X 7.771 Y 8.554 
X 7.728 Y 8.534 
X 7.687 Y 8.511 
X 7.648 Y 8.485 
X 7.611 Y 8.456 
X 7.576 Y 8.424 
X 7.544 Y 8.389 
X 7.515 Y 8.352 
X 7.489 Y 8.313 
X 7.466 Y 8.272 
X 7.446 Y 8.229 
X 7.430 Y 8.185 
X 7.417 Y 8.140 
X 7.408 Y 8.094 
X 7.403 Y 8.047 
X 7.401 Y 8.000 
X 7.403 Y 7.953 
X 7.408 Y 7.906 
X 7.417 Y 7.860 
X 7.430 Y 7.815 
X 7.446 Y 7.771 
X 7.466 Y 7.728 
X 7.489 Y 7.687 
X 7.515 Y 7.648 
X 7.544 Y 7.611 
X 7.576 Y 7.576 
X 7.611 Y 7.544 
X 7.648 Y 7.515 
X 7.687 Y 7.489 
X 7.728 Y 7.466 
X 7.771 Y 7.446 
X 7.815 Y 7.430 
X 7.860 Y 7.417 
X 7.906 Y 7.408 
X 7.953 Y 7.403 
X 8.000 Y 7.401 
X 8.047 Y 7.403 
X 8.094 Y 7.408 
X 8.140 Y 7.417 
X 8.185 Y 7.430 
X 8.229 Y 7.446 
X 8.272 Y 7.466 
X 8.313 Y 7.489 
X 8.352 Y 7.515 
X 8.389 Y 7.544 
X 8.424 Y 7.576 
X 8.456 Y 7.611 
X 8.485 Y 7.648 
X 8.511 Y 7.687 
X 8.534 Y 7.728 
X 8.554 Y 7.771 
X 8.570 Y 7.815 
X 8.583 Y 7.860 
X 8.592 Y 7.906 
X 8.597 Y 7.953 
X 8.599 Y 8.000 
G1   Z -5.800 F15000.0
G1 X 8.597 Y 8.047  F39000.0
X 8.592 Y 8.094 
X 8.583 Y 8.140 
X 8.570 Y 8.185 
X 8.554 Y 8.229 
X 8.534 Y 8.272 
X 8.511 Y 8.313 
X 8.485 Y 8.352 
X 8.456 Y 8.389 
X 8.424 Y 8.424 
X 8.389 Y 8.456 
X 8.352 Y 8.485 
X 8.313 Y 8.511 
X 8.272 Y 8.534 
X 8.229 Y 8.554 
X 8.185 Y 8.570 
X 8.140 Y 8.583 
X 8.094 Y 8.592 
X 8.047 Y 8.597 
X 8.000 Y 8.599 
X 7.953 Y 8.597 
X 7.906 Y 8.592 
X 7.860 Y 8.583 
X 7.815 Y 8.570 
X 7.771 Y 8.554 
X 7.728 Y 8.534 
X 7.687 Y 8.511 
X 7.648 Y 8.485 
X 7.611 Y 8.456 
X 7.576 Y 8.424 
X 7.544 Y 8.389 
X 7.515 Y 8.352 
X 7.489 Y 8.313 
X 7.466 Y 8.272 
X 7.446 Y 8.229 
X 7.430 Y 8.185 
X 7.417 Y 8.140 
X 7.408 Y 8.094 
X 7.403 Y 8.047 
X 7.401 Y 8.000 
X 7.403 Y 7.953 
X 7.408 Y 7.906 
X 7.417 Y 7.860 
X 7.430 Y 7.815 
X 7.446 Y 7.771 
X 7.466 Y 7.728 
X 7.489 Y 7.687 
X 7.515 Y 7.648 
X 7.544 Y 7.611 
X 7.576 Y 7.576 
X 7.611 Y 7.544 
X 7.648 Y 7.515 
X 7.687 Y 7.489 
X 7.728 Y 7.466 
X 7.771 Y 7.446 
X 7.815 Y 7.430 
X 7.860 Y 7.417 
X 7.906 Y 7.408 
X 7.953 Y 7.403 
X 8.000 Y 7.401 
X 8.047 Y 7.403 
X 8.094 Y 7.408 
X 8.140 Y 7.417 
X 8.185 Y 7.430 
X 8.229 Y 7.446 
X 8.272 Y 7.466 
X 8.313 Y 7.489 
X 8.352 Y 7.515 
X 8.389 Y 7.544 
X 8.424 Y 7.576 
X 8.456 Y 7.611 
X 8.485 Y 7.648 
X 8.511 Y 7.687 
X 8.534 Y 7.728 
X 8.554 Y 7.771 
X 8.570 Y 7.815 
X 8.583 Y 7.860 
X 8.592 Y 7.906 
X 8.597 Y 7.953 
X 8.599 Y 8.000 
G0   Z 6.000
G0 X 39.150  
G1   Z -1.450 F15000.0
G3 X 38.000 Y 9.150 I-1.150 J0.000 F39000.0
G3 X 36.850 Y 8.000 I0.000 J-1.150
G3 X 38.000 Y 6.850 I1.150 J0.000
G3 X 39.150 Y 8.000 I0.000 J1.150
G1   Z -2.900 F15000.0
G3 X 38.000 Y 9.150 I-1.150 J0.000 F39000.0
G3 X 36.850 Y 8.000 I0.000 J-1.150
G3 X 38.000 Y 6.850 I1.150 J0.000
G3 X 39.150 Y 8.000 I0.000 J1.150
G1   Z -4.350 F15000.0
G3 X 38.000 Y 9.150 I-1.150 J0.000 F39000.0
G3 X 36.850 Y 8.000 I0.000 J-1.150
G3 X 38.000 Y 6.850 I1.150 J0.000
G3 X 39.150 Y 8.000 I0.000 J1.150
G1   Z -5.800 F15000.0
G3 X 38.000 Y 9.150 I-1.150 J0.000 F39000.0
G3 X 36.850 Y 8.000 I0.000 J-1.150
G3 X 38.000 Y 6.850 I1.150 J0.000
G3 X 39.150 Y 8.000 I0.000 J1.150
G0   Z 6.000
G0 X 53.150  
G1   Z -1.450 F15000.0
G3 X 52.000 Y 9.150 I-1.150 J0.000 F39000.0
G3 X 50.850 Y 8.000 I0.000 J-1.150
G3 X 52.000 Y 6.850 I1.150 J0.000
G3 X 53.150 Y 8.000 I0.000 J1.150
G1   Z -2.900 F15000.0
G3 X 52.000 Y 9.150 I-1.150 J0.000 F39000.0
G3 X 50.850 Y 8.000 I0.000 J-1.150
G3 X 52.000 Y 6.850 I1.150 J0.000
G3 X 53.150 Y 8.000 I0.000 J1.150
G1   Z -4.350 F15000.0
G3 X 52.000 Y 9.150 I-1.150 J0.000 F39000.0
G3 X 50.850 Y 8.000 I0.000 J-1.150
G3 X 52.000 Y 6.850 I1.150 J0.000
G3 X 53.150 Y 8.000 I0.000 J1.150
G1   Z -5.800 F15000.0
G3 X 52.000 Y 9.150 I-1.150 J0.000 F39000.0
G3 X 50.850 Y 8.000 I0.000 J-1.150
G3 X 52.000 Y 6.850 I1.150 J0.000
G3 X 53.150 Y 8.000 I0.000 J1.150
G0   Z 6.000
G0 X 79.150  
G1   Z -1.450 F15000.0
G3 X 78.000 Y 9.150 I-1.150 J0.000 F39000.0
G3 X 76.850 Y 8.000 I0.000 J-1.150
G3 X 78.000 Y 6.850 I1.150 J0.000
G3 X 79.150 Y 8.000 I0.000 J1.150
G1   Z -2.900 F15000.0
G3 X 78.000 Y 9.150 I-1.150 J0.000 F39000.0
G3 X 76.850 Y 8.000 I0.000 J-1.150
G3 X 78.000 Y 6.850 I1.150 J0.000
G3 X 79.150 Y 8.000 I0.000 J1.150
G1   Z -4.350 F15000.0
G3 X 78.000 Y 9.150 I-1.150 J0.000 F39000.0
G3 X 76.850 Y 8.000 I0.000 J-1.150
G3 X 78.000 Y 6.850 I1.150 J0.000
G3 X 79.150 Y 8.000 I0.000 J1.150
G1   Z -5.800 F15000.0
G3 X 78.000 Y 9.150 I-1.150 J0.000 F39000.0
G3 X 76.850 Y 8.000 I0.000 J-1.150
G3 X 78.000 Y 6.850 I1.150 J0.000
G3 X 79.150 Y 8.000 I0.000 J1.150
G0   Z 6.000
G0 X 93.150  
G1   Z -1.450 F15000.0
G3 X 92.000 Y 9.150 I-1.150 J0.000 F39000.0
G3 X 90.850 Y 8.000 I0.000 J-1.150
G3 X 92.000 Y 6.850 I1.150 J0.000
G3 X 93.150 Y 8.000 I0.000 J1.150
G1   Z -2.900 F15000.0
G3 X 92.000 Y 9.150 I-1.150 J0.000 F39000.0
G3 X 90.850 Y 8.000 I0.000 J-1.150
G3 X 92.000 Y 6.850 I1.150 J0.000
G3 X 93.150 Y 8.000 I0.000 J1.150
G1   Z -4.350 F15000.0
G3 X 92.000 Y 9.150 I-1.150 J0.000 F39000.0
G3 X 90.850 Y 8.000 I0.000 J-1.150
G3 X 92.000 Y 6.850 I1.150 J0.000
G3 X 93.150 Y 8.000 I0.000 J1.150
G1   Z -5.800 F15000.0
G3 X 92.000 Y 9.150 I-1.150 J0.000 F39000.0
G3 X 90.850 Y 8.000 I0.000 J-1.150
G3 X 92.000 Y 6.850 I1.150 J0.000
G3 X 93.150 Y 8.000 I0.000 J1.150
G0   Z 6.000
G0 X 73.000 Y 27.000 
G1   Z -1.450 F15000.0
G3 X 65.000 Y 35.000 I-8.000 J0.000 F39000.0
G3 X 57.000 Y 27.000 I0.000 J-8.000
G3 X 65.000 Y 19.000 I8.000 J0.000
G3 X 73.000 Y 27.000 I0.000 J8.000
G1   Z -2.900 F15000.0
G3 X 65.000 Y 35.000 I-8.000 J0.000 F39000.0
G3 X 57.000 Y 27.000 I0.000 J-8.000
G3 X 65.000 Y 19.000 I8.000 J0.000
G3 X 73.000 Y 27.000 I0.000 J8.000
G1   Z -4.350 F15000.0
G3 X 65.000 Y 35.000 I-8.000 J0.000 F39000.0
G3 X 57.000 Y 27.000 I0.000 J-8.000
G3 X 65.000 Y 19.000 I8.000 J0.000
G3 X 73.000 Y 27.000 I0.000 J8.000
G1   Z -5.800 F15000.0
G3 X 65.000 Y 35.000 I-8.000 J0.000 F39000.0
G3 X 57.000 Y 27.000 I0.000 J-8.000
G3 X 65.000 Y 19.000 I8.000 J0.000
G3 X 73.000 Y 27.000 I0.000 J8.000
G0   Z 6.000
G0 X 76.100 Y 52.362 
G1   Z -1.450 F15000.0
G3 X 75.500 Y 52.962 I-0.600 J0.000 F39000.0
G3 X 74.900 Y 52.362 I0.000 J-0.600
G3 X 75.500 Y 51.762 I0.600 J0.000
G3 X 76.100 Y 52.362 I0.000 J0.600
G1   Z -2.900 F15000.0
G3 X 75.500 Y 52.962 I-0.600 J0.000 F39000.0
G3 X 74.900 Y 52.362 I0.000 J-0.600
G3 X 75.500 Y 51.762 I0.600 J0.000
G3 X 76.100 Y 52.362 I0.000 J0.600
G1   Z -4.350 F15000.0
G3 X 75.500 Y 52.962 I-0.600 J0.000 F39000.0
G3 X 74.900 Y 52.362 I0.000 J-0.600
G3 X 75.500 Y 51.762 I0.600 J0.000
G3 X 76.100 Y 52.362 I0.000 J0.600
G1   Z -5.800 F15000.0
G3 X 75.500 Y 52.962 I-0.600 J0.000 F39000.0
G3 X 74.900 Y 52.362 I0.000 J-0.600
G3 X 75.500 Y 51.762 I0.600 J0.000
G3 X 76.100 Y 52.362 I0.000 J0.600
G0   Z 6.000
G0 X 66.100  
G1   Z -1.450 F15000.0
G3 X 65.500 Y 52.962 I-0.600 J0.000 F39000.0
G3 X 64.900 Y 52.362 I0.000 J-0.600
G3 X 65.500 Y 51.762 I0.600 J0.000
G3 X 66.100 Y 52.362 I0.000 J0.600
G1   Z -2.900 F15000.0
G3 X 65.500 Y 52.962 I-0.600 J0.000 F39000.0
G3 X 64.900 Y 52.362 I0.000 J-0.600
G3 X 65.500 Y 51.762 I0.600 J0.000
G3 X 66.100 Y 52.362 I0.000 J0.600
G1   Z -4.350 F15000.0
G3 X 65.500 Y 52.962 I-0.600 J0.000 F39000.0
G3 X 64.900 Y 52.362 I0.000 J-0.600
G3 X 65.500 Y 51.762 I0.600 J0.000
G3 X 66.100 Y 52.362 I0.000 J0.600
G1   Z -5.800 F15000.0
G3 X 65.500 Y 52.962 I-0.600 J0.000 F39000.0
G3 X 64.900 Y 52.362 I0.000 J-0.600
G3 X 65.500 Y 51.762 I0.600 J0.000
G3 X 66.100 Y 52.362 I0.000 J0.600
G0   Z 6.000
G0 X 56.100  
G1   Z -1.450 F15000.0
G3 X 55.500 Y 52.962 I-0.600 J0.000 F39000.0
G3 X 54.900 Y 52.362 I0.000 J-0.600
G3 X 55.500 Y 51.762 I0.600 J0.000
G3 X 56.100 Y 52.362 I0.000 J0.600
G1   Z -2.900 F15000.0
G3 X 55.500 Y 52.962 I-0.600 J0.000 F39000.0
G3 X 54.900 Y 52.362 I0.000 J-0.600
G3 X 55.500 Y 51.762 I0.600 J0.000
G3 X 56.100 Y 52.362 I0.000 J0.600
G1   Z -4.350 F15000.0
G3 X 55.500 Y 52.962 I-0.600 J0.000 F39000.0
G3 X 54.900 Y 52.362 I0.000 J-0.600
G3 X 55.500 Y 51.762 I0.600 J0.000
G3 X 56.100 Y 52.362 I0.000 J0.600
G1   Z -5.800 F15000.0
G3 X 55.500 Y 52.962 I-0.600 J0.000 F39000.0
G3 X 54.900 Y 52.362 I0.000 J-0.600
G3 X 55.500 Y 51.762 I0.600 J0.000
G3 X 56.100 Y 52.362 I0.000 J0.600
G0   Z 6.000
G0 X 46.100  
G1   Z -1.450 F15000.0
G3 X 45.500 Y 52.962 I-0.600 J0.000 F39000.0
G3 X 44.900 Y 52.362 I0.000 J-0.600
G3 X 45.500 Y 51.762 I0.600 J0.000
G3 X 46.100 Y 52.362 I0.000 J0.600
G1   Z -2.900 F15000.0
G3 X 45.500 Y 52.962 I-0.600 J0.000 F39000.0
G3 X 44.900 Y 52.362 I0.000 J-0.600
G3 X 45.500 Y 51.762 I0.600 J0.000
G3 X 46.100 Y 52.362 I0.000 J0.600
G1   Z -4.350 F15000.0
G3 X 45.500 Y 52.962 I-0.600 J0.000 F39000.0
G3 X 44.900 Y 52.362 I0.000 J-0.600
G3 X 45.500 Y 51.762 I0.600 J0.000
G3 X 46.100 Y 52.362 I0.000 J0.600
G1   Z -5.800 F15000.0
G3 X 45.500 Y 52.962 I-0.600 J0.000 F39000.0
G3 X 44.900 Y 52.362 I0.000 J-0.600
G3 X 45.500 Y 51.762 I0.600 J0.000
G3 X 46.100 Y 52.362 I0.000 J0.600
G0   Z 6.000
G0  Y 82.362 
G1   Z -1.450 F15000.0
G3 X 45.500 Y 82.962 I-0.600 J0.000 F39000.0
G3 X 44.900 Y 82.362 I0.000 J-0.600
G3 X 45.500 Y 81.762 I0.600 J0.000
G3 X 46.100 Y 82.362 I0.000 J0.600
G1   Z -2.900 F15000.0
G3 X 45.500 Y 82.962 I-0.600 J0.000 F39000.0
G3 X 44.900 Y 82.362 I0.000 J-0.600
G3 X 45.500 Y 81.762 I0.600 J0.000
G3 X 46.100 Y 82.362 I0.000 J0.600
G1   Z -4.350 F15000.0
G3 X 45.500 Y 82.962 I-0.600 J0.000 F39000.0
G3 X 44.900 Y 82.362 I0.000 J-0.600
G3 X 45.500 Y 81.762 I0.600 J0.000
G3 X 46.100 Y 82.362 I0.000 J0.600
G1   Z -5.800 F15000.0
G3 X 45.500 Y 82.962 I-0.600 J0.000 F39000.0
G3 X 44.900 Y 82.362 I0.000 J-0.600
G3 X 45.500 Y 81.762 I0.600 J0.000
G3 X 46.100 Y 82.362 I0.000 J0.600
G0   Z 6.000
G0 X 56.100  
G1   Z -1.450 F15000.0
G3 X 55.500 Y 82.962 I-0.600 J0.000 F39000.0
G3 X 54.900 Y 82.362 I0.000 J-0.600
G3 X 55.500 Y 81.762 I0.600 J0.000
G3 X 56.100 Y 82.362 I0.000 J0.600
G1   Z -2.900 F15000.0
G3 X 55.500 Y 82.962 I-0.600 J0.000 F39000.0
G3 X 54.900 Y 82.362 I0.000 J-0.600
G3 X 55.500 Y 81.762 I0.600 J0.000
G3 X 56.100 Y 82.362 I0.000 J0.600
G1   Z -4.350 F15000.0
G3 X 55.500 Y 82.962 I-0.600 J0.000 F39000.0
G3 X 54.900 Y 82.362 I0.000 J-0.600
G3 X 55.500 Y 81.762 I0.600 J0.000
G3 X 56.100 Y 82.362 I0.000 J0.600
G1   Z -5.800 F15000.0
G3 X 55.500 Y 82.962 I-0.600 J0.000 F39000.0
G3 X 54.900 Y 82.362 I0.000 J-0.600
G3 X 55.500 Y 81.762 I0.600 J0.000
G3 X 56.100 Y 82.362 I0.000 J0.600
G0   Z 6.000
G0 X 66.100  
G1   Z -1.450 F15000.0
G3 X 65.500 Y 82.962 I-0.600 J0.000 F39000.0
G3 X 64.900 Y 82.362 I0.000 J-0.600
G3 X 65.500 Y 81.762 I0.600 J0.000
G3 X 66.100 Y 82.362 I0.000 J0.600
G1   Z -2.900 F15000.0
G3 X 65.500 Y 82.962 I-0.600 J0.000 F39000.0
G3 X 64.900 Y 82.362 I0.000 J-0.600
G3 X 65.500 Y 81.762 I0.600 J0.000
G3 X 66.100 Y 82.362 I0.000 J0.600
G1   Z -4.350 F15000.0
G3 X 65.500 Y 82.962 I-0.600 J0.000 F39000.0
G3 X 64.900 Y 82.362 I0.000 J-0.600
G3 X 65.500 Y 81.762 I0.600 J0.000
G3 X 66.100 Y 82.362 I0.000 J0.600
G1   Z -5.800 F15000.0
G3 X 65.500 Y 82.962 I-0.600 J0.000 F39000.0
G3 X 64.900 Y 82.362 I0.000 J-0.600
G3 X 65.500 Y 81.762 I0.600 J0.000
G3 X 66.100 Y 82.362 I0.000 J0.600
G0   Z 6.000
G0 X 76.100  
G1   Z -1.450 F15000.0
G3 X 75.500 Y 82.962 I-0.600 J0.000 F39000.0
G3 X 74.900 Y 82.362 I0.000 J-0.600
G3 X 75.500 Y 81.762 I0.600 J0.000
G3 X 76.100 Y 82.362 I0.000 J0.600
G1   Z -2.900 F15000.0
G3 X 75.500 Y 82.962 I-0.600 J0.000 F39000.0
G3 X 74.900 Y 82.362 I0.000 J-0.600
G3 X 75.500 Y 81.762 I0.600 J0.000
G3 X 76.100 Y 82.362 I0.000 J0.600
G1   Z -4.350 F15000.0
G3 X 75.500 Y 82.962 I-0.600 J0.000 F39000.0
G3 X 74.900 Y 82.362 I0.000 J-0.600
G3 X 75.500 Y 81.762 I0.600 J0.000
G3 X 76.100 Y 82.362 I0.000 J0.600
G1   Z -5.800 F15000.0
G3 X 75.500 Y 82.962 I-0.600 J0.000 F39000.0
G3 X 74.900 Y 82.362 I0.000 J-0.600
G3 X 75.500 Y 81.762 I0.600 J0.000
G3 X 76.100 Y 82.362 I0.000 J0.600
G0   Z 6.000
G0 X 86.100  
G1   Z -1.450 F15000.0
G3 X 85.500 Y 82.962 I-0.600 J0.000 F39000.0
G3 X 84.900 Y 82.362 I0.000 J-0.600
G3 X 85.500 Y 81.762 I0.600 J0.000
G3 X 86.100 Y 82.362 I0.000 J0.600
G1   Z -2.900 F15000.0
G3 X 85.500 Y 82.962 I-0.600 J0.000 F39000.0
G3 X 84.900 Y 82.362 I0.000 J-0.600
G3 X 85.500 Y 81.762 I0.600 J0.000
G3 X 86.100 Y 82.362 I0.000 J0.600
G1   Z -4.350 F15000.0
G3 X 85.500 Y 82.962 I-0.600 J0.000 F39000.0
G3 X 84.900 Y 82.362 I0.000 J-0.600
G3 X 85.500 Y 81.762 I0.600 J0.000
G3 X 86.100 Y 82.362 I0.000 J0.600
G1   Z -5.800 F15000.0
G3 X 85.500 Y 82.962 I-0.600 J0.000 F39000.0
G3 X 84.900 Y 82.362 I0.000 J-0.600
G3 X 85.500 Y 81.762 I0.600 J0.000
G3 X 86.100 Y 82.362 I0.000 J0.600
G0   Z 6.000
G0 X 96.100  
G1   Z -1.450 F15000.0
G3 X 95.500 Y 82.962 I-0.600 J0.000 F39000.0
G3 X 94.900 Y 82.362 I0.000 J-0.600
G3 X 95.500 Y 81.762 I0.600 J0.000
G3 X 96.100 Y 82.362 I0.000 J0.600
G1   Z -2.900 F15000.0
G3 X 95.500 Y 82.962 I-0.600 J0.000 F39000.0
G3 X 94.900 Y 82.362 I0.000 J-0.600
G3 X 95.500 Y 81.762 I0.600 J0.000
G3 X 96.100 Y 82.362 I0.000 J0.600
G1   Z -4.350 F15000.0
G3 X 95.500 Y 82.962 I-0.600 J0.000 F39000.0
G3 X 94.900 Y 82.362 I0.000 J-0.600
G3 X 95.500 Y 81.762 I0.600 J0.000
G3 X 96.100 Y 82.362 I0.000 J0.600
G1   Z -5.800 F15000.0
G3 X 95.500 Y 82.962 I-0.600 J0.000 F39000.0
G3 X 94.900 Y 82.362 I0.000 J-0.600
G3 X 95.500 Y 81.762 I0.600 J0.000
G3 X 96.100 Y 82.362 I0.000 J0.600
G0   Z 6.000
G0  Y 52.362 
G1   Z -1.450 F15000.0
G3 X 95.500 Y 52.962 I-0.600 J0.000 F39000.0
G3 X 94.900 Y 52.362 I0.000 J-0.600
G3 X 95.500 Y 51.762 I0.600 J0.000
G3 X 96.100 Y 52.362 I0.000 J0.600
G1   Z -2.900 F15000.0
G3 X 95.500 Y 52.962 I-0.600 J0.000 F39000.0
G3 X 94.900 Y 52.362 I0.000 J-0.600
G3 X 95.500 Y 51.762 I0.600 J0.000
G3 X 96.100 Y 52.362 I0.000 J0.600
G1   Z -4.350 F15000.0
G3 X 95.500 Y 52.962 I-0.600 J0.000 F39000.0
G3 X 94.900 Y 52.362 I0.000 J-0.600
G3 X 95.500 Y 51.762 I0.600 J0.000
G3 X 96.100 Y 52.362 I0.000 J0.600
G1   Z -5.800 F15000.0
G3 X 95.500 Y 52.962 I-0.600 J0.000 F39000.0
G3 X 94.900 Y 52.362 I0.000 J-0.600
G3 X 95.500 Y 51.762 I0.600 J0.000
G3 X 96.100 Y 52.362 I0.000 J0.600
G0   Z 6.000
G0 X 86.100  
G1   Z -1.450 F15000.0
G3 X 85.500 Y 52.962 I-0.600 J0.000 F39000.0
G3 X 84.900 Y 52.362 I0.000 J-0.600
G3 X 85.500 Y 51.762 I0.600 J0.000
G3 X 86.100 Y 52.362 I0.000 J0.600
G1   Z -2.900 F15000.0
G3 X 85.500 Y 52.962 I-0.600 J0.000 F39000.0
G3 X 84.900 Y 52.362 I0.000 J-0.600
G3 X 85.500 Y 51.762 I0.600 J0.000
G3 X 86.100 Y 52.362 I0.000 J0.600
G1   Z -4.350 F15000.0
G3 X 85.500 Y 52.962 I-0.600 J0.000 F39000.0
G3 X 84.900 Y 52.362 I0.000 J-0.600
G3 X 85.500 Y 51.762 I0.600 J0.000
G3 X 86.100 Y 52.362 I0.000 J0.600
G1   Z -5.800 F15000.0
G3 X 85.500 Y 52.962 I-0.600 J0.000 F39000.0
G3 X 84.900 Y 52.362 I0.000 J-0.600
G3 X 85.500 Y 51.762 I0.600 J0.000
G3 X 86.100 Y 52.362 I0.000 J0.600
G0   Z 6.000
G0 X 122.599 Y 8.000 
G1   Z -1.450 F15000.0
G1 X 122.597 Y 8.047  F39000.0
X 122.592 Y 8.094 
X 122.583 Y 8.140 
X 122.570 Y 8.185 
X 122.554 Y 8.229 
X 122.534 Y 8.272 
X 122.511 Y 8.313 
X 122.485 Y 8.352 
X 122.456 Y 8.389 
X 122.424 Y 8.424 
X 122.389 Y 8.456 
X 122.352 Y 8.485 
X 122.313 Y 8.511 
X 122.272 Y 8.534 
X 122.229 Y 8.554 
X 122.185 Y 8.570 
X 122.140 Y 8.583 
X 122.094 Y 8.592 
X 122.047 Y 8.597 
X 122.000 Y 8.599 
X 121.953 Y 8.597 
X 121.906 Y 8.592 
X 121.860 Y 8.583 
X 121.815 Y 8.570 
X 121.771 Y 8.554 
X 121.728 Y 8.534 
X 121.687 Y 8.511 
X 121.648 Y 8.485 
X 121.611 Y 8.456 
X 121.576 Y 8.424 
X 121.544 Y 8.389 
X 121.515 Y 8.352 
X 121.489 Y 8.313 
X 121.466 Y 8.272 
X 121.446 Y 8.229 
X 121.430 Y 8.185 
X 121.417 Y 8.140 
X 121.408 Y 8.094 
X 121.403 Y 8.047 
X 121.401 Y 8.000 
X 121.403 Y 7.953 
X 121.408 Y 7.906 
X 121.417 Y 7.860 
X 121.430 Y 7.815 
X 121.446 Y 7.771 
X 121.466 Y 7.728 
X 121.489 Y 7.687 
X 121.515 Y 7.648 
X 121.544 Y 7.611 
X 121.576 Y 7.576 
X 121.611 Y 7.544 
X 121.648 Y 7.515 
X 121.687 Y 7.489 
X 121.728 Y 7.466 
X 121.771 Y 7.446 
X 121.815 Y 7.430 
X 121.860 Y 7.417 
X 121.906 Y 7.408 
X 121.953 Y 7.403 
X 122.000 Y 7.401 
X 122.047 Y 7.403 
X 122.094 Y 7.408 
X 122.140 Y 7.417 
X 122.185 Y 7.430 
X 122.229 Y 7.446 
X 122.272 Y 7.466 
X 122.313 Y 7.489 
X 122.352 Y 7.515 
X 122.389 Y 7.544 
X 122.424 Y 7.576 
X 122.456 Y 7.611 
X 122.485 Y 7.648 
X 122.511 Y 7.687 
X 122.534 Y 7.728 
X 122.554 Y 7.771 
X 122.570 Y 7.815 
X 122.583 Y 7.860 
X 122.592 Y 7.906 
X 122.597 Y 7.953 
X 122.599 Y 8.000 
G1   Z -2.900 F15000.0
G1 X 122.597 Y 8.047  F39000.0
X 122.592 Y 8.094 
X 122.583 Y 8.140 
X 122.570 Y 8.185 
X 122.554 Y 8.229 
X 122.534 Y 8.272 
X 122.511 Y 8.313 
X 122.485 Y 8.352 
X 122.456 Y 8.389 
X 122.424 Y 8.424 
X 122.389 Y 8.456 
X 122.352 Y 8.485 
X 122.313 Y 8.511 
X 122.272 Y 8.534 
X 122.229 Y 8.554 
X 122.185 Y 8.570 
X 122.140 Y 8.583 
X 122.094 Y 8.592 
X 122.047 Y 8.597 
X 122.000 Y 8.599 
X 121.953 Y 8.597 
X 121.906 Y 8.592 
X 121.860 Y 8.583 
X 121.815 Y 8.570 
X 121.771 Y 8.554 
X 121.728 Y 8.534 
X 121.687 Y 8.511 
X 121.648 Y 8.485 
X 121.611 Y 8.456 
X 121.576 Y 8.424 
X 121.544 Y 8.389 
X 121.515 Y 8.352 
X 121.489 Y 8.313 
X 121.466 Y 8.272 
X 121.446 Y 8.229 
X 121.430 Y 8.185 
X 121.417 Y 8.140 
X 121.408 Y 8.094 
X 121.403 Y 8.047 
X 121.401 Y 8.000 
X 121.403 Y 7.953 
X 121.408 Y 7.906 
X 121.417 Y 7.860 
X 121.430 Y 7.815 
X 121.446 Y 7.771 
X 121.466 Y 7.728 
X 121.489 Y 7.687 
X 121.515 Y 7.648 
X 121.544 Y 7.611 
X 121.576 Y 7.576 
X 121.611 Y 7.544 
X 121.648 Y 7.515 
X 121.687 Y 7.489 
X 121.728 Y 7.466 
X 121.771 Y 7.446 
X 121.815 Y 7.430 
X 121.860 Y 7.417 
X 121.906 Y 7.408 
X 121.953 Y 7.403 
X 122.000 Y 7.401 
X 122.047 Y 7.403 
X 122.094 Y 7.408 
X 122.140 Y 7.417 
X 122.185 Y 7.430 
X 122.229 Y 7.446 
X 122.272 Y 7.466 
X 122.313 Y 7.489 
X 122.352 Y 7.515 
X 122.389 Y 7.544 
X 122.424 Y 7.576 
X 122.456 Y 7.611 
X 122.485 Y 7.648 
X 122.511 Y 7.687 
X 122.534 Y 7.728 
X 122.554 Y 7.771 
X 122.570 Y 7.815 
X 122.583 Y 7.860 
X 122.592 Y 7.906 
X 122.597 Y 7.953 
X 122.599 Y 8.000 
G1   Z -4.350 F15000.0
G1 X 122.597 Y 8.047  F39000.0
X 122.592 Y 8.094 
X 122.583 Y 8.140 
X 122.570 Y 8.185 
X 122.554 Y 8.229 
X 122.534 Y 8.272 
X 122.511 Y 8.313 
X 122.485 Y 8.352 
X 122.456 Y 8.389 
X 122.424 Y 8.424 
X 122.389 Y 8.456 
X 122.352 Y 8.485 
X 122.313 Y 8.511 
X 122.272 Y 8.534 
X 122.229 Y 8.554 
X 122.185 Y 8.570 
X 122.140 Y 8.583 
X 122.094 Y 8.592 
X 122.047 Y 8.597 
X 122.000 Y 8.599 
X 121.953 Y 8.597 
X 121.906 Y 8.592 
X 121.860 Y 8.583 
X 121.815 Y 8.570 
X 121.771 Y 8.554 
X 121.728 Y 8.534 
X 121.687 Y 8.511 
X 121.648 Y 8.485 
X 121.611 Y 8.456 
X 121.576 Y 8.424 
X 121.544 Y 8.389 
X 121.515 Y 8.352 
X 121.489 Y 8.313 
X 121.466 Y 8.272 
X 121.446 Y 8.229 
X 121.430 Y 8.185 
X 121.417 Y 8.140 
X 121.408 Y 8.094 
X 121.403 Y 8.047 
X 121.401 Y 8.000 
X 121.403 Y 7.953 
X 121.408 Y 7.906 
X 121.417 Y 7.860 
X 121.430 Y 7.815 
X 121.446 Y 7.771 
X 121.466 Y 7.728 
X 121.489 Y 7.687 
X 121.515 Y 7.648 
X 121.544 Y 7.611 
X 121.576 Y 7.576 
X 121.611 Y 7.544 
X 121.648 Y 7.515 
X 121.687 Y 7.489 
X 121.728 Y 7.466 
X 121.771 Y 7.446 
X 121.815 Y 7.430 
X 121.860 Y 7.417 
X 121.906 Y 7.408 
X 121.953 Y 7.403 
X 122.000 Y 7.401 
X 122.047 Y 7.403 
X 122.094 Y 7.408 
X 122.140 Y 7.417 
X 122.185 Y 7.430 
X 122.229 Y 7.446 
X 122.272 Y 7.466 
X 122.313 Y 7.489 
X 122.352 Y 7.515 
X 122.389 Y 7.544 
X 122.424 Y 7.576 
X 122.456 Y 7.611 
X 122.485 Y 7.648 
X 122.511 Y 7.687 
X 122.534 Y 7.728 
X 122.554 Y 7.771 
X 122.570 Y 7.815 
X 122.583 Y 7.860 
X 122.592 Y 7.906 
X 122.597 Y 7.953 
X 122.599 Y 8.000 
G1   Z -5.800 F15000.0
G1 X 122.597 Y 8.047  F39000.0
X 122.592 Y 8.094 
X 122.583 Y 8.140 
X 122.570 Y 8.185 
X 122.554 Y 8.229 
X 122.534 Y 8.272 
X 122.511 Y 8.313 
X 122.485 Y 8.352 
X 122.456 Y 8.389 
X 122.424 Y 8.424 
X 122.389 Y 8.456 
X 122.352 Y 8.485 
X 122.313 Y 8.511 
X 122.272 Y 8.534 
X 122.229 Y 8.554 
X 122.185 Y 8.570 
X 122.140 Y 8.583 
X 122.094 Y 8.592 
X 122.047 Y 8.597 
X 122.000 Y 8.599 
X 121.953 Y 8.597 
X 121.906 Y 8.592 
X 121.860 Y 8.583 
X 121.815 Y 8.570 
X 121.771 Y 8.554 
X 121.728 Y 8.534 
X 121.687 Y 8.511 
X 121.648 Y 8.485 
X 121.611 Y 8.456 
X 121.576 Y 8.424 
X 121.544 Y 8.389 
X 121.515 Y 8.352 
X 121.489 Y 8.313 
X 121.466 Y 8.272 
X 121.446 Y 8.229 
X 121.430 Y 8.185 
X 121.417 Y 8.140 
X 121.408 Y 8.094 
X 121.403 Y 8.047 
X 121.401 Y 8.000 
X 121.403 Y 7.953 
X 121.408 Y 7.906 
X 121.417 Y 7.860 
X 121.430 Y 7.815 
X 121.446 Y 7.771 
X 121.466 Y 7.728 
X 121.489 Y 7.687 
X 121.515 Y 7.648 
X 121.544 Y 7.611 
X 121.576 Y 7.576 
X 121.611 Y 7.544 
X 121.648 Y 7.515 
X 121.687 Y 7.489 
X 121.728 Y 7.466 
X 121.771 Y 7.446 
X 121.815 Y 7.430 
X 121.860 Y 7.417 
X 121.906 Y 7.408 
X 121.953 Y 7.403 
X 122.000 Y 7.401 
X 122.047 Y 7.403 
X 122.094 Y 7.408 
X 122.140 Y 7.417 
X 122.185 Y 7.430 
X 122.229 Y 7.446 
X 122.272 Y 7.466 
X 122.313 Y 7.489 
X 122.352 Y 7.515 
X 122.389 Y 7.544 
X 122.424 Y 7.576 
X 122.456 Y 7.611 
X 122.485 Y 7.648 
X 122.511 Y 7.687 
X 122.534 Y 7.728 
X 122.554 Y 7.771 
X 122.570 Y 7.815 
X 122.583 Y 7.860 
X 122.592 Y 7.906 
X 122.597 Y 7.953 
X 122.599 Y 8.000 
G0   Z 6.000
G0 X -1.000 Y -0.000 Z 6.000
G1   Z -1.450 F15000.0
G1  Y 194.724  F39000.0
G2 X -0.000 Y 195.724 I1.000 J0.000 
G1 X 130.000   
G2 X 131.000 Y 194.724 I0.000 J-1.000 
G1  Y -0.000  
G2 X 130.000 Y -1.000 I-1.000 J0.000 
G1 X -0.000   
G2 X -1.000 Y -0.000 I0.000 J1.000 
G1   Z -2.900 F15000.0
G1  Y 194.724  F39000.0
G2 X -0.000 Y 195.724 I1.000 J0.000 
G1 X 130.000   
G2 X 131.000 Y 194.724 I0.000 J-1.000 
G1  Y -0.000  
G2 X 130.000 Y -1.000 I-1.000 J0.000 
G1 X -0.000   
G2 X -1.000 Y -0.000 I0.000 J1.000 
G1   Z -4.350 F15000.0
G1  Y 194.724  F39000.0
G2 X -0.000 Y 195.724 I1.000 J0.000 
G1 X 130.000   
G2 X 131.000 Y 194.724 I0.000 J-1.000 
G1  Y -0.000  
G2 X 130.000 Y -1.000 I-1.000 J0.000 
G1 X -0.000   
G2 X -1.000 Y -0.000 I0.000 J1.000 
G1   Z -5.800 F15000.0
G1  Y 194.724  F39000.0
G2 X -0.000 Y 195.724 I1.000 J0.000 
G1 X 130.000   
G2 X 131.000 Y 194.724 I0.000 J-1.000 
G1  Y -0.000  
G2 X 130.000 Y -1.000 I-1.000 J0.000 
G1 X -0.000   
G2 X -1.000 Y -0.000 I0.000 J1.000 
G0   Z 6.000
G0 Z 20.000
G0 X 0.000 Y 0.000
(END OF PROGRAM)
%
