%
( File Created by VCarve Pro )
T1 M6
G21 G90
G17
G0 Z 20.000
G0 X 0.000 Y 0.000
G0 X 11.810 Y 9.999 Z 6.000
G1   Z -1.450 F15000.0
G3 X 10.660 Y 11.149 I-1.150 J0.000 F39000.0
G3 X 9.510 Y 9.999 I0.000 J-1.150
G3 X 10.660 Y 8.849 I1.150 J0.000
G3 X 11.810 Y 9.999 I0.000 J1.150
G1   Z -2.900 F15000.0
G3 X 10.660 Y 11.149 I-1.150 J0.000 F39000.0
G3 X 9.510 Y 9.999 I0.000 J-1.150
G3 X 10.660 Y 8.849 I1.150 J0.000
G3 X 11.810 Y 9.999 I0.000 J1.150
G1   Z -4.350 F15000.0
G3 X 10.660 Y 11.149 I-1.150 J0.000 F39000.0
G3 X 9.510 Y 9.999 I0.000 J-1.150
G3 X 10.660 Y 8.849 I1.150 J0.000
G3 X 11.810 Y 9.999 I0.000 J1.150
G1   Z -5.800 F15000.0
G3 X 10.660 Y 11.149 I-1.150 J0.000 F39000.0
G3 X 9.510 Y 9.999 I0.000 J-1.150
G3 X 10.660 Y 8.849 I1.150 J0.000
G3 X 11.810 Y 9.999 I0.000 J1.150
G0   Z 6.000
G0 X 20.228 Y 4.999 
G1   Z -1.450 F15000.0
G3 X 19.078 Y 6.149 I-1.150 J0.000 F39000.0
G3 X 17.928 Y 4.999 I0.000 J-1.150
G3 X 19.078 Y 3.849 I1.150 J0.000
G3 X 20.228 Y 4.999 I0.000 J1.150
G1   Z -2.900 F15000.0
G3 X 19.078 Y 6.149 I-1.150 J0.000 F39000.0
G3 X 17.928 Y 4.999 I0.000 J-1.150
G3 X 19.078 Y 3.849 I1.150 J0.000
G3 X 20.228 Y 4.999 I0.000 J1.150
G1   Z -4.350 F15000.0
G3 X 19.078 Y 6.149 I-1.150 J0.000 F39000.0
G3 X 17.928 Y 4.999 I0.000 J-1.150
G3 X 19.078 Y 3.849 I1.150 J0.000
G3 X 20.228 Y 4.999 I0.000 J1.150
G1   Z -5.800 F15000.0
G3 X 19.078 Y 6.149 I-1.150 J0.000 F39000.0
G3 X 17.928 Y 4.999 I0.000 J-1.150
G3 X 19.078 Y 3.849 I1.150 J0.000
G3 X 20.228 Y 4.999 I0.000 J1.150
G0   Z 6.000
G0 X 6.965 Y 23.999 
G1   Z -1.450 F15000.0
G3 X 5.815 Y 25.149 I-1.150 J0.000 F39000.0
G3 X 4.665 Y 23.999 I0.000 J-1.150
G3 X 5.815 Y 22.849 I1.150 J0.000
G3 X 6.965 Y 23.999 I0.000 J1.150
G1   Z -2.900 F15000.0
G3 X 5.815 Y 25.149 I-1.150 J0.000 F39000.0
G3 X 4.665 Y 23.999 I0.000 J-1.150
G3 X 5.815 Y 22.849 I1.150 J0.000
G3 X 6.965 Y 23.999 I0.000 J1.150
G1   Z -4.350 F15000.0
G3 X 5.815 Y 25.149 I-1.150 J0.000 F39000.0
G3 X 4.665 Y 23.999 I0.000 J-1.150
G3 X 5.815 Y 22.849 I1.150 J0.000
G3 X 6.965 Y 23.999 I0.000 J1.150
G1   Z -5.800 F15000.0
G3 X 5.815 Y 25.149 I-1.150 J0.000 F39000.0
G3 X 4.665 Y 23.999 I0.000 J-1.150
G3 X 5.815 Y 22.849 I1.150 J0.000
G3 X 6.965 Y 23.999 I0.000 J1.150
G0   Z 6.000
G0  Y 37.999 
G1   Z -1.450 F15000.0
G3 X 5.815 Y 39.149 I-1.150 J0.000 F39000.0
G3 X 4.665 Y 37.999 I0.000 J-1.150
G3 X 5.815 Y 36.849 I1.150 J0.000
G3 X 6.965 Y 37.999 I0.000 J1.150
G1   Z -2.900 F15000.0
G3 X 5.815 Y 39.149 I-1.150 J0.000 F39000.0
G3 X 4.665 Y 37.999 I0.000 J-1.150
G3 X 5.815 Y 36.849 I1.150 J0.000
G3 X 6.965 Y 37.999 I0.000 J1.150
G1   Z -4.350 F15000.0
G3 X 5.815 Y 39.149 I-1.150 J0.000 F39000.0
G3 X 4.665 Y 37.999 I0.000 J-1.150
G3 X 5.815 Y 36.849 I1.150 J0.000
G3 X 6.965 Y 37.999 I0.000 J1.150
G1   Z -5.800 F15000.0
G3 X 5.815 Y 39.149 I-1.150 J0.000 F39000.0
G3 X 4.665 Y 37.999 I0.000 J-1.150
G3 X 5.815 Y 36.849 I1.150 J0.000
G3 X 6.965 Y 37.999 I0.000 J1.150
G0   Z 6.000
G0 X 51.327 Y 38.499 
G1   Z -1.450 F15000.0
G3 X 50.177 Y 39.649 I-1.150 J0.000 F39000.0
G3 X 49.027 Y 38.499 I0.000 J-1.150
G3 X 50.177 Y 37.349 I1.150 J0.000
G3 X 51.327 Y 38.499 I0.000 J1.150
G1   Z -2.900 F15000.0
G3 X 50.177 Y 39.649 I-1.150 J0.000 F39000.0
G3 X 49.027 Y 38.499 I0.000 J-1.150
G3 X 50.177 Y 37.349 I1.150 J0.000
G3 X 51.327 Y 38.499 I0.000 J1.150
G1   Z -4.350 F15000.0
G3 X 50.177 Y 39.649 I-1.150 J0.000 F39000.0
G3 X 49.027 Y 38.499 I0.000 J-1.150
G3 X 50.177 Y 37.349 I1.150 J0.000
G3 X 51.327 Y 38.499 I0.000 J1.150
G1   Z -5.800 F15000.0
G3 X 50.177 Y 39.649 I-1.150 J0.000 F39000.0
G3 X 49.027 Y 38.499 I0.000 J-1.150
G3 X 50.177 Y 37.349 I1.150 J0.000
G3 X 51.327 Y 38.499 I0.000 J1.150
G0   Z 6.000
G0 X 81.327  
G1   Z -1.450 F15000.0
G3 X 80.177 Y 39.649 I-1.150 J0.000 F39000.0
G3 X 79.027 Y 38.499 I0.000 J-1.150
G3 X 80.177 Y 37.349 I1.150 J0.000
G3 X 81.327 Y 38.499 I0.000 J1.150
G1   Z -2.900 F15000.0
G3 X 80.177 Y 39.649 I-1.150 J0.000 F39000.0
G3 X 79.027 Y 38.499 I0.000 J-1.150
G3 X 80.177 Y 37.349 I1.150 J0.000
G3 X 81.327 Y 38.499 I0.000 J1.150
G1   Z -4.350 F15000.0
G3 X 80.177 Y 39.649 I-1.150 J0.000 F39000.0
G3 X 79.027 Y 38.499 I0.000 J-1.150
G3 X 80.177 Y 37.349 I1.150 J0.000
G3 X 81.327 Y 38.499 I0.000 J1.150
G1   Z -5.800 F15000.0
G3 X 80.177 Y 39.649 I-1.150 J0.000 F39000.0
G3 X 79.027 Y 38.499 I0.000 J-1.150
G3 X 80.177 Y 37.349 I1.150 J0.000
G3 X 81.327 Y 38.499 I0.000 J1.150
G0   Z 6.000
G0 X 101.827 Y 40.649 
G1   Z -1.450 F15000.0
G3 X 100.677 Y 41.799 I-1.150 J0.000 F39000.0
G3 X 99.527 Y 40.649 I0.000 J-1.150
G3 X 100.677 Y 39.499 I1.150 J0.000
G3 X 101.827 Y 40.649 I0.000 J1.150
G1   Z -2.900 F15000.0
G3 X 100.677 Y 41.799 I-1.150 J0.000 F39000.0
G3 X 99.527 Y 40.649 I0.000 J-1.150
G3 X 100.677 Y 39.499 I1.150 J0.000
G3 X 101.827 Y 40.649 I0.000 J1.150
G1   Z -4.350 F15000.0
G3 X 100.677 Y 41.799 I-1.150 J0.000 F39000.0
G3 X 99.527 Y 40.649 I0.000 J-1.150
G3 X 100.677 Y 39.499 I1.150 J0.000
G3 X 101.827 Y 40.649 I0.000 J1.150
G1   Z -5.800 F15000.0
G3 X 100.677 Y 41.799 I-1.150 J0.000 F39000.0
G3 X 99.527 Y 40.649 I0.000 J-1.150
G3 X 100.677 Y 39.499 I1.150 J0.000
G3 X 101.827 Y 40.649 I0.000 J1.150
G0   Z 6.000
G0 X 118.027 Y 40.673 
G1   Z -1.450 F15000.0
G3 X 117.427 Y 41.273 I-0.600 J0.000 F39000.0
G3 X 116.827 Y 40.673 I0.000 J-0.600
G3 X 117.427 Y 40.073 I0.600 J0.000
G3 X 118.027 Y 40.673 I0.000 J0.600
G1   Z -2.900 F15000.0
G3 X 117.427 Y 41.273 I-0.600 J0.000 F39000.0
G3 X 116.827 Y 40.673 I0.000 J-0.600
G3 X 117.427 Y 40.073 I0.600 J0.000
G3 X 118.027 Y 40.673 I0.000 J0.600
G1   Z -4.350 F15000.0
G3 X 117.427 Y 41.273 I-0.600 J0.000 F39000.0
G3 X 116.827 Y 40.673 I0.000 J-0.600
G3 X 117.427 Y 40.073 I0.600 J0.000
G3 X 118.027 Y 40.673 I0.000 J0.600
G1   Z -5.800 F15000.0
G3 X 117.427 Y 41.273 I-0.600 J0.000 F39000.0
G3 X 116.827 Y 40.673 I0.000 J-0.600
G3 X 117.427 Y 40.073 I0.600 J0.000
G3 X 118.027 Y 40.673 I0.000 J0.600
G0   Z 6.000
G0 X 141.277 Y 27.249 
G1   Z -1.450 F15000.0
G3 X 140.677 Y 27.849 I-0.600 J0.000 F39000.0
G3 X 140.077 Y 27.249 I0.000 J-0.600
G3 X 140.677 Y 26.649 I0.600 J0.000
G3 X 141.277 Y 27.249 I0.000 J0.600
G1   Z -2.900 F15000.0
G3 X 140.677 Y 27.849 I-0.600 J0.000 F39000.0
G3 X 140.077 Y 27.249 I0.000 J-0.600
G3 X 140.677 Y 26.649 I0.600 J0.000
G3 X 141.277 Y 27.249 I0.000 J0.600
G1   Z -4.350 F15000.0
G3 X 140.677 Y 27.849 I-0.600 J0.000 F39000.0
G3 X 140.077 Y 27.249 I0.000 J-0.600
G3 X 140.677 Y 26.649 I0.600 J0.000
G3 X 141.277 Y 27.249 I0.000 J0.600
G1   Z -5.800 F15000.0
G3 X 140.677 Y 27.849 I-0.600 J0.000 F39000.0
G3 X 140.077 Y 27.249 I0.000 J-0.600
G3 X 140.677 Y 26.649 I0.600 J0.000
G3 X 141.277 Y 27.249 I0.000 J0.600
G0   Z 6.000
G0 X 172.212 Y 37.006 
G1   Z -1.450 F15000.0
G3 X 171.062 Y 38.156 I-1.150 J0.000 F39000.0
G3 X 169.912 Y 37.006 I0.000 J-1.150
G3 X 171.062 Y 35.856 I1.150 J0.000
G3 X 172.212 Y 37.006 I0.000 J1.150
G1   Z -2.900 F15000.0
G3 X 171.062 Y 38.156 I-1.150 J0.000 F39000.0
G3 X 169.912 Y 37.006 I0.000 J-1.150
G3 X 171.062 Y 35.856 I1.150 J0.000
G3 X 172.212 Y 37.006 I0.000 J1.150
G1   Z -4.350 F15000.0
G3 X 171.062 Y 38.156 I-1.150 J0.000 F39000.0
G3 X 169.912 Y 37.006 I0.000 J-1.150
G3 X 171.062 Y 35.856 I1.150 J0.000
G3 X 172.212 Y 37.006 I0.000 J1.150
G1   Z -5.800 F15000.0
G3 X 171.062 Y 38.156 I-1.150 J0.000 F39000.0
G3 X 169.912 Y 37.006 I0.000 J-1.150
G3 X 171.062 Y 35.856 I1.150 J0.000
G3 X 172.212 Y 37.006 I0.000 J1.150
G0   Z 6.000
G0 X 185.689 Y 37.999 
G1   Z -1.450 F15000.0
G3 X 184.539 Y 39.149 I-1.150 J0.000 F39000.0
G3 X 183.389 Y 37.999 I0.000 J-1.150
G3 X 184.539 Y 36.849 I1.150 J0.000
G3 X 185.689 Y 37.999 I0.000 J1.150
G1   Z -2.900 F15000.0
G3 X 184.539 Y 39.149 I-1.150 J0.000 F39000.0
G3 X 183.389 Y 37.999 I0.000 J-1.150
G3 X 184.539 Y 36.849 I1.150 J0.000
G3 X 185.689 Y 37.999 I0.000 J1.150
G1   Z -4.350 F15000.0
G3 X 184.539 Y 39.149 I-1.150 J0.000 F39000.0
G3 X 183.389 Y 37.999 I0.000 J-1.150
G3 X 184.539 Y 36.849 I1.150 J0.000
G3 X 185.689 Y 37.999 I0.000 J1.150
G1   Z -5.800 F15000.0
G3 X 184.539 Y 39.149 I-1.150 J0.000 F39000.0
G3 X 183.389 Y 37.999 I0.000 J-1.150
G3 X 184.539 Y 36.849 I1.150 J0.000
G3 X 185.689 Y 37.999 I0.000 J1.150
G0   Z 6.000
G0  Y 23.999 
G1   Z -1.450 F15000.0
G3 X 184.539 Y 25.149 I-1.150 J0.000 F39000.0
G3 X 183.389 Y 23.999 I0.000 J-1.150
G3 X 184.539 Y 22.849 I1.150 J0.000
G3 X 185.689 Y 23.999 I0.000 J1.150
G1   Z -2.900 F15000.0
G3 X 184.539 Y 25.149 I-1.150 J0.000 F39000.0
G3 X 183.389 Y 23.999 I0.000 J-1.150
G3 X 184.539 Y 22.849 I1.150 J0.000
G3 X 185.689 Y 23.999 I0.000 J1.150
G1   Z -4.350 F15000.0
G3 X 184.539 Y 25.149 I-1.150 J0.000 F39000.0
G3 X 183.389 Y 23.999 I0.000 J-1.150
G3 X 184.539 Y 22.849 I1.150 J0.000
G3 X 185.689 Y 23.999 I0.000 J1.150
G1   Z -5.800 F15000.0
G3 X 184.539 Y 25.149 I-1.150 J0.000 F39000.0
G3 X 183.389 Y 23.999 I0.000 J-1.150
G3 X 184.539 Y 22.849 I1.150 J0.000
G3 X 185.689 Y 23.999 I0.000 J1.150
G0   Z 6.000
G0 X 180.845 Y 9.999 
G1   Z -1.450 F15000.0
G3 X 179.695 Y 11.149 I-1.150 J0.000 F39000.0
G3 X 178.545 Y 9.999 I0.000 J-1.150
G3 X 179.695 Y 8.849 I1.150 J0.000
G3 X 180.845 Y 9.999 I0.000 J1.150
G1   Z -2.900 F15000.0
G3 X 179.695 Y 11.149 I-1.150 J0.000 F39000.0
G3 X 178.545 Y 9.999 I0.000 J-1.150
G3 X 179.695 Y 8.849 I1.150 J0.000
G3 X 180.845 Y 9.999 I0.000 J1.150
G1   Z -4.350 F15000.0
G3 X 179.695 Y 11.149 I-1.150 J0.000 F39000.0
G3 X 178.545 Y 9.999 I0.000 J-1.150
G3 X 179.695 Y 8.849 I1.150 J0.000
G3 X 180.845 Y 9.999 I0.000 J1.150
G1   Z -5.800 F15000.0
G3 X 179.695 Y 11.149 I-1.150 J0.000 F39000.0
G3 X 178.545 Y 9.999 I0.000 J-1.150
G3 X 179.695 Y 8.849 I1.150 J0.000
G3 X 180.845 Y 9.999 I0.000 J1.150
G0   Z 6.000
G0 X 172.427 Y 4.999 
G1   Z -1.450 F15000.0
G3 X 171.277 Y 6.149 I-1.150 J0.000 F39000.0
G3 X 170.127 Y 4.999 I0.000 J-1.150
G3 X 171.277 Y 3.849 I1.150 J0.000
G3 X 172.427 Y 4.999 I0.000 J1.150
G1   Z -2.900 F15000.0
G3 X 171.277 Y 6.149 I-1.150 J0.000 F39000.0
G3 X 170.127 Y 4.999 I0.000 J-1.150
G3 X 171.277 Y 3.849 I1.150 J0.000
G3 X 172.427 Y 4.999 I0.000 J1.150
G1   Z -4.350 F15000.0
G3 X 171.277 Y 6.149 I-1.150 J0.000 F39000.0
G3 X 170.127 Y 4.999 I0.000 J-1.150
G3 X 171.277 Y 3.849 I1.150 J0.000
G3 X 172.427 Y 4.999 I0.000 J1.150
G1   Z -5.800 F15000.0
G3 X 171.277 Y 6.149 I-1.150 J0.000 F39000.0
G3 X 170.127 Y 4.999 I0.000 J-1.150
G3 X 171.277 Y 3.849 I1.150 J0.000
G3 X 172.427 Y 4.999 I0.000 J1.150
G0   Z 6.000
G0 X 124.677 Y 27.249 Z 6.000
G1   Z -1.500 F15000.0
G3 X 125.677  I0.500 J0.000 F39000.0
G1  Y 29.249  
X 124.677  
 Y 27.249 
X 123.677  
G3 X 126.677  I1.500 J0.000 
G1  Y 30.249  
X 123.677  
 Y 27.249 
X 122.677  
G3 X 127.677  I2.500 J0.000 
G1  Y 31.249  
X 122.677  
 Y 27.249 
X 121.677  
G3 X 128.677  I3.500 J0.000 
G1  Y 32.249  
X 121.677  
 Y 27.249 
X 120.677  
G3 X 129.677  I4.500 J0.000 
G1  Y 33.249  
X 120.677  
 Y 27.249 
X 119.677  
G3 X 130.677  I5.500 J0.000 
G1  Y 34.249  
X 119.677  
 Y 27.249 
X 118.677  
G3 X 131.677  I6.500 J0.000 
G1  Y 35.249  
X 118.677  
 Y 27.249 
X 117.677  
G3 X 132.677  I7.500 J0.000 
G1  Y 36.249  
X 117.677  
 Y 27.249 
X 116.677  
G3 X 133.677  I8.500 J0.000 
G1  Y 37.249  
X 116.677  
 Y 27.249 
X 115.677  
G3 X 134.677  I9.500 J0.000 
G1  Y 38.249  
X 115.677  
 Y 27.249 
X 114.677  
G3 X 135.677  I10.500 J0.000 
G1  Y 39.249  
X 114.677  
 Y 27.249 
X 113.677  
G3 X 136.677  I11.500 J0.000 
G1  Y 40.249  
X 113.677  
 Y 27.249 
X 112.677  
G3 X 137.677  I12.500 J0.000 
G1  Y 41.249  
X 112.677  
 Y 27.249 
X 111.677  
G3 X 138.677  I13.500 J0.000 
G1  Y 42.249  
X 111.677  
 Y 27.249 
X 110.677  
G3 X 139.677  I14.500 J0.000 
G1  Y 43.249  
X 110.677  
 Y 27.249 
X 109.677  
G3 X 140.677  I15.500 J0.000 
G1  Y 44.249  
X 109.677  
 Y 27.249 
X 108.677  
G3 X 141.677  I16.500 J0.000 
G1  Y 45.249  
X 108.677  
 Y 27.249 
X 107.677  
G3 X 142.677  I17.500 J0.000 
G1  Y 46.249  
X 107.677  
 Y 27.249 
X 106.677  
G3 X 143.677  I18.500 J0.000 
G1  Y 47.249  
X 106.677  
 Y 27.249 
G0   Z 6.000
G0 X 65.177 Y 19.499 Z 6.000
G1   Z -1.250 F15000.0
G3 X 65.677 Y 19.999 I0.000 J0.500 F39000.0
G3 X 65.177 Y 20.499 I-0.500 J0.000
G3 X 64.677 Y 19.999 I0.000 J-0.500
G3 X 65.177 Y 19.499 I0.500 J0.000
G1  Y 18.499  
G3 X 66.677 Y 19.999 I0.000 J1.500 
G3 X 65.177 Y 21.499 I-1.500 J0.000
G3 X 63.677 Y 19.999 I0.000 J-1.500
G3 X 65.177 Y 18.499 I1.500 J0.000
G1  Y 17.499  
G3 X 67.677 Y 19.999 I0.000 J2.500 
G3 X 65.177 Y 22.499 I-2.500 J0.000
G3 X 62.677 Y 19.999 I0.000 J-2.500
G3 X 65.177 Y 17.499 I2.500 J0.000
G1  Y 16.499  
G3 X 68.677 Y 19.999 I0.000 J3.500 
G3 X 65.177 Y 23.499 I-3.500 J0.000
G3 X 61.677 Y 19.999 I0.000 J-3.500
G3 X 65.177 Y 16.499 I3.500 J0.000
G1  Y 15.499  
G3 X 69.677 Y 19.999 I0.000 J4.500 
G3 X 65.177 Y 24.499 I-4.500 J0.000
G3 X 60.677 Y 19.999 I0.000 J-4.500
G3 X 65.177 Y 15.499 I4.500 J0.000
G1  Y 14.499  
G3 X 70.677 Y 19.999 I0.000 J5.500 
G3 X 65.177 Y 25.499 I-5.500 J0.000
G3 X 59.677 Y 19.999 I0.000 J-5.500
G3 X 65.177 Y 14.499 I5.500 J0.000
G1  Y 13.499  
G3 X 71.677 Y 19.999 I0.000 J6.500 
G3 X 65.177 Y 26.499 I-6.500 J0.000
G3 X 58.677 Y 19.999 I0.000 J-6.500
G3 X 65.177 Y 13.499 I6.500 J0.000
G1  Y 12.499  
G3 X 72.677 Y 19.999 I0.000 J7.500 
G3 X 65.177 Y 27.499 I-7.500 J0.000
G3 X 57.677 Y 19.999 I0.000 J-7.500
G3 X 65.177 Y 12.499 I7.500 J0.000
G1  Y 11.499  
G3 X 73.677 Y 19.999 I0.000 J8.500 
G3 X 65.177 Y 28.499 I-8.500 J0.000
G3 X 56.677 Y 19.999 I0.000 J-8.500
G3 X 65.177 Y 11.499 I8.500 J0.000
G0   Z 6.000
G0  Y 19.499 
G1   Z -2.500 F15000.0
G3 X 65.677 Y 19.999 I0.000 J0.500 F39000.0
G3 X 65.177 Y 20.499 I-0.500 J0.000
G3 X 64.677 Y 19.999 I0.000 J-0.500
G3 X 65.177 Y 19.499 I0.500 J0.000
G1  Y 18.499  
G3 X 66.677 Y 19.999 I0.000 J1.500 
G3 X 65.177 Y 21.499 I-1.500 J0.000
G3 X 63.677 Y 19.999 I0.000 J-1.500
G3 X 65.177 Y 18.499 I1.500 J0.000
G1  Y 17.499  
G3 X 67.677 Y 19.999 I0.000 J2.500 
G3 X 65.177 Y 22.499 I-2.500 J0.000
G3 X 62.677 Y 19.999 I0.000 J-2.500
G3 X 65.177 Y 17.499 I2.500 J0.000
G1  Y 16.499  
G3 X 68.677 Y 19.999 I0.000 J3.500 
G3 X 65.177 Y 23.499 I-3.500 J0.000
G3 X 61.677 Y 19.999 I0.000 J-3.500
G3 X 65.177 Y 16.499 I3.500 J0.000
G1  Y 15.499  
G3 X 69.677 Y 19.999 I0.000 J4.500 
G3 X 65.177 Y 24.499 I-4.500 J0.000
G3 X 60.677 Y 19.999 I0.000 J-4.500
G3 X 65.177 Y 15.499 I4.500 J0.000
G1  Y 14.499  
G3 X 70.677 Y 19.999 I0.000 J5.500 
G3 X 65.177 Y 25.499 I-5.500 J0.000
G3 X 59.677 Y 19.999 I0.000 J-5.500
G3 X 65.177 Y 14.499 I5.500 J0.000
G1  Y 13.499  
G3 X 71.677 Y 19.999 I0.000 J6.500 
G3 X 65.177 Y 26.499 I-6.500 J0.000
G3 X 58.677 Y 19.999 I0.000 J-6.500
G3 X 65.177 Y 13.499 I6.500 J0.000
G1  Y 12.499  
G3 X 72.677 Y 19.999 I0.000 J7.500 
G3 X 65.177 Y 27.499 I-7.500 J0.000
G3 X 57.677 Y 19.999 I0.000 J-7.500
G3 X 65.177 Y 12.499 I7.500 J0.000
G1  Y 11.499  
G3 X 73.677 Y 19.999 I0.000 J8.500 
G3 X 65.177 Y 28.499 I-8.500 J0.000
G3 X 56.677 Y 19.999 I0.000 J-8.500
G3 X 65.177 Y 11.499 I8.500 J0.000
G0   Z 6.000
G0  Y 19.499 
G1   Z -3.750 F15000.0
G3 X 65.677 Y 19.999 I0.000 J0.500 F39000.0
G3 X 65.177 Y 20.499 I-0.500 J0.000
G3 X 64.677 Y 19.999 I0.000 J-0.500
G3 X 65.177 Y 19.499 I0.500 J0.000
G1  Y 18.499  
G3 X 66.677 Y 19.999 I0.000 J1.500 
G3 X 65.177 Y 21.499 I-1.500 J0.000
G3 X 63.677 Y 19.999 I0.000 J-1.500
G3 X 65.177 Y 18.499 I1.500 J0.000
G1  Y 17.499  
G3 X 67.677 Y 19.999 I0.000 J2.500 
G3 X 65.177 Y 22.499 I-2.500 J0.000
G3 X 62.677 Y 19.999 I0.000 J-2.500
G3 X 65.177 Y 17.499 I2.500 J0.000
G1  Y 16.499  
G3 X 68.677 Y 19.999 I0.000 J3.500 
G3 X 65.177 Y 23.499 I-3.500 J0.000
G3 X 61.677 Y 19.999 I0.000 J-3.500
G3 X 65.177 Y 16.499 I3.500 J0.000
G1  Y 15.499  
G3 X 69.677 Y 19.999 I0.000 J4.500 
G3 X 65.177 Y 24.499 I-4.500 J0.000
G3 X 60.677 Y 19.999 I0.000 J-4.500
G3 X 65.177 Y 15.499 I4.500 J0.000
G1  Y 14.499  
G3 X 70.677 Y 19.999 I0.000 J5.500 
G3 X 65.177 Y 25.499 I-5.500 J0.000
G3 X 59.677 Y 19.999 I0.000 J-5.500
G3 X 65.177 Y 14.499 I5.500 J0.000
G1  Y 13.499  
G3 X 71.677 Y 19.999 I0.000 J6.500 
G3 X 65.177 Y 26.499 I-6.500 J0.000
G3 X 58.677 Y 19.999 I0.000 J-6.500
G3 X 65.177 Y 13.499 I6.500 J0.000
G1  Y 12.499  
G3 X 72.677 Y 19.999 I0.000 J7.500 
G3 X 65.177 Y 27.499 I-7.500 J0.000
G3 X 57.677 Y 19.999 I0.000 J-7.500
G3 X 65.177 Y 12.499 I7.500 J0.000
G1  Y 11.499  
G3 X 73.677 Y 19.999 I0.000 J8.500 
G3 X 65.177 Y 28.499 I-8.500 J0.000
G3 X 56.677 Y 19.999 I0.000 J-8.500
G3 X 65.177 Y 11.499 I8.500 J0.000
G0   Z 6.000
G0  Y 19.499 
G1   Z -5.000 F15000.0
G3 X 65.677 Y 19.999 I0.000 J0.500 F39000.0
G3 X 65.177 Y 20.499 I-0.500 J0.000
G3 X 64.677 Y 19.999 I0.000 J-0.500
G3 X 65.177 Y 19.499 I0.500 J0.000
G1  Y 18.499  
G3 X 66.677 Y 19.999 I0.000 J1.500 
G3 X 65.177 Y 21.499 I-1.500 J0.000
G3 X 63.677 Y 19.999 I0.000 J-1.500
G3 X 65.177 Y 18.499 I1.500 J0.000
G1  Y 17.499  
G3 X 67.677 Y 19.999 I0.000 J2.500 
G3 X 65.177 Y 22.499 I-2.500 J0.000
G3 X 62.677 Y 19.999 I0.000 J-2.500
G3 X 65.177 Y 17.499 I2.500 J0.000
G1  Y 16.499  
G3 X 68.677 Y 19.999 I0.000 J3.500 
G3 X 65.177 Y 23.499 I-3.500 J0.000
G3 X 61.677 Y 19.999 I0.000 J-3.500
G3 X 65.177 Y 16.499 I3.500 J0.000
G1  Y 15.499  
G3 X 69.677 Y 19.999 I0.000 J4.500 
G3 X 65.177 Y 24.499 I-4.500 J0.000
G3 X 60.677 Y 19.999 I0.000 J-4.500
G3 X 65.177 Y 15.499 I4.500 J0.000
G1  Y 14.499  
G3 X 70.677 Y 19.999 I0.000 J5.500 
G3 X 65.177 Y 25.499 I-5.500 J0.000
G3 X 59.677 Y 19.999 I0.000 J-5.500
G3 X 65.177 Y 14.499 I5.500 J0.000
G1  Y 13.499  
G3 X 71.677 Y 19.999 I0.000 J6.500 
G3 X 65.177 Y 26.499 I-6.500 J0.000
G3 X 58.677 Y 19.999 I0.000 J-6.500
G3 X 65.177 Y 13.499 I6.500 J0.000
G1  Y 12.499  
G3 X 72.677 Y 19.999 I0.000 J7.500 
G3 X 65.177 Y 27.499 I-7.500 J0.000
G3 X 57.677 Y 19.999 I0.000 J-7.500
G3 X 65.177 Y 12.499 I7.500 J0.000
G1  Y 11.499  
G3 X 73.677 Y 19.999 I0.000 J8.500 
G3 X 65.177 Y 28.499 I-8.500 J0.000
G3 X 56.677 Y 19.999 I0.000 J-8.500
G3 X 65.177 Y 11.499 I8.500 J0.000
G0   Z 6.000
G0 X 95.177 Y 19.499 
G1   Z -1.250 F15000.0
G3 X 95.677 Y 19.999 I0.000 J0.500 F39000.0
G3 X 95.177 Y 20.499 I-0.500 J0.000
G3 X 94.677 Y 19.999 I0.000 J-0.500
G3 X 95.177 Y 19.499 I0.500 J0.000
G1  Y 18.499  
G3 X 96.677 Y 19.999 I0.000 J1.500 
G3 X 95.177 Y 21.499 I-1.500 J0.000
G3 X 93.677 Y 19.999 I0.000 J-1.500
G3 X 95.177 Y 18.499 I1.500 J0.000
G1  Y 17.499  
G3 X 97.677 Y 19.999 I0.000 J2.500 
G3 X 95.177 Y 22.499 I-2.500 J0.000
G3 X 92.677 Y 19.999 I0.000 J-2.500
G3 X 95.177 Y 17.499 I2.500 J0.000
G1  Y 16.499  
G3 X 98.677 Y 19.999 I0.000 J3.500 
G3 X 95.177 Y 23.499 I-3.500 J0.000
G3 X 91.677 Y 19.999 I0.000 J-3.500
G3 X 95.177 Y 16.499 I3.500 J0.000
G1  Y 15.499  
G3 X 99.677 Y 19.999 I0.000 J4.500 
G3 X 95.177 Y 24.499 I-4.500 J0.000
G3 X 90.677 Y 19.999 I0.000 J-4.500
G3 X 95.177 Y 15.499 I4.500 J0.000
G1  Y 14.499  
G3 X 100.677 Y 19.999 I0.000 J5.500 
G3 X 95.177 Y 25.499 I-5.500 J0.000
G3 X 89.677 Y 19.999 I0.000 J-5.500
G3 X 95.177 Y 14.499 I5.500 J0.000
G1  Y 13.499  
G3 X 101.677 Y 19.999 I0.000 J6.500 
G3 X 95.177 Y 26.499 I-6.500 J0.000
G3 X 88.677 Y 19.999 I0.000 J-6.500
G3 X 95.177 Y 13.499 I6.500 J0.000
G1  Y 12.499  
G3 X 102.677 Y 19.999 I0.000 J7.500 
G3 X 95.177 Y 27.499 I-7.500 J0.000
G3 X 87.677 Y 19.999 I0.000 J-7.500
G3 X 95.177 Y 12.499 I7.500 J0.000
G1  Y 11.499  
G3 X 103.677 Y 19.999 I0.000 J8.500 
G3 X 95.177 Y 28.499 I-8.500 J0.000
G3 X 86.677 Y 19.999 I0.000 J-8.500
G3 X 95.177 Y 11.499 I8.500 J0.000
G0   Z 6.000
G0  Y 19.499 
G1   Z -2.500 F15000.0
G3 X 95.677 Y 19.999 I0.000 J0.500 F39000.0
G3 X 95.177 Y 20.499 I-0.500 J0.000
G3 X 94.677 Y 19.999 I0.000 J-0.500
G3 X 95.177 Y 19.499 I0.500 J0.000
G1  Y 18.499  
G3 X 96.677 Y 19.999 I0.000 J1.500 
G3 X 95.177 Y 21.499 I-1.500 J0.000
G3 X 93.677 Y 19.999 I0.000 J-1.500
G3 X 95.177 Y 18.499 I1.500 J0.000
G1  Y 17.499  
G3 X 97.677 Y 19.999 I0.000 J2.500 
G3 X 95.177 Y 22.499 I-2.500 J0.000
G3 X 92.677 Y 19.999 I0.000 J-2.500
G3 X 95.177 Y 17.499 I2.500 J0.000
G1  Y 16.499  
G3 X 98.677 Y 19.999 I0.000 J3.500 
G3 X 95.177 Y 23.499 I-3.500 J0.000
G3 X 91.677 Y 19.999 I0.000 J-3.500
G3 X 95.177 Y 16.499 I3.500 J0.000
G1  Y 15.499  
G3 X 99.677 Y 19.999 I0.000 J4.500 
G3 X 95.177 Y 24.499 I-4.500 J0.000
G3 X 90.677 Y 19.999 I0.000 J-4.500
G3 X 95.177 Y 15.499 I4.500 J0.000
G1  Y 14.499  
G3 X 100.677 Y 19.999 I0.000 J5.500 
G3 X 95.177 Y 25.499 I-5.500 J0.000
G3 X 89.677 Y 19.999 I0.000 J-5.500
G3 X 95.177 Y 14.499 I5.500 J0.000
G1  Y 13.499  
G3 X 101.677 Y 19.999 I0.000 J6.500 
G3 X 95.177 Y 26.499 I-6.500 J0.000
G3 X 88.677 Y 19.999 I0.000 J-6.500
G3 X 95.177 Y 13.499 I6.500 J0.000
G1  Y 12.499  
G3 X 102.677 Y 19.999 I0.000 J7.500 
G3 X 95.177 Y 27.499 I-7.500 J0.000
G3 X 87.677 Y 19.999 I0.000 J-7.500
G3 X 95.177 Y 12.499 I7.500 J0.000
G1  Y 11.499  
G3 X 103.677 Y 19.999 I0.000 J8.500 
G3 X 95.177 Y 28.499 I-8.500 J0.000
G3 X 86.677 Y 19.999 I0.000 J-8.500
G3 X 95.177 Y 11.499 I8.500 J0.000
G0   Z 6.000
G0  Y 19.499 
G1   Z -3.750 F15000.0
G3 X 95.677 Y 19.999 I0.000 J0.500 F39000.0
G3 X 95.177 Y 20.499 I-0.500 J0.000
G3 X 94.677 Y 19.999 I0.000 J-0.500
G3 X 95.177 Y 19.499 I0.500 J0.000
G1  Y 18.499  
G3 X 96.677 Y 19.999 I0.000 J1.500 
G3 X 95.177 Y 21.499 I-1.500 J0.000
G3 X 93.677 Y 19.999 I0.000 J-1.500
G3 X 95.177 Y 18.499 I1.500 J0.000
G1  Y 17.499  
G3 X 97.677 Y 19.999 I0.000 J2.500 
G3 X 95.177 Y 22.499 I-2.500 J0.000
G3 X 92.677 Y 19.999 I0.000 J-2.500
G3 X 95.177 Y 17.499 I2.500 J0.000
G1  Y 16.499  
G3 X 98.677 Y 19.999 I0.000 J3.500 
G3 X 95.177 Y 23.499 I-3.500 J0.000
G3 X 91.677 Y 19.999 I0.000 J-3.500
G3 X 95.177 Y 16.499 I3.500 J0.000
G1  Y 15.499  
G3 X 99.677 Y 19.999 I0.000 J4.500 
G3 X 95.177 Y 24.499 I-4.500 J0.000
G3 X 90.677 Y 19.999 I0.000 J-4.500
G3 X 95.177 Y 15.499 I4.500 J0.000
G1  Y 14.499  
G3 X 100.677 Y 19.999 I0.000 J5.500 
G3 X 95.177 Y 25.499 I-5.500 J0.000
G3 X 89.677 Y 19.999 I0.000 J-5.500
G3 X 95.177 Y 14.499 I5.500 J0.000
G1  Y 13.499  
G3 X 101.677 Y 19.999 I0.000 J6.500 
G3 X 95.177 Y 26.499 I-6.500 J0.000
G3 X 88.677 Y 19.999 I0.000 J-6.500
G3 X 95.177 Y 13.499 I6.500 J0.000
G1  Y 12.499  
G3 X 102.677 Y 19.999 I0.000 J7.500 
G3 X 95.177 Y 27.499 I-7.500 J0.000
G3 X 87.677 Y 19.999 I0.000 J-7.500
G3 X 95.177 Y 12.499 I7.500 J0.000
G1  Y 11.499  
G3 X 103.677 Y 19.999 I0.000 J8.500 
G3 X 95.177 Y 28.499 I-8.500 J0.000
G3 X 86.677 Y 19.999 I0.000 J-8.500
G3 X 95.177 Y 11.499 I8.500 J0.000
G0   Z 6.000
G0  Y 19.499 
G1   Z -5.000 F15000.0
G3 X 95.677 Y 19.999 I0.000 J0.500 F39000.0
G3 X 95.177 Y 20.499 I-0.500 J0.000
G3 X 94.677 Y 19.999 I0.000 J-0.500
G3 X 95.177 Y 19.499 I0.500 J0.000
G1  Y 18.499  
G3 X 96.677 Y 19.999 I0.000 J1.500 
G3 X 95.177 Y 21.499 I-1.500 J0.000
G3 X 93.677 Y 19.999 I0.000 J-1.500
G3 X 95.177 Y 18.499 I1.500 J0.000
G1  Y 17.499  
G3 X 97.677 Y 19.999 I0.000 J2.500 
G3 X 95.177 Y 22.499 I-2.500 J0.000
G3 X 92.677 Y 19.999 I0.000 J-2.500
G3 X 95.177 Y 17.499 I2.500 J0.000
G1  Y 16.499  
G3 X 98.677 Y 19.999 I0.000 J3.500 
G3 X 95.177 Y 23.499 I-3.500 J0.000
G3 X 91.677 Y 19.999 I0.000 J-3.500
G3 X 95.177 Y 16.499 I3.500 J0.000
G1  Y 15.499  
G3 X 99.677 Y 19.999 I0.000 J4.500 
G3 X 95.177 Y 24.499 I-4.500 J0.000
G3 X 90.677 Y 19.999 I0.000 J-4.500
G3 X 95.177 Y 15.499 I4.500 J0.000
G1  Y 14.499  
G3 X 100.677 Y 19.999 I0.000 J5.500 
G3 X 95.177 Y 25.499 I-5.500 J0.000
G3 X 89.677 Y 19.999 I0.000 J-5.500
G3 X 95.177 Y 14.499 I5.500 J0.000
G1  Y 13.499  
G3 X 101.677 Y 19.999 I0.000 J6.500 
G3 X 95.177 Y 26.499 I-6.500 J0.000
G3 X 88.677 Y 19.999 I0.000 J-6.500
G3 X 95.177 Y 13.499 I6.500 J0.000
G1  Y 12.499  
G3 X 102.677 Y 19.999 I0.000 J7.500 
G3 X 95.177 Y 27.499 I-7.500 J0.000
G3 X 87.677 Y 19.999 I0.000 J-7.500
G3 X 95.177 Y 12.499 I7.500 J0.000
G1  Y 11.499  
G3 X 103.677 Y 19.999 I0.000 J8.500 
G3 X 95.177 Y 28.499 I-8.500 J0.000
G3 X 86.677 Y 19.999 I0.000 J-8.500
G3 X 95.177 Y 11.499 I8.500 J0.000
G0   Z 6.000
G0 X 71.427 Y 19.999 Z 6.000
G1   Z -1.450 F15000.0
G3 X 65.177 Y 26.249 I-6.250 J0.000 F39000.0
G3 X 58.927 Y 19.999 I0.000 J-6.250
G3 X 65.177 Y 13.749 I6.250 J0.000
G3 X 71.427 Y 19.999 I0.000 J6.250
G1   Z -2.900 F15000.0
G3 X 65.177 Y 26.249 I-6.250 J0.000 F39000.0
G3 X 58.927 Y 19.999 I0.000 J-6.250
G3 X 65.177 Y 13.749 I6.250 J0.000
G3 X 71.427 Y 19.999 I0.000 J6.250
G1   Z -4.350 F15000.0
G3 X 65.177 Y 26.249 I-6.250 J0.000 F39000.0
G3 X 58.927 Y 19.999 I0.000 J-6.250
G3 X 65.177 Y 13.749 I6.250 J0.000
G3 X 71.427 Y 19.999 I0.000 J6.250
G1   Z -5.800 F15000.0
G3 X 65.177 Y 26.249 I-6.250 J0.000 F39000.0
G3 X 58.927 Y 19.999 I0.000 J-6.250
G3 X 65.177 Y 13.749 I6.250 J0.000
G3 X 71.427 Y 19.999 I0.000 J6.250
G0   Z 6.000
G0 X 101.427  
G1   Z -1.450 F15000.0
G3 X 95.177 Y 26.249 I-6.250 J0.000 F39000.0
G3 X 88.927 Y 19.999 I0.000 J-6.250
G3 X 95.177 Y 13.749 I6.250 J0.000
G3 X 101.427 Y 19.999 I0.000 J6.250
G1   Z -2.900 F15000.0
G3 X 95.177 Y 26.249 I-6.250 J0.000 F39000.0
G3 X 88.927 Y 19.999 I0.000 J-6.250
G3 X 95.177 Y 13.749 I6.250 J0.000
G3 X 101.427 Y 19.999 I0.000 J6.250
G1   Z -4.350 F15000.0
G3 X 95.177 Y 26.249 I-6.250 J0.000 F39000.0
G3 X 88.927 Y 19.999 I0.000 J-6.250
G3 X 95.177 Y 13.749 I6.250 J0.000
G3 X 101.427 Y 19.999 I0.000 J6.250
G1   Z -5.800 F15000.0
G3 X 95.177 Y 26.249 I-6.250 J0.000 F39000.0
G3 X 88.927 Y 19.999 I0.000 J-6.250
G3 X 95.177 Y 13.749 I6.250 J0.000
G3 X 101.427 Y 19.999 I0.000 J6.250
G0   Z 6.000
G0 X 35.177 Y 18.999 Z 6.000
G1   Z -1.250 F15000.0
G3 X 36.177 Y 19.999 I0.000 J1.000 F39000.0
G3 X 35.177 Y 20.999 I-1.000 J0.000
G3 X 34.177 Y 19.999 I0.000 J-1.000
G3 X 35.177 Y 18.999 I1.000 J0.000
G1  Y 17.999  
G3 X 37.177 Y 19.999 I0.000 J2.000 
G3 X 35.177 Y 21.999 I-2.000 J0.000
G3 X 33.177 Y 19.999 I0.000 J-2.000
G3 X 35.177 Y 17.999 I2.000 J0.000
G1  Y 16.999  
G3 X 38.177 Y 19.999 I0.000 J3.000 
G3 X 35.177 Y 22.999 I-3.000 J0.000
G3 X 32.177 Y 19.999 I0.000 J-3.000
G3 X 35.177 Y 16.999 I3.000 J0.000
G1  Y 15.999  
G3 X 39.177 Y 19.999 I0.000 J4.000 
G3 X 35.177 Y 23.999 I-4.000 J0.000
G3 X 31.177 Y 19.999 I0.000 J-4.000
G3 X 35.177 Y 15.999 I4.000 J0.000
G0   Z 6.000
G0  Y 18.999 
G1   Z -2.500 F15000.0
G3 X 36.177 Y 19.999 I0.000 J1.000 F39000.0
G3 X 35.177 Y 20.999 I-1.000 J0.000
G3 X 34.177 Y 19.999 I0.000 J-1.000
G3 X 35.177 Y 18.999 I1.000 J0.000
G1  Y 17.999  
G3 X 37.177 Y 19.999 I0.000 J2.000 
G3 X 35.177 Y 21.999 I-2.000 J0.000
G3 X 33.177 Y 19.999 I0.000 J-2.000
G3 X 35.177 Y 17.999 I2.000 J0.000
G1  Y 16.999  
G3 X 38.177 Y 19.999 I0.000 J3.000 
G3 X 35.177 Y 22.999 I-3.000 J0.000
G3 X 32.177 Y 19.999 I0.000 J-3.000
G3 X 35.177 Y 16.999 I3.000 J0.000
G1  Y 15.999  
G3 X 39.177 Y 19.999 I0.000 J4.000 
G3 X 35.177 Y 23.999 I-4.000 J0.000
G3 X 31.177 Y 19.999 I0.000 J-4.000
G3 X 35.177 Y 15.999 I4.000 J0.000
G0   Z 6.000
G0 X 155.177 Y 18.999 
G1   Z -1.250 F15000.0
G3 X 156.177 Y 19.999 I0.000 J1.000 F39000.0
G3 X 155.177 Y 20.999 I-1.000 J0.000
G3 X 154.177 Y 19.999 I0.000 J-1.000
G3 X 155.177 Y 18.999 I1.000 J0.000
G1  Y 17.999  
G3 X 157.177 Y 19.999 I0.000 J2.000 
G3 X 155.177 Y 21.999 I-2.000 J0.000
G3 X 153.177 Y 19.999 I0.000 J-2.000
G3 X 155.177 Y 17.999 I2.000 J0.000
G1  Y 16.999  
G3 X 158.177 Y 19.999 I0.000 J3.000 
G3 X 155.177 Y 22.999 I-3.000 J0.000
G3 X 152.177 Y 19.999 I0.000 J-3.000
G3 X 155.177 Y 16.999 I3.000 J0.000
G1  Y 15.999  
G3 X 159.177 Y 19.999 I0.000 J4.000 
G3 X 155.177 Y 23.999 I-4.000 J0.000
G3 X 151.177 Y 19.999 I0.000 J-4.000
G3 X 155.177 Y 15.999 I4.000 J0.000
G0   Z 6.000
G0  Y 18.999 
G1   Z -2.500 F15000.0
G3 X 156.177 Y 19.999 I0.000 J1.000 F39000.0
G3 X 155.177 Y 20.999 I-1.000 J0.000
G3 X 154.177 Y 19.999 I0.000 J-1.000
G3 X 155.177 Y 18.999 I1.000 J0.000
G1  Y 17.999  
G3 X 157.177 Y 19.999 I0.000 J2.000 
G3 X 155.177 Y 21.999 I-2.000 J0.000
G3 X 153.177 Y 19.999 I0.000 J-2.000
G3 X 155.177 Y 17.999 I2.000 J0.000
G1  Y 16.999  
G3 X 158.177 Y 19.999 I0.000 J3.000 
G3 X 155.177 Y 22.999 I-3.000 J0.000
G3 X 152.177 Y 19.999 I0.000 J-3.000
G3 X 155.177 Y 16.999 I3.000 J0.000
G1  Y 15.999  
G3 X 159.177 Y 19.999 I0.000 J4.000 
G3 X 155.177 Y 23.999 I-4.000 J0.000
G3 X 151.177 Y 19.999 I0.000 J-4.000
G3 X 155.177 Y 15.999 I4.000 J0.000
G0   Z 6.000
G0 X 130.677 Y 19.999 Z 6.000
G1   Z -1.450 F15000.0
G3 X 125.177 Y 25.499 I-5.500 J0.000 F39000.0
G3 X 119.677 Y 19.999 I0.000 J-5.500
G3 X 125.177 Y 14.499 I5.500 J0.000
G3 X 130.677 Y 19.999 I0.000 J5.500
G1   Z -2.900 F15000.0
G3 X 125.177 Y 25.499 I-5.500 J0.000 F39000.0
G3 X 119.677 Y 19.999 I0.000 J-5.500
G3 X 125.177 Y 14.499 I5.500 J0.000
G3 X 130.677 Y 19.999 I0.000 J5.500
G1   Z -4.350 F15000.0
G3 X 125.177 Y 25.499 I-5.500 J0.000 F39000.0
G3 X 119.677 Y 19.999 I0.000 J-5.500
G3 X 125.177 Y 14.499 I5.500 J0.000
G3 X 130.677 Y 19.999 I0.000 J5.500
G1   Z -5.800 F15000.0
G3 X 125.177 Y 25.499 I-5.500 J0.000 F39000.0
G3 X 119.677 Y 19.999 I0.000 J-5.500
G3 X 125.177 Y 14.499 I5.500 J0.000
G3 X 130.677 Y 19.999 I0.000 J5.500
G0   Z 6.000
G0 X 35.177 Y 18.999 Z 6.000
G1   Z -1.333 F15000.0
G3 X 36.177 Y 19.999 I0.000 J1.000 F39000.0
G3 X 35.177 Y 20.999 I-1.000 J0.000
G3 X 34.177 Y 19.999 I0.000 J-1.000
G3 X 35.177 Y 18.999 I1.000 J0.000
G1  Y 17.999  
G3 X 37.177 Y 19.999 I0.000 J2.000 
G3 X 35.177 Y 21.999 I-2.000 J0.000
G3 X 33.177 Y 19.999 I0.000 J-2.000
G3 X 35.177 Y 17.999 I2.000 J0.000
G1  Y 16.999  
G3 X 38.177 Y 19.999 I0.000 J3.000 
G3 X 35.177 Y 22.999 I-3.000 J0.000
G3 X 32.177 Y 19.999 I0.000 J-3.000
G3 X 35.177 Y 16.999 I3.000 J0.000
G0   Z 6.000
G0  Y 18.999 
G1   Z -2.667 F15000.0
G3 X 36.177 Y 19.999 I0.000 J1.000 F39000.0
G3 X 35.177 Y 20.999 I-1.000 J0.000
G3 X 34.177 Y 19.999 I0.000 J-1.000
G3 X 35.177 Y 18.999 I1.000 J0.000
G1  Y 17.999  
G3 X 37.177 Y 19.999 I0.000 J2.000 
G3 X 35.177 Y 21.999 I-2.000 J0.000
G3 X 33.177 Y 19.999 I0.000 J-2.000
G3 X 35.177 Y 17.999 I2.000 J0.000
G1  Y 16.999  
G3 X 38.177 Y 19.999 I0.000 J3.000 
G3 X 35.177 Y 22.999 I-3.000 J0.000
G3 X 32.177 Y 19.999 I0.000 J-3.000
G3 X 35.177 Y 16.999 I3.000 J0.000
G0   Z 6.000
G0  Y 18.999 
G1   Z -4.000 F15000.0
G3 X 36.177 Y 19.999 I0.000 J1.000 F39000.0
G3 X 35.177 Y 20.999 I-1.000 J0.000
G3 X 34.177 Y 19.999 I0.000 J-1.000
G3 X 35.177 Y 18.999 I1.000 J0.000
G1  Y 17.999  
G3 X 37.177 Y 19.999 I0.000 J2.000 
G3 X 35.177 Y 21.999 I-2.000 J0.000
G3 X 33.177 Y 19.999 I0.000 J-2.000
G3 X 35.177 Y 17.999 I2.000 J0.000
G1  Y 16.999  
G3 X 38.177 Y 19.999 I0.000 J3.000 
G3 X 35.177 Y 22.999 I-3.000 J0.000
G3 X 32.177 Y 19.999 I0.000 J-3.000
G3 X 35.177 Y 16.999 I3.000 J0.000
G0   Z 6.000
G0 X 155.177 Y 18.999 Z 6.000
G1   Z -1.333 F15000.0
G3 X 156.177 Y 19.999 I0.000 J1.000 F39000.0
G3 X 155.177 Y 20.999 I-1.000 J0.000
G3 X 154.177 Y 19.999 I0.000 J-1.000
G3 X 155.177 Y 18.999 I1.000 J0.000
G1  Y 17.999  
G3 X 157.177 Y 19.999 I0.000 J2.000 
G3 X 155.177 Y 21.999 I-2.000 J0.000
G3 X 153.177 Y 19.999 I0.000 J-2.000
G3 X 155.177 Y 17.999 I2.000 J0.000
G1  Y 16.999  
G3 X 158.177 Y 19.999 I0.000 J3.000 
G3 X 155.177 Y 22.999 I-3.000 J0.000
G3 X 152.177 Y 19.999 I0.000 J-3.000
G3 X 155.177 Y 16.999 I3.000 J0.000
G0   Z 6.000
G0  Y 18.999 
G1   Z -2.667 F15000.0
G3 X 156.177 Y 19.999 I0.000 J1.000 F39000.0
G3 X 155.177 Y 20.999 I-1.000 J0.000
G3 X 154.177 Y 19.999 I0.000 J-1.000
G3 X 155.177 Y 18.999 I1.000 J0.000
G1  Y 17.999  
G3 X 157.177 Y 19.999 I0.000 J2.000 
G3 X 155.177 Y 21.999 I-2.000 J0.000
G3 X 153.177 Y 19.999 I0.000 J-2.000
G3 X 155.177 Y 17.999 I2.000 J0.000
G1  Y 16.999  
G3 X 158.177 Y 19.999 I0.000 J3.000 
G3 X 155.177 Y 22.999 I-3.000 J0.000
G3 X 152.177 Y 19.999 I0.000 J-3.000
G3 X 155.177 Y 16.999 I3.000 J0.000
G0   Z 6.000
G0  Y 18.999 
G1   Z -4.000 F15000.0
G3 X 156.177 Y 19.999 I0.000 J1.000 F39000.0
G3 X 155.177 Y 20.999 I-1.000 J0.000
G3 X 154.177 Y 19.999 I0.000 J-1.000
G3 X 155.177 Y 18.999 I1.000 J0.000
G1  Y 17.999  
G3 X 157.177 Y 19.999 I0.000 J2.000 
G3 X 155.177 Y 21.999 I-2.000 J0.000
G3 X 153.177 Y 19.999 I0.000 J-2.000
G3 X 155.177 Y 17.999 I2.000 J0.000
G1  Y 16.999  
G3 X 158.177 Y 19.999 I0.000 J3.000 
G3 X 155.177 Y 22.999 I-3.000 J0.000
G3 X 152.177 Y 19.999 I0.000 J-3.000
G3 X 155.177 Y 16.999 I3.000 J0.000
G0   Z 6.000
G0 X 37.677 Y 19.999 Z 6.000
G1   Z -1.450 F15000.0
G3 X 35.177 Y 22.499 I-2.500 J0.000 F39000.0
G3 X 32.677 Y 19.999 I0.000 J-2.500
G3 X 35.177 Y 17.499 I2.500 J0.000
G3 X 37.677 Y 19.999 I0.000 J2.500
G1   Z -2.900 F15000.0
G3 X 35.177 Y 22.499 I-2.500 J0.000 F39000.0
G3 X 32.677 Y 19.999 I0.000 J-2.500
G3 X 35.177 Y 17.499 I2.500 J0.000
G3 X 37.677 Y 19.999 I0.000 J2.500
G1   Z -4.350 F15000.0
G3 X 35.177 Y 22.499 I-2.500 J0.000 F39000.0
G3 X 32.677 Y 19.999 I0.000 J-2.500
G3 X 35.177 Y 17.499 I2.500 J0.000
G3 X 37.677 Y 19.999 I0.000 J2.500
G1   Z -5.800 F15000.0
G3 X 35.177 Y 22.499 I-2.500 J0.000 F39000.0
G3 X 32.677 Y 19.999 I0.000 J-2.500
G3 X 35.177 Y 17.499 I2.500 J0.000
G3 X 37.677 Y 19.999 I0.000 J2.500
G0   Z 6.000
G0 X 157.677  
G1   Z -1.450 F15000.0
G3 X 155.177 Y 22.499 I-2.500 J0.000 F39000.0
G3 X 152.677 Y 19.999 I0.000 J-2.500
G3 X 155.177 Y 17.499 I2.500 J0.000
G3 X 157.677 Y 19.999 I0.000 J2.500
G1   Z -2.900 F15000.0
G3 X 155.177 Y 22.499 I-2.500 J0.000 F39000.0
G3 X 152.677 Y 19.999 I0.000 J-2.500
G3 X 155.177 Y 17.499 I2.500 J0.000
G3 X 157.677 Y 19.999 I0.000 J2.500
G1   Z -4.350 F15000.0
G3 X 155.177 Y 22.499 I-2.500 J0.000 F39000.0
G3 X 152.677 Y 19.999 I0.000 J-2.500
G3 X 155.177 Y 17.499 I2.500 J0.000
G3 X 157.677 Y 19.999 I0.000 J2.500
G1   Z -5.800 F15000.0
G3 X 155.177 Y 22.499 I-2.500 J0.000 F39000.0
G3 X 152.677 Y 19.999 I0.000 J-2.500
G3 X 155.177 Y 17.499 I2.500 J0.000
G3 X 157.677 Y 19.999 I0.000 J2.500
G0   Z 6.000
G0 X 24.994 Y 3.999 Z 6.000
G1   Z -1.450 F15000.0
G2 X 18.556 Y -0.978 I-5.916 J1.000 F39000.0
G2 X 13.097 Y 4.517 I0.522 J5.978
G2 X 4.661 Y 10.087 I-2.437 J5.483
G1 X -0.616 Y 14.212  
G2 X -1.000 Y 14.999 I0.616 J0.788 
G1 X -1.000 Y 44.999  
G2 X 0.000 Y 45.999 I1.000 J0.000 
G1 X 190.355   
G2 X 191.355 Y 44.999 I0.000 J-1.000 
G1  Y 14.999  
G2 X 190.971 Y 14.212 I-1.000 J0.000 
G1 X 185.694 Y 10.087  
G2 X 177.257 Y 4.517 I-5.999 J-0.087 
G2 X 171.799 Y -0.978 I-5.980 J0.483
G2 X 165.360 Y 3.999 I-0.522 J5.977
G1 X 24.994 Y 3.999  
G1   Z -2.900 F15000.0
G2 X 18.556 Y -0.978 I-5.916 J1.000 F39000.0
G2 X 13.097 Y 4.517 I0.522 J5.978
G2 X 4.661 Y 10.087 I-2.437 J5.483
G1 X -0.616 Y 14.212  
G2 X -1.000 Y 14.999 I0.616 J0.788 
G1 X -1.000 Y 44.999  
G2 X 0.000 Y 45.999 I1.000 J0.000 
G1 X 190.355   
G2 X 191.355 Y 44.999 I0.000 J-1.000 
G1  Y 14.999  
G2 X 190.971 Y 14.212 I-1.000 J0.000 
G1 X 185.694 Y 10.087  
G2 X 177.257 Y 4.517 I-5.999 J-0.087 
G2 X 171.799 Y -0.978 I-5.980 J0.483
G2 X 165.360 Y 3.999 I-0.522 J5.977
G1 X 24.994 Y 3.999  
G1   Z -4.350 F15000.0
G2 X 18.556 Y -0.978 I-5.916 J1.000 F39000.0
G2 X 13.097 Y 4.517 I0.522 J5.978
G2 X 4.661 Y 10.087 I-2.437 J5.483
G1 X -0.616 Y 14.212  
G2 X -1.000 Y 14.999 I0.616 J0.788 
G1 X -1.000 Y 44.999  
G2 X 0.000 Y 45.999 I1.000 J0.000 
G1 X 190.355   
G2 X 191.355 Y 44.999 I0.000 J-1.000 
G1  Y 14.999  
G2 X 190.971 Y 14.212 I-1.000 J0.000 
G1 X 185.694 Y 10.087  
G2 X 177.257 Y 4.517 I-5.999 J-0.087 
G2 X 171.799 Y -0.978 I-5.980 J0.483
G2 X 165.360 Y 3.999 I-0.522 J5.977
G1 X 24.994 Y 3.999  
G1   Z -5.800 F15000.0
G2 X 18.556 Y -0.978 I-5.916 J1.000 F39000.0
G2 X 13.097 Y 4.517 I0.522 J5.978
G2 X 4.661 Y 10.087 I-2.437 J5.483
G1 X -0.616 Y 14.212  
G2 X -1.000 Y 14.999 I0.616 J0.788 
G1 X -1.000 Y 44.999  
G2 X 0.000 Y 45.999 I1.000 J0.000 
G1 X 190.355   
G2 X 191.355 Y 44.999 I0.000 J-1.000 
G1  Y 14.999  
G2 X 190.971 Y 14.212 I-1.000 J0.000 
G1 X 185.694 Y 10.087  
G2 X 177.257 Y 4.517 I-5.999 J-0.087 
G2 X 171.799 Y -0.978 I-5.980 J0.483
G2 X 165.360 Y 3.999 I-0.522 J5.977
G1 X 24.994 Y 3.999  
G0   Z 6.000
G0 Z 20.000
G0 X 0.000 Y 0.000
(END OF PROGRAM)
%
